(G-CODE GENERATED BY FLATCAM v8.994 - www.flatcam.org - Version Date: 2020/11/7)

(Name: Attiny programmer shield-F_Cu.gbr_iso_combined_cnc)
(Type: G-code from Geometry)
(Units: MM)

(Created on Wednesday, 30 November 2022 at 21:16)

(This preprocessor is the default preprocessor used by FlatCAM.)
(It is made to work with MACH3 compatible motion controllers.)

(TOOL DIAMETER: 0.8 mm)
(Feedrate_XY: 100.0 mm/min)
(Feedrate_Z: 60.0 mm/min)
(Feedrate rapids 1500.0 mm/min)

(Z_Cut: -0.11 mm)
(Z_Move: 2.0 mm)
(Z Start: None mm)
(Z End: 10.0 mm)
(X,Y End: 0.0000, 0.0000 mm)
(Steps per circle: 64)
(Preprocessor Geometry: Default_no_M6)

(X range:    9.1400 ...   68.8274  mm)
(Y range:    7.8864 ...   60.7515  mm)

(Spindle Speed: 1000.0 RPM)
G21
G90
G94

G01 F100.00

M5
G00 Z15.0000
G00 X0.0000 Y0.0000
T1
(MSG, Change to Tool Dia = 0.8000)
M0
G00 Z15.0000
        
M03 S1000.0
G4 P1.0
G01 F100.00
G00 X13.8826 Y14.2995
G01 F60.00
G01 Z-0.1100
G01 F100.00
G01 X13.9750 Y14.2664
G01 X13.9936 Y14.2603
G01 X14.0125 Y14.2550
G01 X14.1077 Y14.2312
G01 X14.1269 Y14.2269
G01 X14.1462 Y14.2235
G01 X14.2433 Y14.2091
G01 X14.2628 Y14.2067
G01 X14.2824 Y14.2053
G01 X14.3801 Y14.2005
G01 X16.5403 Y12.0403
G01 X16.5545 Y12.0268
G01 X16.5801 Y12.0038
G01 X16.5952 Y11.9913
G01 X16.6228 Y11.9707
G01 X16.6388 Y11.9594
G01 X16.6554 Y11.9489
G01 X16.6849 Y11.9314
G01 X16.7022 Y11.9221
G01 X16.7333 Y11.9073
G01 X16.7512 Y11.8994
G01 X16.7695 Y11.8923
G01 X16.8019 Y11.8808
G01 X16.8207 Y11.8751
G01 X16.8540 Y11.8667
G01 X16.8732 Y11.8624
G01 X16.8925 Y11.8590
G01 X16.9265 Y11.8541
G01 X16.9559 Y11.8516
G01 X16.9804 Y11.8504
G01 X17.0000 Y11.8499
G01 X35.8307 Y11.8499
G01 X35.8710 Y11.8096
G01 X35.8710 Y11.0009
G01 X35.8414 Y10.9831
G01 X35.8251 Y10.9722
G01 X35.7433 Y10.9115
G01 X35.7207 Y10.8925
G01 X35.6526 Y10.8306
G01 X35.6320 Y10.8095
G01 X35.5768 Y10.7486
G01 X35.5640 Y10.7337
G01 X35.5519 Y10.7182
G01 X35.5029 Y10.6522
G01 X35.4862 Y10.6279
G01 X35.4338 Y10.5405
G01 X35.4203 Y10.5143
G01 X35.3851 Y10.4400
G01 X35.3772 Y10.4220
G01 X35.3701 Y10.4037
G01 X35.3424 Y10.3263
G01 X35.3362 Y10.3076
G01 X35.3310 Y10.2887
G01 X35.3110 Y10.2089
G01 X35.3067 Y10.1898
G01 X35.3033 Y10.1704
G01 X35.2913 Y10.0891
G01 X35.2889 Y10.0696
G01 X35.2874 Y10.0500
G01 X35.2834 Y9.9678
G01 X35.2829 Y9.9482
G01 X35.2829 Y9.1246
G01 X35.2834 Y9.1050
G01 X35.2874 Y9.0228
G01 X35.2899 Y8.9935
G01 X35.3033 Y8.9024
G01 X35.3087 Y8.8734
G01 X35.3335 Y8.7746
G01 X35.3424 Y8.7465
G01 X35.3701 Y8.6691
G01 X35.3772 Y8.6508
G01 X35.3851 Y8.6328
G01 X35.4203 Y8.5585
G01 X35.4338 Y8.5323
G01 X35.4862 Y8.4449
G01 X35.5029 Y8.4206
G01 X35.5519 Y8.3546
G01 X35.5640 Y8.3391
G01 X35.5768 Y8.3242
G01 X35.6320 Y8.2633
G01 X35.6456 Y8.2491
G01 X35.6598 Y8.2355
G01 X35.7207 Y8.1803
G01 X35.7356 Y8.1675
G01 X35.7511 Y8.1554
G01 X35.8171 Y8.1064
G01 X35.8332 Y8.0951
G01 X35.8498 Y8.0846
G01 X35.9203 Y8.0423
G01 X35.9374 Y8.0326
G01 X35.9550 Y8.0238
G01 X36.0293 Y7.9886
G01 X36.0473 Y7.9807
G01 X36.0656 Y7.9736
G01 X36.1430 Y7.9459
G01 X36.1617 Y7.9397
G01 X36.1806 Y7.9345
G01 X36.2604 Y7.9145
G01 X36.2795 Y7.9102
G01 X36.2989 Y7.9068
G01 X36.3802 Y7.8948
G01 X36.3997 Y7.8924
G01 X36.4193 Y7.8909
G01 X36.5015 Y7.8869
G01 X36.5211 Y7.8864
G01 X36.5407 Y7.8869
G01 X36.6229 Y7.8909
G01 X36.6425 Y7.8924
G01 X36.6620 Y7.8948
G01 X36.7433 Y7.9068
G01 X36.7627 Y7.9102
G01 X36.7818 Y7.9145
G01 X36.8616 Y7.9345
G01 X36.8805 Y7.9397
G01 X36.8992 Y7.9459
G01 X36.9766 Y7.9736
G01 X36.9949 Y7.9807
G01 X37.0129 Y7.9886
G01 X37.0872 Y8.0238
G01 X37.1048 Y8.0326
G01 X37.1219 Y8.0423
G01 X37.1924 Y8.0846
G01 X37.2090 Y8.0951
G01 X37.2251 Y8.1064
G01 X37.2911 Y8.1554
G01 X37.3066 Y8.1675
G01 X37.3215 Y8.1803
G01 X37.3824 Y8.2355
G01 X37.3966 Y8.2491
G01 X37.4102 Y8.2633
G01 X37.4654 Y8.3242
G01 X37.4782 Y8.3391
G01 X37.4903 Y8.3546
G01 X37.5393 Y8.4206
G01 X37.5506 Y8.4367
G01 X37.5611 Y8.4533
G01 X37.6034 Y8.5238
G01 X37.6131 Y8.5409
G01 X37.6219 Y8.5585
G01 X37.6571 Y8.6328
G01 X37.6650 Y8.6508
G01 X37.6721 Y8.6691
G01 X37.6998 Y8.7465
G01 X37.7060 Y8.7652
G01 X37.7112 Y8.7841
G01 X37.7335 Y8.8734
G01 X37.7389 Y8.9024
G01 X37.7509 Y8.9837
G01 X37.7533 Y9.0032
G01 X37.7548 Y9.0228
G01 X37.7588 Y9.1050
G01 X37.7593 Y9.1246
G01 X37.7592 Y9.9580
G01 X37.7548 Y10.0500
G01 X37.7533 Y10.0696
G01 X37.7509 Y10.0891
G01 X37.7373 Y10.1801
G01 X37.7312 Y10.2089
G01 X37.7112 Y10.2887
G01 X37.7060 Y10.3076
G01 X37.6998 Y10.3263
G01 X37.6721 Y10.4037
G01 X37.6650 Y10.4220
G01 X37.6571 Y10.4400
G01 X37.6219 Y10.5143
G01 X37.6131 Y10.5319
G01 X37.6034 Y10.5490
G01 X37.5611 Y10.6195
G01 X37.5451 Y10.6442
G01 X37.4903 Y10.7182
G01 X37.4782 Y10.7337
G01 X37.4654 Y10.7486
G01 X37.4102 Y10.8095
G01 X37.3896 Y10.8306
G01 X37.3215 Y10.8925
G01 X37.2989 Y10.9115
G01 X37.2171 Y10.9722
G01 X37.2008 Y10.9831
G01 X37.1712 Y11.0009
G01 X37.1711 Y12.0887
G01 X37.1695 Y12.1230
G01 X37.1681 Y12.1426
G01 X37.1657 Y12.1621
G01 X37.1605 Y12.1961
G01 X37.1567 Y12.2153
G01 X37.1485 Y12.2487
G01 X37.1432 Y12.2676
G01 X37.1371 Y12.2863
G01 X37.1254 Y12.3186
G01 X37.1179 Y12.3367
G01 X37.0990 Y12.3767
G01 X37.0897 Y12.3940
G01 X37.0670 Y12.4319
G01 X37.0561 Y12.4482
G01 X37.0298 Y12.4837
G01 X37.0173 Y12.4988
G01 X36.9943 Y12.5244
G01 X36.9808 Y12.5386
G01 X36.5527 Y12.9666
G01 X36.5273 Y12.9897
G01 X36.5124 Y13.0026
G01 X36.4970 Y13.0146
G01 X36.4772 Y13.0293
G01 X36.4530 Y13.0459
G01 X36.4235 Y13.0637
G01 X36.4065 Y13.0734
G01 X36.3889 Y13.0822
G01 X36.3578 Y13.0968
G01 X36.3305 Y13.1077
G01 X36.3074 Y13.1160
G01 X36.2887 Y13.1221
G01 X36.2698 Y13.1274
G01 X36.2364 Y13.1356
G01 X36.2075 Y13.1410
G01 X36.1832 Y13.1446
G01 X36.1637 Y13.1470
G01 X36.1441 Y13.1484
G01 X36.1196 Y13.1496
G01 X36.1000 Y13.1501
G01 X17.2693 Y13.1501
G01 X15.5768 Y14.8426
G01 X15.6250 Y14.9230
G01 X15.6347 Y14.9400
G01 X15.6435 Y14.9576
G01 X15.6855 Y15.0463
G01 X15.6934 Y15.0642
G01 X15.7005 Y15.0826
G01 X15.7336 Y15.1750
G01 X15.7397 Y15.1936
G01 X15.7450 Y15.2125
G01 X15.7688 Y15.3077
G01 X15.7731 Y15.3269
G01 X15.7765 Y15.3462
G01 X15.7909 Y15.4433
G01 X15.7933 Y15.4628
G01 X15.7947 Y15.4824
G01 X15.7995 Y15.5804
G01 X15.8000 Y15.6000
G01 X15.7995 Y15.6196
G01 X15.7947 Y15.7176
G01 X15.7933 Y15.7372
G01 X15.7909 Y15.7567
G01 X15.7765 Y15.8538
G01 X15.7731 Y15.8731
G01 X15.7688 Y15.8923
G01 X15.7450 Y15.9875
G01 X15.7397 Y16.0064
G01 X15.7336 Y16.0250
G01 X15.7005 Y16.1174
G01 X15.6934 Y16.1358
G01 X15.6855 Y16.1537
G01 X15.6435 Y16.2424
G01 X15.6347 Y16.2600
G01 X15.6250 Y16.2770
G01 X15.5746 Y16.3612
G01 X15.5585 Y16.3859
G01 X15.4943 Y16.4727
G01 X15.4822 Y16.4882
G01 X15.4694 Y16.5030
G01 X15.4035 Y16.5757
G01 X15.3899 Y16.5899
G01 X15.3757 Y16.6035
G01 X15.3030 Y16.6694
G01 X15.2882 Y16.6822
G01 X15.2727 Y16.6943
G01 X15.1938 Y16.7528
G01 X15.1696 Y16.7694
G01 X15.0770 Y16.8250
G01 X15.0600 Y16.8347
G01 X15.0424 Y16.8435
G01 X14.9537 Y16.8855
G01 X14.9358 Y16.8934
G01 X14.9174 Y16.9005
G01 X14.8250 Y16.9336
G01 X14.8064 Y16.9397
G01 X14.7875 Y16.9450
G01 X14.6923 Y16.9688
G01 X14.6731 Y16.9731
G01 X14.6538 Y16.9765
G01 X14.5567 Y16.9909
G01 X14.5372 Y16.9933
G01 X14.5176 Y16.9947
G01 X14.4196 Y16.9995
G01 X14.4000 Y17.0000
G01 X14.3804 Y16.9995
G01 X14.2824 Y16.9947
G01 X14.2628 Y16.9933
G01 X14.2433 Y16.9909
G01 X14.1462 Y16.9765
G01 X14.1269 Y16.9731
G01 X14.1077 Y16.9688
G01 X14.0125 Y16.9450
G01 X13.9936 Y16.9397
G01 X13.9750 Y16.9336
G01 X13.8826 Y16.9005
G01 X13.8642 Y16.8934
G01 X13.8463 Y16.8855
G01 X13.7576 Y16.8435
G01 X13.7400 Y16.8347
G01 X13.7230 Y16.8250
G01 X13.6388 Y16.7746
G01 X13.6222 Y16.7641
G01 X13.6062 Y16.7528
G01 X13.5273 Y16.6943
G01 X13.5043 Y16.6759
G01 X13.4243 Y16.6035
G01 X13.4101 Y16.5899
G01 X13.3965 Y16.5757
G01 X13.3306 Y16.5030
G01 X13.3117 Y16.4805
G01 X13.2472 Y16.3938
G01 X13.2359 Y16.3778
G01 X13.2254 Y16.3612
G01 X13.1750 Y16.2770
G01 X13.1653 Y16.2600
G01 X13.1565 Y16.2424
G01 X13.1145 Y16.1537
G01 X13.1066 Y16.1358
G01 X13.0995 Y16.1174
G01 X13.0664 Y16.0250
G01 X13.0603 Y16.0064
G01 X13.0550 Y15.9875
G01 X13.0289 Y15.8827
G01 X13.0235 Y15.8538
G01 X13.0091 Y15.7567
G01 X13.0067 Y15.7372
G01 X13.0053 Y15.7176
G01 X13.0005 Y15.6196
G01 X13.0000 Y15.6000
G01 X13.0005 Y15.5804
G01 X13.0059 Y15.4726
G01 X13.0091 Y15.4433
G01 X13.0235 Y15.3462
G01 X13.0269 Y15.3269
G01 X13.0312 Y15.3077
G01 X13.0550 Y15.2125
G01 X13.0603 Y15.1936
G01 X13.0664 Y15.1750
G01 X13.0995 Y15.0826
G01 X13.1066 Y15.0642
G01 X13.1145 Y15.0463
G01 X13.1565 Y14.9576
G01 X13.1653 Y14.9400
G01 X13.1750 Y14.9230
G01 X13.2254 Y14.8388
G01 X13.2359 Y14.8222
G01 X13.2472 Y14.8062
G01 X13.3057 Y14.7273
G01 X13.3178 Y14.7118
G01 X13.3306 Y14.6970
G01 X13.3965 Y14.6243
G01 X13.4101 Y14.6101
G01 X13.4243 Y14.5965
G01 X13.4970 Y14.5306
G01 X13.5195 Y14.5117
G01 X13.6062 Y14.4472
G01 X13.6222 Y14.4359
G01 X13.6388 Y14.4254
G01 X13.7230 Y14.3750
G01 X13.7488 Y14.3608
G01 X13.8463 Y14.3145
G01 X13.8642 Y14.3066
G01 X13.8826 Y14.2995
G00 Z2.0000
G00 X13.4800 Y19.3381
G01 F60.00
G01 Z-0.1100
G01 F100.00
G01 X13.5585 Y19.3100
G01 X13.5771 Y19.3038
G01 X13.5961 Y19.2986
G01 X13.6770 Y19.2783
G01 X13.6961 Y19.2740
G01 X13.7155 Y19.2707
G01 X13.7980 Y19.2584
G01 X13.8175 Y19.2560
G01 X13.8371 Y19.2546
G01 X13.9204 Y19.2505
G01 X13.9400 Y19.2500
G01 X13.9596 Y19.2505
G01 X14.0429 Y19.2546
G01 X14.0625 Y19.2560
G01 X14.0820 Y19.2584
G01 X14.1645 Y19.2707
G01 X14.1839 Y19.2740
G01 X14.2030 Y19.2783
G01 X14.2839 Y19.2986
G01 X14.3029 Y19.3038
G01 X14.3215 Y19.3100
G01 X14.4000 Y19.3381
G01 X14.4184 Y19.3452
G01 X14.4363 Y19.3531
G01 X14.5117 Y19.3888
G01 X14.5292 Y19.3976
G01 X14.5463 Y19.4073
G01 X14.6179 Y19.4502
G01 X14.6345 Y19.4607
G01 X14.6505 Y19.4720
G01 X14.7175 Y19.5217
G01 X14.7330 Y19.5337
G01 X14.7479 Y19.5466
G01 X14.8097 Y19.6026
G01 X14.8239 Y19.6161
G01 X14.8374 Y19.6303
G01 X14.8934 Y19.6921
G01 X14.9063 Y19.7070
G01 X14.9183 Y19.7225
G01 X14.9680 Y19.7895
G01 X14.9793 Y19.8055
G01 X14.9898 Y19.8221
G01 X15.0327 Y19.8937
G01 X15.0424 Y19.9108
G01 X15.0512 Y19.9283
G01 X15.0869 Y20.0037
G01 X15.0948 Y20.0216
G01 X15.1019 Y20.0400
G01 X15.1300 Y20.1185
G01 X15.1362 Y20.1371
G01 X15.1414 Y20.1561
G01 X15.1617 Y20.2370
G01 X15.1660 Y20.2561
G01 X15.1693 Y20.2755
G01 X15.1816 Y20.3580
G01 X15.1840 Y20.3775
G01 X15.1854 Y20.3971
G01 X15.1895 Y20.4804
G01 X15.1900 Y20.5000
G01 X15.1895 Y20.5196
G01 X15.1854 Y20.6029
G01 X15.1840 Y20.6225
G01 X15.1816 Y20.6420
G01 X15.1693 Y20.7245
G01 X15.1660 Y20.7439
G01 X15.1617 Y20.7630
G01 X15.1414 Y20.8439
G01 X15.1362 Y20.8629
G01 X15.1300 Y20.8815
G01 X15.1019 Y20.9600
G01 X15.0948 Y20.9784
G01 X15.0869 Y20.9963
G01 X15.0512 Y21.0717
G01 X15.0424 Y21.0892
G01 X15.0327 Y21.1063
G01 X14.9898 Y21.1779
G01 X14.9793 Y21.1945
G01 X14.9680 Y21.2105
G01 X14.9183 Y21.2775
G01 X14.9063 Y21.2930
G01 X14.8934 Y21.3079
G01 X14.8374 Y21.3697
G01 X14.8239 Y21.3839
G01 X14.8097 Y21.3974
G01 X14.7479 Y21.4534
G01 X14.7330 Y21.4663
G01 X14.7175 Y21.4783
G01 X14.6505 Y21.5280
G01 X14.6345 Y21.5393
G01 X14.6179 Y21.5498
G01 X14.5463 Y21.5927
G01 X14.5292 Y21.6024
G01 X14.5117 Y21.6112
G01 X14.4363 Y21.6469
G01 X14.4184 Y21.6548
G01 X14.4000 Y21.6619
G01 X14.3215 Y21.6900
G01 X14.3029 Y21.6962
G01 X14.2839 Y21.7014
G01 X14.2030 Y21.7217
G01 X14.1839 Y21.7260
G01 X14.1645 Y21.7293
G01 X14.0820 Y21.7416
G01 X14.0625 Y21.7440
G01 X14.0429 Y21.7454
G01 X13.9596 Y21.7495
G01 X13.9400 Y21.7500
G01 X13.9204 Y21.7495
G01 X13.8371 Y21.7454
G01 X13.8175 Y21.7440
G01 X13.7980 Y21.7416
G01 X13.7155 Y21.7293
G01 X13.6961 Y21.7260
G01 X13.6770 Y21.7217
G01 X13.5961 Y21.7014
G01 X13.5771 Y21.6962
G01 X13.5585 Y21.6900
G01 X13.4800 Y21.6619
G01 X13.4616 Y21.6548
G01 X13.4437 Y21.6469
G01 X13.3683 Y21.6112
G01 X13.3508 Y21.6024
G01 X13.3337 Y21.5927
G01 X13.2621 Y21.5498
G01 X13.2455 Y21.5393
G01 X13.2295 Y21.5280
G01 X13.1625 Y21.4783
G01 X13.1470 Y21.4663
G01 X13.1321 Y21.4534
G01 X13.0703 Y21.3974
G01 X13.0561 Y21.3839
G01 X13.0426 Y21.3697
G01 X12.9866 Y21.3079
G01 X12.9737 Y21.2930
G01 X12.9617 Y21.2775
G01 X12.9120 Y21.2105
G01 X12.9007 Y21.1945
G01 X12.8902 Y21.1779
G01 X12.8473 Y21.1063
G01 X12.8376 Y21.0892
G01 X12.8288 Y21.0717
G01 X12.7931 Y20.9963
G01 X12.7852 Y20.9784
G01 X12.7781 Y20.9600
G01 X12.7500 Y20.8815
G01 X12.7438 Y20.8629
G01 X12.7386 Y20.8439
G01 X12.7183 Y20.7630
G01 X12.7140 Y20.7439
G01 X12.7107 Y20.7245
G01 X12.6984 Y20.6420
G01 X12.6960 Y20.6225
G01 X12.6946 Y20.6029
G01 X12.6905 Y20.5196
G01 X12.6900 Y20.5000
G01 X12.6905 Y20.4804
G01 X12.6946 Y20.3971
G01 X12.6960 Y20.3775
G01 X12.6984 Y20.3580
G01 X12.7107 Y20.2755
G01 X12.7140 Y20.2561
G01 X12.7183 Y20.2370
G01 X12.7386 Y20.1561
G01 X12.7438 Y20.1371
G01 X12.7500 Y20.1185
G01 X12.7781 Y20.0400
G01 X12.7852 Y20.0216
G01 X12.7931 Y20.0037
G01 X12.8288 Y19.9283
G01 X12.8376 Y19.9108
G01 X12.8473 Y19.8937
G01 X12.8902 Y19.8221
G01 X12.9007 Y19.8055
G01 X12.9120 Y19.7895
G01 X12.9617 Y19.7225
G01 X12.9737 Y19.7070
G01 X12.9866 Y19.6921
G01 X13.0426 Y19.6303
G01 X13.0561 Y19.6161
G01 X13.0703 Y19.6026
G01 X13.1321 Y19.5466
G01 X13.1470 Y19.5337
G01 X13.1625 Y19.5217
G01 X13.2295 Y19.4720
G01 X13.2455 Y19.4607
G01 X13.2621 Y19.4502
G01 X13.3337 Y19.4073
G01 X13.3508 Y19.3976
G01 X13.3683 Y19.3888
G01 X13.4437 Y19.3531
G01 X13.4616 Y19.3452
G01 X13.4800 Y19.3381
G00 Z2.0000
G00 X10.5500 Y19.2500
G01 F60.00
G01 Z-0.1100
G01 F100.00
G01 X12.2500 Y19.2500
G01 X12.2794 Y19.2511
G01 X12.2990 Y19.2530
G01 X12.3184 Y19.2559
G01 X12.3376 Y19.2597
G01 X12.3567 Y19.2645
G01 X12.3755 Y19.2702
G01 X12.3940 Y19.2768
G01 X12.4121 Y19.2843
G01 X12.4298 Y19.2927
G01 X12.4556 Y19.3069
G01 X12.4722 Y19.3174
G01 X12.4883 Y19.3287
G01 X12.5038 Y19.3408
G01 X12.5186 Y19.3536
G01 X12.5328 Y19.3672
G01 X12.5464 Y19.3814
G01 X12.5592 Y19.3962
G01 X12.5770 Y19.4197
G01 X12.5879 Y19.4360
G01 X12.5980 Y19.4528
G01 X12.6116 Y19.4790
G01 X12.6232 Y19.5060
G01 X12.6328 Y19.5339
G01 X12.6403 Y19.5624
G01 X12.6457 Y19.5913
G01 X12.6481 Y19.6108
G01 X12.6495 Y19.6304
G01 X12.6500 Y19.6500
G01 X12.6499 Y21.3598
G01 X12.6489 Y21.3794
G01 X12.6470 Y21.3990
G01 X12.6441 Y21.4184
G01 X12.6403 Y21.4376
G01 X12.6355 Y21.4567
G01 X12.6266 Y21.4848
G01 X12.6196 Y21.5031
G01 X12.6116 Y21.5210
G01 X12.6028 Y21.5386
G01 X12.5931 Y21.5556
G01 X12.5826 Y21.5722
G01 X12.5653 Y21.5961
G01 X12.5464 Y21.6186
G01 X12.5328 Y21.6328
G01 X12.5186 Y21.6464
G01 X12.5038 Y21.6592
G01 X12.4883 Y21.6713
G01 X12.4722 Y21.6826
G01 X12.4472 Y21.6980
G01 X12.4210 Y21.7116
G01 X12.3940 Y21.7232
G01 X12.3661 Y21.7328
G01 X12.3376 Y21.7403
G01 X12.3184 Y21.7441
G01 X12.2990 Y21.7470
G01 X12.2696 Y21.7495
G01 X12.2500 Y21.7500
G01 X10.5402 Y21.7499
G01 X10.5206 Y21.7489
G01 X10.5010 Y21.7470
G01 X10.4720 Y21.7423
G01 X10.4528 Y21.7380
G01 X10.4339 Y21.7328
G01 X10.4060 Y21.7232
G01 X10.3879 Y21.7157
G01 X10.3702 Y21.7073
G01 X10.3444 Y21.6931
G01 X10.3278 Y21.6826
G01 X10.3117 Y21.6713
G01 X10.2962 Y21.6592
G01 X10.2814 Y21.6464
G01 X10.2672 Y21.6328
G01 X10.2536 Y21.6186
G01 X10.2408 Y21.6038
G01 X10.2230 Y21.5803
G01 X10.2069 Y21.5556
G01 X10.1972 Y21.5386
G01 X10.1884 Y21.5210
G01 X10.1768 Y21.4940
G01 X10.1702 Y21.4755
G01 X10.1645 Y21.4567
G01 X10.1577 Y21.4280
G01 X10.1530 Y21.3990
G01 X10.1505 Y21.3696
G01 X10.1500 Y21.3500
G01 X10.1500 Y19.6500
G01 X10.1505 Y19.6304
G01 X10.1530 Y19.6010
G01 X10.1577 Y19.5720
G01 X10.1620 Y19.5528
G01 X10.1672 Y19.5339
G01 X10.1734 Y19.5152
G01 X10.1804 Y19.4969
G01 X10.1884 Y19.4790
G01 X10.1972 Y19.4614
G01 X10.2121 Y19.4360
G01 X10.2230 Y19.4197
G01 X10.2347 Y19.4039
G01 X10.2536 Y19.3814
G01 X10.2672 Y19.3672
G01 X10.2814 Y19.3536
G01 X10.2962 Y19.3408
G01 X10.3117 Y19.3287
G01 X10.3278 Y19.3174
G01 X10.3444 Y19.3069
G01 X10.3702 Y19.2927
G01 X10.3879 Y19.2843
G01 X10.4060 Y19.2768
G01 X10.4245 Y19.2702
G01 X10.4433 Y19.2645
G01 X10.4624 Y19.2597
G01 X10.4816 Y19.2559
G01 X10.5108 Y19.2519
G01 X10.5304 Y19.2505
G01 X10.5500 Y19.2500
G00 Z2.0000
G00 X10.5800 Y28.3500
G01 F60.00
G01 Z-0.1100
G01 F100.00
G01 X12.2800 Y28.3500
G01 X12.2996 Y28.3505
G01 X12.3192 Y28.3519
G01 X12.3387 Y28.3543
G01 X12.3676 Y28.3597
G01 X12.3961 Y28.3672
G01 X12.4148 Y28.3734
G01 X12.4331 Y28.3804
G01 X12.4598 Y28.3927
G01 X12.4772 Y28.4020
G01 X12.5022 Y28.4174
G01 X12.5183 Y28.4287
G01 X12.5413 Y28.4471
G01 X12.5558 Y28.4603
G01 X12.5764 Y28.4814
G01 X12.5892 Y28.4962
G01 X12.6070 Y28.5197
G01 X12.6179 Y28.5360
G01 X12.6328 Y28.5614
G01 X12.6416 Y28.5790
G01 X12.6496 Y28.5969
G01 X12.6598 Y28.6245
G01 X12.6655 Y28.6433
G01 X12.6723 Y28.6720
G01 X12.6757 Y28.6913
G01 X12.6789 Y28.7206
G01 X12.6799 Y28.7402
G01 X12.6800 Y31.4500
G01 X12.6795 Y31.4696
G01 X12.6770 Y31.4990
G01 X12.6723 Y31.5280
G01 X12.6655 Y31.5567
G01 X12.6598 Y31.5755
G01 X12.6496 Y31.6031
G01 X12.6416 Y31.6210
G01 X12.6280 Y31.6472
G01 X12.6179 Y31.6640
G01 X12.6013 Y31.6883
G01 X12.5892 Y31.7038
G01 X12.5697 Y31.7258
G01 X12.5558 Y31.7397
G01 X12.5338 Y31.7592
G01 X12.5103 Y31.7770
G01 X12.4856 Y31.7931
G01 X12.4686 Y31.8028
G01 X12.4510 Y31.8116
G01 X12.4331 Y31.8196
G01 X12.4055 Y31.8298
G01 X12.3867 Y31.8355
G01 X12.3580 Y31.8423
G01 X12.3387 Y31.8457
G01 X12.3094 Y31.8489
G01 X12.2898 Y31.8499
G01 X10.5800 Y31.8500
G01 X10.5506 Y31.8489
G01 X10.5213 Y31.8457
G01 X10.4924 Y31.8403
G01 X10.4733 Y31.8355
G01 X10.4452 Y31.8266
G01 X10.4179 Y31.8157
G01 X10.4002 Y31.8073
G01 X10.3744 Y31.7931
G01 X10.3578 Y31.7826
G01 X10.3417 Y31.7713
G01 X10.3187 Y31.7529
G01 X10.2972 Y31.7328
G01 X10.2836 Y31.7186
G01 X10.2708 Y31.7038
G01 X10.2530 Y31.6803
G01 X10.2421 Y31.6640
G01 X10.2272 Y31.6386
G01 X10.2184 Y31.6210
G01 X10.2068 Y31.5940
G01 X10.2002 Y31.5755
G01 X10.1920 Y31.5472
G01 X10.1877 Y31.5280
G01 X10.1843 Y31.5087
G01 X10.1811 Y31.4794
G01 X10.1801 Y31.4598
G01 X10.1800 Y28.7500
G01 X10.1805 Y28.7304
G01 X10.1819 Y28.7108
G01 X10.1859 Y28.6816
G01 X10.1897 Y28.6624
G01 X10.1945 Y28.6433
G01 X10.2002 Y28.6245
G01 X10.2068 Y28.6060
G01 X10.2143 Y28.5879
G01 X10.2227 Y28.5702
G01 X10.2369 Y28.5444
G01 X10.2474 Y28.5278
G01 X10.2587 Y28.5117
G01 X10.2708 Y28.4962
G01 X10.2836 Y28.4814
G01 X10.2972 Y28.4672
G01 X10.3114 Y28.4536
G01 X10.3262 Y28.4408
G01 X10.3417 Y28.4287
G01 X10.3578 Y28.4174
G01 X10.3744 Y28.4069
G01 X10.4002 Y28.3927
G01 X10.4179 Y28.3843
G01 X10.4360 Y28.3768
G01 X10.4545 Y28.3702
G01 X10.4733 Y28.3645
G01 X10.4924 Y28.3597
G01 X10.5116 Y28.3559
G01 X10.5408 Y28.3519
G01 X10.5604 Y28.3505
G01 X10.5800 Y28.3500
G00 Z2.0000
G00 X13.5339 Y28.5333
G01 F60.00
G01 Z-0.1100
G01 F100.00
G01 X13.6067 Y28.5073
G01 X13.6347 Y28.4984
G01 X13.7287 Y28.4748
G01 X13.7577 Y28.4695
G01 X13.8341 Y28.4581
G01 X13.8536 Y28.4557
G01 X13.8732 Y28.4543
G01 X13.9504 Y28.4505
G01 X13.9798 Y28.4501
G01 X14.0668 Y28.4543
G01 X14.0864 Y28.4557
G01 X14.1059 Y28.4581
G01 X14.1823 Y28.4695
G01 X14.2017 Y28.4728
G01 X14.2208 Y28.4771
G01 X14.2958 Y28.4959
G01 X14.3147 Y28.5011
G01 X14.3333 Y28.5073
G01 X14.4061 Y28.5333
G01 X14.4244 Y28.5404
G01 X14.4423 Y28.5483
G01 X14.5122 Y28.5814
G01 X14.5297 Y28.5902
G01 X14.5468 Y28.5999
G01 X14.6131 Y28.6396
G01 X14.6297 Y28.6501
G01 X14.6457 Y28.6614
G01 X14.7078 Y28.7074
G01 X14.7233 Y28.7195
G01 X14.7381 Y28.7324
G01 X14.7954 Y28.7842
G01 X14.8096 Y28.7978
G01 X14.8232 Y28.8120
G01 X14.8750 Y28.8693
G01 X14.8879 Y28.8841
G01 X14.9000 Y28.8996
G01 X14.9460 Y28.9617
G01 X14.9573 Y28.9777
G01 X14.9678 Y28.9943
G01 X15.0075 Y29.0606
G01 X15.0217 Y29.0864
G01 X15.0591 Y29.1651
G01 X15.0670 Y29.1830
G01 X15.0741 Y29.2013
G01 X15.1001 Y29.2741
G01 X15.1063 Y29.2927
G01 X15.1115 Y29.3116
G01 X15.1303 Y29.3866
G01 X15.1346 Y29.4057
G01 X15.1379 Y29.4251
G01 X15.1493 Y29.5015
G01 X15.1517 Y29.5210
G01 X15.1531 Y29.5406
G01 X15.1573 Y29.6276
G01 X15.1574 Y30.5626
G01 X15.1569 Y30.5822
G01 X15.1531 Y30.6594
G01 X15.1517 Y30.6790
G01 X15.1493 Y30.6985
G01 X15.1379 Y30.7749
G01 X15.1346 Y30.7943
G01 X15.1303 Y30.8134
G01 X15.1115 Y30.8884
G01 X15.1063 Y30.9073
G01 X15.1001 Y30.9259
G01 X15.0741 Y30.9987
G01 X15.0670 Y31.0170
G01 X15.0591 Y31.0349
G01 X15.0260 Y31.1048
G01 X15.0172 Y31.1223
G01 X15.0075 Y31.1394
G01 X14.9678 Y31.2057
G01 X14.9573 Y31.2223
G01 X14.9460 Y31.2383
G01 X14.9000 Y31.3004
G01 X14.8879 Y31.3159
G01 X14.8750 Y31.3307
G01 X14.8232 Y31.3880
G01 X14.8096 Y31.4022
G01 X14.7954 Y31.4158
G01 X14.7381 Y31.4676
G01 X14.7233 Y31.4805
G01 X14.7078 Y31.4926
G01 X14.6457 Y31.5386
G01 X14.6297 Y31.5499
G01 X14.6131 Y31.5604
G01 X14.5468 Y31.6001
G01 X14.5297 Y31.6098
G01 X14.5122 Y31.6186
G01 X14.4423 Y31.6517
G01 X14.4244 Y31.6596
G01 X14.4061 Y31.6667
G01 X14.3333 Y31.6927
G01 X14.3147 Y31.6989
G01 X14.2958 Y31.7041
G01 X14.2208 Y31.7229
G01 X14.2017 Y31.7272
G01 X14.1823 Y31.7305
G01 X14.1059 Y31.7419
G01 X14.0864 Y31.7443
G01 X14.0668 Y31.7457
G01 X13.9896 Y31.7495
G01 X13.9700 Y31.7500
G01 X13.9504 Y31.7495
G01 X13.8732 Y31.7457
G01 X13.8536 Y31.7443
G01 X13.8341 Y31.7419
G01 X13.7577 Y31.7305
G01 X13.7383 Y31.7272
G01 X13.7192 Y31.7229
G01 X13.6442 Y31.7041
G01 X13.6253 Y31.6989
G01 X13.6067 Y31.6927
G01 X13.5339 Y31.6667
G01 X13.5156 Y31.6596
G01 X13.4977 Y31.6517
G01 X13.4278 Y31.6186
G01 X13.4103 Y31.6098
G01 X13.3932 Y31.6001
G01 X13.3269 Y31.5604
G01 X13.3103 Y31.5499
G01 X13.2943 Y31.5386
G01 X13.2322 Y31.4926
G01 X13.2167 Y31.4805
G01 X13.2019 Y31.4676
G01 X13.1446 Y31.4158
G01 X13.1304 Y31.4022
G01 X13.1168 Y31.3880
G01 X13.0650 Y31.3307
G01 X13.0521 Y31.3159
G01 X13.0400 Y31.3004
G01 X12.9940 Y31.2383
G01 X12.9827 Y31.2223
G01 X12.9722 Y31.2057
G01 X12.9325 Y31.1394
G01 X12.9228 Y31.1223
G01 X12.9140 Y31.1048
G01 X12.8809 Y31.0349
G01 X12.8730 Y31.0170
G01 X12.8659 Y30.9987
G01 X12.8399 Y30.9259
G01 X12.8337 Y30.9073
G01 X12.8285 Y30.8884
G01 X12.8097 Y30.8134
G01 X12.8054 Y30.7943
G01 X12.8021 Y30.7749
G01 X12.7907 Y30.6985
G01 X12.7883 Y30.6790
G01 X12.7869 Y30.6594
G01 X12.7827 Y30.5724
G01 X12.7827 Y29.6276
G01 X12.7869 Y29.5406
G01 X12.7883 Y29.5210
G01 X12.7907 Y29.5015
G01 X12.8021 Y29.4251
G01 X12.8054 Y29.4057
G01 X12.8097 Y29.3866
G01 X12.8285 Y29.3116
G01 X12.8367 Y29.2834
G01 X12.8693 Y29.1921
G01 X12.8809 Y29.1651
G01 X12.9140 Y29.0952
G01 X12.9228 Y29.0777
G01 X12.9325 Y29.0606
G01 X12.9722 Y28.9943
G01 X12.9883 Y28.9696
G01 X13.0460 Y28.8918
G01 X13.0650 Y28.8693
G01 X13.1235 Y28.8048
G01 X13.1446 Y28.7842
G01 X13.2019 Y28.7324
G01 X13.2167 Y28.7195
G01 X13.2322 Y28.7074
G01 X13.2943 Y28.6614
G01 X13.3103 Y28.6501
G01 X13.3269 Y28.6396
G01 X13.3932 Y28.5999
G01 X13.4103 Y28.5902
G01 X13.4278 Y28.5814
G01 X13.4977 Y28.5483
G01 X13.5156 Y28.5404
G01 X13.5339 Y28.5333
G00 Z2.0000
G00 X18.3499 Y28.2000
G01 F60.00
G01 Z-0.1100
G01 F100.00
G01 X18.3500 Y13.7952
G01 X18.3522 Y13.7511
G01 X18.3541 Y13.7315
G01 X18.3606 Y13.6878
G01 X18.3667 Y13.6590
G01 X18.3726 Y13.6352
G01 X18.3779 Y13.6163
G01 X18.3840 Y13.5976
G01 X18.3923 Y13.5745
G01 X18.4032 Y13.5472
G01 X18.4178 Y13.5161
G01 X18.4314 Y13.4899
G01 X18.4541 Y13.4520
G01 X18.4650 Y13.4357
G01 X18.4913 Y13.4002
G01 X18.5103 Y13.3777
G01 X18.5268 Y13.3595
G01 X18.5403 Y13.3453
G01 X18.5545 Y13.3318
G01 X18.5727 Y13.3153
G01 X18.5876 Y13.3024
G01 X18.6030 Y13.2904
G01 X18.6228 Y13.2757
G01 X18.6388 Y13.2644
G01 X18.6554 Y13.2539
G01 X18.6849 Y13.2364
G01 X18.7022 Y13.2271
G01 X18.7422 Y13.2082
G01 X18.7603 Y13.2007
G01 X18.7926 Y13.1890
G01 X18.8113 Y13.1829
G01 X18.8302 Y13.1776
G01 X18.8636 Y13.1694
G01 X18.8828 Y13.1656
G01 X18.9168 Y13.1604
G01 X18.9363 Y13.1580
G01 X18.9559 Y13.1566
G01 X18.9804 Y13.1554
G01 X19.0000 Y13.1549
G01 X38.8132 Y13.1549
G01 X40.9510 Y11.0171
G01 X40.9510 Y11.0009
G01 X40.9214 Y10.9831
G01 X40.9051 Y10.9722
G01 X40.8233 Y10.9115
G01 X40.8007 Y10.8925
G01 X40.7398 Y10.8373
G01 X40.7256 Y10.8237
G01 X40.7120 Y10.8095
G01 X40.6568 Y10.7486
G01 X40.6440 Y10.7337
G01 X40.6319 Y10.7182
G01 X40.5829 Y10.6522
G01 X40.5662 Y10.6279
G01 X40.5188 Y10.5490
G01 X40.5046 Y10.5232
G01 X40.4610 Y10.4311
G01 X40.4501 Y10.4037
G01 X40.4224 Y10.3263
G01 X40.4162 Y10.3076
G01 X40.4110 Y10.2887
G01 X40.3910 Y10.2089
G01 X40.3849 Y10.1801
G01 X40.3699 Y10.0793
G01 X40.3674 Y10.0500
G01 X40.3634 Y9.9678
G01 X40.3629 Y9.9482
G01 X40.3629 Y9.1246
G01 X40.3634 Y9.1050
G01 X40.3674 Y9.0228
G01 X40.3689 Y9.0032
G01 X40.3713 Y8.9837
G01 X40.3833 Y8.9024
G01 X40.3867 Y8.8830
G01 X40.3910 Y8.8639
G01 X40.4110 Y8.7841
G01 X40.4162 Y8.7652
G01 X40.4224 Y8.7465
G01 X40.4501 Y8.6691
G01 X40.4610 Y8.6417
G01 X40.5003 Y8.5585
G01 X40.5091 Y8.5409
G01 X40.5188 Y8.5238
G01 X40.5611 Y8.4533
G01 X40.5771 Y8.4286
G01 X40.6378 Y8.3468
G01 X40.6568 Y8.3242
G01 X40.7120 Y8.2633
G01 X40.7256 Y8.2491
G01 X40.7398 Y8.2355
G01 X40.8007 Y8.1803
G01 X40.8156 Y8.1675
G01 X40.8311 Y8.1554
G01 X40.8971 Y8.1064
G01 X40.9132 Y8.0951
G01 X40.9298 Y8.0846
G01 X41.0003 Y8.0423
G01 X41.0174 Y8.0326
G01 X41.0350 Y8.0238
G01 X41.1093 Y7.9886
G01 X41.1273 Y7.9807
G01 X41.1456 Y7.9736
G01 X41.2230 Y7.9459
G01 X41.2511 Y7.9370
G01 X41.3404 Y7.9145
G01 X41.3595 Y7.9102
G01 X41.3789 Y7.9068
G01 X41.4602 Y7.8948
G01 X41.4797 Y7.8924
G01 X41.4993 Y7.8909
G01 X41.5815 Y7.8869
G01 X41.6011 Y7.8864
G01 X41.6207 Y7.8869
G01 X41.7029 Y7.8909
G01 X41.7225 Y7.8924
G01 X41.7420 Y7.8948
G01 X41.8233 Y7.9068
G01 X41.8427 Y7.9102
G01 X41.8618 Y7.9145
G01 X41.9511 Y7.9370
G01 X41.9792 Y7.9459
G01 X42.0566 Y7.9736
G01 X42.0749 Y7.9807
G01 X42.0929 Y7.9886
G01 X42.1672 Y8.0238
G01 X42.1848 Y8.0326
G01 X42.2019 Y8.0423
G01 X42.2724 Y8.0846
G01 X42.2890 Y8.0951
G01 X42.3051 Y8.1064
G01 X42.3711 Y8.1554
G01 X42.3866 Y8.1675
G01 X42.4015 Y8.1803
G01 X42.4624 Y8.2355
G01 X42.4766 Y8.2491
G01 X42.4902 Y8.2633
G01 X42.5454 Y8.3242
G01 X42.5582 Y8.3391
G01 X42.5703 Y8.3546
G01 X42.6193 Y8.4206
G01 X42.6306 Y8.4367
G01 X42.6411 Y8.4533
G01 X42.6834 Y8.5238
G01 X42.6931 Y8.5409
G01 X42.7019 Y8.5585
G01 X42.7371 Y8.6328
G01 X42.7450 Y8.6508
G01 X42.7521 Y8.6691
G01 X42.7798 Y8.7465
G01 X42.7860 Y8.7652
G01 X42.7912 Y8.7841
G01 X42.8112 Y8.8639
G01 X42.8155 Y8.8830
G01 X42.8189 Y8.9024
G01 X42.8309 Y8.9837
G01 X42.8333 Y9.0032
G01 X42.8348 Y9.0228
G01 X42.8388 Y9.1050
G01 X42.8393 Y9.1246
G01 X42.8393 Y9.9482
G01 X42.8388 Y9.9678
G01 X42.8348 Y10.0500
G01 X42.8323 Y10.0793
G01 X42.8189 Y10.1704
G01 X42.8135 Y10.1994
G01 X42.7887 Y10.2982
G01 X42.7798 Y10.3263
G01 X42.7521 Y10.4037
G01 X42.7450 Y10.4220
G01 X42.7371 Y10.4400
G01 X42.7019 Y10.5143
G01 X42.6884 Y10.5405
G01 X42.6360 Y10.6279
G01 X42.6193 Y10.6522
G01 X42.5703 Y10.7182
G01 X42.5582 Y10.7337
G01 X42.5454 Y10.7486
G01 X42.4902 Y10.8095
G01 X42.4696 Y10.8306
G01 X42.4015 Y10.8925
G01 X42.3789 Y10.9115
G01 X42.2971 Y10.9722
G01 X42.2808 Y10.9831
G01 X42.2512 Y11.0009
G01 X42.2512 Y11.2864
G01 X42.2507 Y11.3060
G01 X42.2495 Y11.3305
G01 X42.2470 Y11.3599
G01 X42.2421 Y11.3939
G01 X42.2387 Y11.4132
G01 X42.2344 Y11.4324
G01 X42.2285 Y11.4562
G01 X42.2232 Y11.4751
G01 X42.2171 Y11.4938
G01 X42.2088 Y11.5169
G01 X42.2017 Y11.5352
G01 X42.1938 Y11.5531
G01 X42.1833 Y11.5753
G01 X42.1745 Y11.5929
G01 X42.1648 Y11.6099
G01 X42.1470 Y11.6394
G01 X42.1361 Y11.6557
G01 X42.1157 Y11.6834
G01 X42.0973 Y11.7063
G01 X42.0743 Y11.7319
G01 X42.0608 Y11.7461
G01 X39.5352 Y14.2716
G01 X39.5024 Y14.3012
G01 X39.4795 Y14.3196
G01 X39.4597 Y14.3343
G01 X39.4437 Y14.3456
G01 X39.4271 Y14.3561
G01 X39.3976 Y14.3736
G01 X39.3714 Y14.3872
G01 X39.3492 Y14.3977
G01 X39.3313 Y14.4056
G01 X39.3130 Y14.4127
G01 X39.2899 Y14.4210
G01 X39.2618 Y14.4299
G01 X39.2285 Y14.4383
G01 X39.2093 Y14.4426
G01 X39.1900 Y14.4460
G01 X39.1657 Y14.4496
G01 X39.1364 Y14.4528
G01 X39.1021 Y14.4546
G01 X39.0825 Y14.4551
G01 X19.6501 Y14.4551
G01 X19.6501 Y27.9307
G01 X19.7831 Y28.0637
G01 X19.7936 Y28.0603
G01 X19.8125 Y28.0550
G01 X19.9077 Y28.0312
G01 X19.9269 Y28.0269
G01 X19.9462 Y28.0235
G01 X20.0433 Y28.0091
G01 X20.0726 Y28.0059
G01 X20.1804 Y28.0005
G01 X20.2000 Y28.0000
G01 X20.2196 Y28.0005
G01 X20.3176 Y28.0053
G01 X20.3372 Y28.0067
G01 X20.3567 Y28.0091
G01 X20.4538 Y28.0235
G01 X20.4731 Y28.0269
G01 X20.4923 Y28.0312
G01 X20.5875 Y28.0550
G01 X20.6064 Y28.0603
G01 X20.6250 Y28.0664
G01 X20.7174 Y28.0995
G01 X20.7358 Y28.1066
G01 X20.7537 Y28.1145
G01 X20.8424 Y28.1565
G01 X20.8600 Y28.1653
G01 X20.8770 Y28.1750
G01 X20.9612 Y28.2254
G01 X20.9778 Y28.2359
G01 X20.9938 Y28.2472
G01 X21.0727 Y28.3057
G01 X21.0882 Y28.3178
G01 X21.1030 Y28.3306
G01 X21.1757 Y28.3965
G01 X21.1899 Y28.4101
G01 X21.2035 Y28.4243
G01 X21.2694 Y28.4970
G01 X21.2883 Y28.5195
G01 X21.3528 Y28.6062
G01 X21.3641 Y28.6222
G01 X21.3746 Y28.6388
G01 X21.4250 Y28.7230
G01 X21.4347 Y28.7400
G01 X21.4435 Y28.7576
G01 X21.4896 Y28.8552
G01 X21.5005 Y28.8826
G01 X21.5336 Y28.9750
G01 X21.5397 Y28.9936
G01 X21.5450 Y29.0125
G01 X21.5688 Y29.1077
G01 X21.5731 Y29.1269
G01 X21.5765 Y29.1462
G01 X21.5909 Y29.2433
G01 X21.5933 Y29.2628
G01 X21.5947 Y29.2824
G01 X21.5995 Y29.3804
G01 X21.6000 Y29.4000
G01 X21.5995 Y29.4196
G01 X21.5941 Y29.5274
G01 X21.5909 Y29.5567
G01 X21.5765 Y29.6538
G01 X21.5731 Y29.6731
G01 X21.5688 Y29.6923
G01 X21.5450 Y29.7875
G01 X21.5397 Y29.8064
G01 X21.5336 Y29.8250
G01 X21.5005 Y29.9174
G01 X21.4934 Y29.9358
G01 X21.4855 Y29.9537
G01 X21.4435 Y30.0424
G01 X21.4347 Y30.0600
G01 X21.4250 Y30.0770
G01 X21.3746 Y30.1612
G01 X21.3641 Y30.1778
G01 X21.3528 Y30.1938
G01 X21.2943 Y30.2727
G01 X21.2822 Y30.2882
G01 X21.2694 Y30.3030
G01 X21.2035 Y30.3757
G01 X21.1899 Y30.3899
G01 X21.1757 Y30.4035
G01 X21.1030 Y30.4694
G01 X21.0882 Y30.4822
G01 X21.0727 Y30.4943
G01 X20.9938 Y30.5528
G01 X20.9778 Y30.5641
G01 X20.9612 Y30.5746
G01 X20.8770 Y30.6250
G01 X20.8600 Y30.6347
G01 X20.8424 Y30.6435
G01 X20.7537 Y30.6855
G01 X20.7358 Y30.6934
G01 X20.7174 Y30.7005
G01 X20.6250 Y30.7336
G01 X20.6064 Y30.7397
G01 X20.5875 Y30.7450
G01 X20.4923 Y30.7688
G01 X20.4731 Y30.7731
G01 X20.4538 Y30.7765
G01 X20.3567 Y30.7909
G01 X20.3372 Y30.7933
G01 X20.3176 Y30.7947
G01 X20.2196 Y30.7995
G01 X20.2000 Y30.8000
G01 X20.1804 Y30.7995
G01 X20.0824 Y30.7947
G01 X20.0628 Y30.7933
G01 X20.0433 Y30.7909
G01 X19.9462 Y30.7765
G01 X19.9269 Y30.7731
G01 X19.9077 Y30.7688
G01 X19.8125 Y30.7450
G01 X19.7936 Y30.7397
G01 X19.7750 Y30.7336
G01 X19.6826 Y30.7005
G01 X19.6642 Y30.6934
G01 X19.6463 Y30.6855
G01 X19.5576 Y30.6435
G01 X19.5400 Y30.6347
G01 X19.5230 Y30.6250
G01 X19.4388 Y30.5746
G01 X19.4222 Y30.5641
G01 X19.4062 Y30.5528
G01 X19.3273 Y30.4943
G01 X19.3118 Y30.4822
G01 X19.2970 Y30.4694
G01 X19.2243 Y30.4035
G01 X19.2101 Y30.3899
G01 X19.1965 Y30.3757
G01 X19.1306 Y30.3030
G01 X19.1178 Y30.2882
G01 X19.1057 Y30.2727
G01 X19.0472 Y30.1938
G01 X19.0359 Y30.1778
G01 X19.0254 Y30.1612
G01 X18.9750 Y30.0770
G01 X18.9653 Y30.0600
G01 X18.9565 Y30.0424
G01 X18.9104 Y29.9448
G01 X18.8995 Y29.9174
G01 X18.8664 Y29.8250
G01 X18.8603 Y29.8064
G01 X18.8550 Y29.7875
G01 X18.8312 Y29.6923
G01 X18.8269 Y29.6731
G01 X18.8235 Y29.6538
G01 X18.8091 Y29.5567
G01 X18.8067 Y29.5372
G01 X18.8053 Y29.5176
G01 X18.8005 Y29.4196
G01 X18.8000 Y29.4000
G01 X18.8005 Y29.3804
G01 X18.8059 Y29.2726
G01 X18.8091 Y29.2433
G01 X18.8235 Y29.1462
G01 X18.8269 Y29.1269
G01 X18.8312 Y29.1077
G01 X18.8550 Y29.0125
G01 X18.8603 Y28.9936
G01 X18.8637 Y28.9831
G01 X18.5334 Y28.6527
G01 X18.5103 Y28.6273
G01 X18.4974 Y28.6124
G01 X18.4854 Y28.5970
G01 X18.4707 Y28.5772
G01 X18.4594 Y28.5612
G01 X18.4489 Y28.5446
G01 X18.4314 Y28.5151
G01 X18.4221 Y28.4978
G01 X18.4073 Y28.4667
G01 X18.3957 Y28.4397
G01 X18.3840 Y28.4074
G01 X18.3779 Y28.3887
G01 X18.3726 Y28.3698
G01 X18.3644 Y28.3364
G01 X18.3606 Y28.3172
G01 X18.3554 Y28.2832
G01 X18.3522 Y28.2539
G01 X18.3504 Y28.2196
G01 X18.3499 Y28.2000
G00 Z2.0000
G00 X22.9869 Y25.3685
G01 F60.00
G01 Z-0.1100
G01 F100.00
G01 X23.1024 Y25.3272
G01 X23.1210 Y25.3210
G01 X23.1400 Y25.3158
G01 X23.2589 Y25.2860
G01 X23.2781 Y25.2817
G01 X23.2974 Y25.2783
G01 X23.4188 Y25.2603
G01 X23.4383 Y25.2579
G01 X23.4579 Y25.2565
G01 X23.5804 Y25.2505
G01 X23.6000 Y25.2500
G01 X23.6196 Y25.2505
G01 X23.7421 Y25.2565
G01 X23.7617 Y25.2579
G01 X23.7812 Y25.2603
G01 X23.9026 Y25.2783
G01 X23.9219 Y25.2817
G01 X23.9411 Y25.2860
G01 X24.0600 Y25.3158
G01 X24.0790 Y25.3210
G01 X24.0976 Y25.3272
G01 X24.2131 Y25.3685
G01 X24.2314 Y25.3756
G01 X24.2494 Y25.3836
G01 X24.3603 Y25.4360
G01 X24.3778 Y25.4448
G01 X24.3949 Y25.4545
G01 X24.5001 Y25.5176
G01 X24.5167 Y25.5281
G01 X24.5327 Y25.5394
G01 X24.6313 Y25.6125
G01 X24.6467 Y25.6245
G01 X24.6616 Y25.6374
G01 X24.7525 Y25.7197
G01 X24.7667 Y25.7333
G01 X24.7803 Y25.7475
G01 X24.8626 Y25.8384
G01 X24.8755 Y25.8533
G01 X24.8875 Y25.8687
G01 X24.9606 Y25.9673
G01 X24.9719 Y25.9833
G01 X24.9824 Y25.9999
G01 X25.0455 Y26.1051
G01 X25.0552 Y26.1222
G01 X25.0640 Y26.1397
G01 X25.1164 Y26.2506
G01 X25.1244 Y26.2686
G01 X25.1315 Y26.2869
G01 X25.1728 Y26.4024
G01 X25.1790 Y26.4210
G01 X25.1842 Y26.4400
G01 X25.2140 Y26.5589
G01 X25.2183 Y26.5781
G01 X25.2217 Y26.5974
G01 X25.2397 Y26.7188
G01 X25.2421 Y26.7383
G01 X25.2435 Y26.7579
G01 X25.2495 Y26.8804
G01 X25.2500 Y26.9000
G01 X25.2495 Y26.9196
G01 X25.2435 Y27.0421
G01 X25.2421 Y27.0617
G01 X25.2397 Y27.0812
G01 X25.2217 Y27.2026
G01 X25.2183 Y27.2219
G01 X25.2140 Y27.2411
G01 X25.1842 Y27.3600
G01 X25.1790 Y27.3790
G01 X25.1728 Y27.3976
G01 X25.1315 Y27.5131
G01 X25.1244 Y27.5314
G01 X25.1164 Y27.5494
G01 X25.0640 Y27.6603
G01 X25.0552 Y27.6778
G01 X25.0455 Y27.6949
G01 X24.9824 Y27.8001
G01 X24.9719 Y27.8167
G01 X24.9606 Y27.8327
G01 X24.8875 Y27.9313
G01 X24.8755 Y27.9467
G01 X24.8626 Y27.9616
G01 X24.7803 Y28.0525
G01 X24.7667 Y28.0667
G01 X24.7525 Y28.0803
G01 X24.6616 Y28.1626
G01 X24.6467 Y28.1755
G01 X24.6313 Y28.1875
G01 X24.5327 Y28.2606
G01 X24.5167 Y28.2719
G01 X24.5001 Y28.2824
G01 X24.3949 Y28.3455
G01 X24.3778 Y28.3552
G01 X24.3603 Y28.3640
G01 X24.2494 Y28.4164
G01 X24.2314 Y28.4244
G01 X24.2131 Y28.4315
G01 X24.0976 Y28.4728
G01 X24.0790 Y28.4790
G01 X24.0600 Y28.4842
G01 X23.9411 Y28.5140
G01 X23.9219 Y28.5183
G01 X23.9026 Y28.5217
G01 X23.7812 Y28.5397
G01 X23.7617 Y28.5421
G01 X23.7421 Y28.5435
G01 X23.6196 Y28.5495
G01 X23.6000 Y28.5500
G01 X23.5804 Y28.5495
G01 X23.4579 Y28.5435
G01 X23.4383 Y28.5421
G01 X23.4188 Y28.5397
G01 X23.2974 Y28.5217
G01 X23.2781 Y28.5183
G01 X23.2589 Y28.5140
G01 X23.1400 Y28.4842
G01 X23.1210 Y28.4790
G01 X23.1024 Y28.4728
G01 X22.9869 Y28.4315
G01 X22.9686 Y28.4244
G01 X22.9506 Y28.4164
G01 X22.8397 Y28.3640
G01 X22.8222 Y28.3552
G01 X22.8051 Y28.3455
G01 X22.6999 Y28.2824
G01 X22.6833 Y28.2719
G01 X22.6673 Y28.2606
G01 X22.5687 Y28.1875
G01 X22.5533 Y28.1755
G01 X22.5384 Y28.1626
G01 X22.4475 Y28.0803
G01 X22.4333 Y28.0667
G01 X22.4197 Y28.0525
G01 X22.3374 Y27.9616
G01 X22.3245 Y27.9467
G01 X22.3125 Y27.9313
G01 X22.2394 Y27.8327
G01 X22.2281 Y27.8167
G01 X22.2176 Y27.8001
G01 X22.1545 Y27.6949
G01 X22.1448 Y27.6778
G01 X22.1360 Y27.6603
G01 X22.0836 Y27.5494
G01 X22.0756 Y27.5314
G01 X22.0685 Y27.5131
G01 X22.0272 Y27.3976
G01 X22.0210 Y27.3790
G01 X22.0158 Y27.3600
G01 X21.9860 Y27.2411
G01 X21.9817 Y27.2219
G01 X21.9783 Y27.2026
G01 X21.9603 Y27.0812
G01 X21.9579 Y27.0617
G01 X21.9565 Y27.0421
G01 X21.9505 Y26.9196
G01 X21.9500 Y26.9000
G01 X21.9505 Y26.8804
G01 X21.9565 Y26.7579
G01 X21.9579 Y26.7383
G01 X21.9603 Y26.7188
G01 X21.9783 Y26.5974
G01 X21.9817 Y26.5781
G01 X21.9860 Y26.5589
G01 X22.0158 Y26.4400
G01 X22.0210 Y26.4210
G01 X22.0272 Y26.4024
G01 X22.0685 Y26.2869
G01 X22.0756 Y26.2686
G01 X22.0836 Y26.2506
G01 X22.1360 Y26.1397
G01 X22.1448 Y26.1222
G01 X22.1545 Y26.1051
G01 X22.2176 Y25.9999
G01 X22.2281 Y25.9833
G01 X22.2394 Y25.9673
G01 X22.3125 Y25.8687
G01 X22.3245 Y25.8533
G01 X22.3374 Y25.8384
G01 X22.4197 Y25.7475
G01 X22.4333 Y25.7333
G01 X22.4475 Y25.7197
G01 X22.5384 Y25.6374
G01 X22.5533 Y25.6245
G01 X22.5687 Y25.6125
G01 X22.6673 Y25.5394
G01 X22.6833 Y25.5281
G01 X22.6999 Y25.5176
G01 X22.8051 Y25.4545
G01 X22.8222 Y25.4448
G01 X22.8397 Y25.4360
G01 X22.9506 Y25.3836
G01 X22.9686 Y25.3756
G01 X22.9869 Y25.3685
G00 Z2.0000
G00 X22.9869 Y20.2885
G01 F60.00
G01 Z-0.1100
G01 F100.00
G01 X23.1024 Y20.2472
G01 X23.1210 Y20.2410
G01 X23.1400 Y20.2358
G01 X23.2589 Y20.2060
G01 X23.2781 Y20.2017
G01 X23.2974 Y20.1983
G01 X23.4188 Y20.1803
G01 X23.4383 Y20.1779
G01 X23.4579 Y20.1765
G01 X23.5804 Y20.1705
G01 X23.6000 Y20.1700
G01 X23.6196 Y20.1705
G01 X23.7421 Y20.1765
G01 X23.7617 Y20.1779
G01 X23.7812 Y20.1803
G01 X23.9026 Y20.1983
G01 X23.9219 Y20.2017
G01 X23.9411 Y20.2060
G01 X24.0600 Y20.2358
G01 X24.0790 Y20.2410
G01 X24.0976 Y20.2472
G01 X24.2131 Y20.2885
G01 X24.2314 Y20.2956
G01 X24.2494 Y20.3036
G01 X24.3603 Y20.3560
G01 X24.3778 Y20.3648
G01 X24.3949 Y20.3745
G01 X24.5001 Y20.4376
G01 X24.5167 Y20.4481
G01 X24.5327 Y20.4594
G01 X24.6313 Y20.5325
G01 X24.6467 Y20.5445
G01 X24.6616 Y20.5574
G01 X24.7525 Y20.6397
G01 X24.7667 Y20.6533
G01 X24.7803 Y20.6675
G01 X24.8626 Y20.7584
G01 X24.8755 Y20.7733
G01 X24.8875 Y20.7887
G01 X24.9606 Y20.8873
G01 X24.9719 Y20.9033
G01 X24.9824 Y20.9199
G01 X25.0455 Y21.0251
G01 X25.0552 Y21.0422
G01 X25.0640 Y21.0597
G01 X25.1164 Y21.1706
G01 X25.1244 Y21.1886
G01 X25.1315 Y21.2069
G01 X25.1728 Y21.3224
G01 X25.1790 Y21.3410
G01 X25.1842 Y21.3600
G01 X25.2140 Y21.4789
G01 X25.2183 Y21.4981
G01 X25.2217 Y21.5174
G01 X25.2397 Y21.6388
G01 X25.2421 Y21.6583
G01 X25.2435 Y21.6779
G01 X25.2495 Y21.8004
G01 X25.2500 Y21.8200
G01 X25.2495 Y21.8396
G01 X25.2435 Y21.9621
G01 X25.2421 Y21.9817
G01 X25.2397 Y22.0012
G01 X25.2217 Y22.1226
G01 X25.2183 Y22.1419
G01 X25.2140 Y22.1611
G01 X25.1842 Y22.2800
G01 X25.1790 Y22.2990
G01 X25.1728 Y22.3176
G01 X25.1315 Y22.4331
G01 X25.1244 Y22.4514
G01 X25.1164 Y22.4694
G01 X25.0640 Y22.5803
G01 X25.0552 Y22.5978
G01 X25.0455 Y22.6149
G01 X24.9824 Y22.7201
G01 X24.9719 Y22.7367
G01 X24.9606 Y22.7527
G01 X24.8875 Y22.8513
G01 X24.8755 Y22.8667
G01 X24.8626 Y22.8816
G01 X24.7803 Y22.9725
G01 X24.7667 Y22.9867
G01 X24.7525 Y23.0003
G01 X24.6616 Y23.0826
G01 X24.6467 Y23.0955
G01 X24.6313 Y23.1075
G01 X24.5327 Y23.1806
G01 X24.5167 Y23.1919
G01 X24.5001 Y23.2024
G01 X24.3949 Y23.2655
G01 X24.3778 Y23.2752
G01 X24.3603 Y23.2840
G01 X24.2494 Y23.3364
G01 X24.2314 Y23.3444
G01 X24.2131 Y23.3515
G01 X24.0976 Y23.3928
G01 X24.0790 Y23.3990
G01 X24.0600 Y23.4042
G01 X23.9411 Y23.4340
G01 X23.9219 Y23.4383
G01 X23.9026 Y23.4417
G01 X23.7812 Y23.4597
G01 X23.7617 Y23.4621
G01 X23.7421 Y23.4635
G01 X23.6196 Y23.4695
G01 X23.6000 Y23.4700
G01 X23.5804 Y23.4695
G01 X23.4579 Y23.4635
G01 X23.4383 Y23.4621
G01 X23.4188 Y23.4597
G01 X23.2974 Y23.4417
G01 X23.2781 Y23.4383
G01 X23.2589 Y23.4340
G01 X23.1400 Y23.4042
G01 X23.1210 Y23.3990
G01 X23.1024 Y23.3928
G01 X22.9869 Y23.3515
G01 X22.9686 Y23.3444
G01 X22.9506 Y23.3364
G01 X22.8397 Y23.2840
G01 X22.8222 Y23.2752
G01 X22.8051 Y23.2655
G01 X22.6999 Y23.2024
G01 X22.6833 Y23.1919
G01 X22.6673 Y23.1806
G01 X22.5687 Y23.1075
G01 X22.5533 Y23.0955
G01 X22.5384 Y23.0826
G01 X22.4475 Y23.0003
G01 X22.4333 Y22.9867
G01 X22.4197 Y22.9725
G01 X22.3374 Y22.8816
G01 X22.3245 Y22.8667
G01 X22.3125 Y22.8513
G01 X22.2394 Y22.7527
G01 X22.2281 Y22.7367
G01 X22.2176 Y22.7201
G01 X22.1545 Y22.6149
G01 X22.1448 Y22.5978
G01 X22.1360 Y22.5803
G01 X22.0836 Y22.4694
G01 X22.0756 Y22.4514
G01 X22.0685 Y22.4331
G01 X22.0272 Y22.3176
G01 X22.0210 Y22.2990
G01 X22.0158 Y22.2800
G01 X21.9860 Y22.1611
G01 X21.9817 Y22.1419
G01 X21.9783 Y22.1226
G01 X21.9603 Y22.0012
G01 X21.9579 Y21.9817
G01 X21.9565 Y21.9621
G01 X21.9505 Y21.8396
G01 X21.9500 Y21.8200
G01 X21.9505 Y21.8004
G01 X21.9565 Y21.6779
G01 X21.9579 Y21.6583
G01 X21.9603 Y21.6388
G01 X21.9783 Y21.5174
G01 X21.9817 Y21.4981
G01 X21.9860 Y21.4789
G01 X22.0158 Y21.3600
G01 X22.0210 Y21.3410
G01 X22.0272 Y21.3224
G01 X22.0685 Y21.2069
G01 X22.0756 Y21.1886
G01 X22.0836 Y21.1706
G01 X22.1360 Y21.0597
G01 X22.1448 Y21.0422
G01 X22.1545 Y21.0251
G01 X22.2176 Y20.9199
G01 X22.2281 Y20.9033
G01 X22.2394 Y20.8873
G01 X22.3125 Y20.7887
G01 X22.3245 Y20.7733
G01 X22.3374 Y20.7584
G01 X22.4197 Y20.6675
G01 X22.4333 Y20.6533
G01 X22.4475 Y20.6397
G01 X22.5384 Y20.5574
G01 X22.5533 Y20.5445
G01 X22.5687 Y20.5325
G01 X22.6673 Y20.4594
G01 X22.6833 Y20.4481
G01 X22.6999 Y20.4376
G01 X22.8051 Y20.3745
G01 X22.8222 Y20.3648
G01 X22.8397 Y20.3560
G01 X22.9506 Y20.3036
G01 X22.9686 Y20.2956
G01 X22.9869 Y20.2885
G00 Z2.0000
G00 X28.3025 Y19.0429
G01 F60.00
G01 Z-0.1100
G01 F100.00
G01 X28.3728 Y19.0178
G01 X28.4011 Y19.0096
G01 X28.4640 Y18.9939
G01 X28.4831 Y18.9896
G01 X28.5025 Y18.9862
G01 X28.5666 Y18.9767
G01 X28.5958 Y18.9735
G01 X28.6802 Y18.9693
G01 X28.7096 Y18.9697
G01 X28.7842 Y18.9735
G01 X28.8134 Y18.9767
G01 X28.8775 Y18.9862
G01 X28.8969 Y18.9896
G01 X28.9160 Y18.9939
G01 X28.9789 Y19.0096
G01 X28.9978 Y19.0149
G01 X29.0165 Y19.0210
G01 X29.0775 Y19.0429
G01 X29.0958 Y19.0499
G01 X29.1137 Y19.0579
G01 X29.1723 Y19.0856
G01 X29.1985 Y19.0991
G01 X29.2625 Y19.1374
G01 X29.2872 Y19.1535
G01 X29.3550 Y19.2038
G01 X29.3776 Y19.2227
G01 X29.4328 Y19.2729
G01 X29.4534 Y19.2940
G01 X29.4969 Y19.3420
G01 X29.5097 Y19.3569
G01 X29.5218 Y19.3724
G01 X29.5604 Y19.4244
G01 X29.5717 Y19.4405
G01 X29.5822 Y19.4571
G01 X29.6155 Y19.5126
G01 X29.6252 Y19.5297
G01 X29.6340 Y19.5473
G01 X29.6617 Y19.6059
G01 X29.6697 Y19.6238
G01 X29.6767 Y19.6421
G01 X29.6986 Y19.7031
G01 X29.7047 Y19.7218
G01 X29.7100 Y19.7407
G01 X29.7257 Y19.8036
G01 X29.7318 Y19.8324
G01 X29.7429 Y19.9062
G01 X29.7453 Y19.9257
G01 X29.7467 Y19.9452
G01 X29.7499 Y20.0100
G01 X29.7504 Y20.0296
G01 X29.7503 Y21.3602
G01 X29.7467 Y21.4348
G01 X29.7453 Y21.4543
G01 X29.7429 Y21.4738
G01 X29.7334 Y21.5379
G01 X29.7300 Y21.5573
G01 X29.7257 Y21.5764
G01 X29.7100 Y21.6393
G01 X29.7018 Y21.6676
G01 X29.6767 Y21.7379
G01 X29.6697 Y21.7562
G01 X29.6617 Y21.7741
G01 X29.6340 Y21.8327
G01 X29.6252 Y21.8503
G01 X29.6155 Y21.8674
G01 X29.5822 Y21.9229
G01 X29.5717 Y21.9395
G01 X29.5604 Y21.9556
G01 X29.5218 Y22.0076
G01 X29.5097 Y22.0231
G01 X29.4969 Y22.0380
G01 X29.4534 Y22.0860
G01 X29.4398 Y22.1002
G01 X29.4256 Y22.1138
G01 X29.3776 Y22.1573
G01 X29.3627 Y22.1701
G01 X29.3472 Y22.1822
G01 X29.2952 Y22.2208
G01 X29.2791 Y22.2321
G01 X29.2625 Y22.2426
G01 X29.2070 Y22.2759
G01 X29.1899 Y22.2856
G01 X29.1723 Y22.2944
G01 X29.1137 Y22.3221
G01 X29.0958 Y22.3301
G01 X29.0775 Y22.3371
G01 X29.0072 Y22.3622
G01 X28.9789 Y22.3704
G01 X28.9160 Y22.3861
G01 X28.8872 Y22.3922
G01 X28.8134 Y22.4033
G01 X28.7939 Y22.4057
G01 X28.7744 Y22.4071
G01 X28.7096 Y22.4103
G01 X28.6900 Y22.4108
G01 X28.6704 Y22.4103
G01 X28.6056 Y22.4071
G01 X28.5861 Y22.4057
G01 X28.5666 Y22.4033
G01 X28.5025 Y22.3938
G01 X28.4831 Y22.3904
G01 X28.4640 Y22.3861
G01 X28.4011 Y22.3704
G01 X28.3822 Y22.3651
G01 X28.3635 Y22.3590
G01 X28.3025 Y22.3371
G01 X28.2842 Y22.3301
G01 X28.2663 Y22.3221
G01 X28.2077 Y22.2944
G01 X28.1901 Y22.2856
G01 X28.1730 Y22.2759
G01 X28.1175 Y22.2426
G01 X28.1009 Y22.2321
G01 X28.0848 Y22.2208
G01 X28.0328 Y22.1822
G01 X28.0173 Y22.1701
G01 X28.0024 Y22.1573
G01 X27.9544 Y22.1138
G01 X27.9402 Y22.1002
G01 X27.9266 Y22.0860
G01 X27.8831 Y22.0380
G01 X27.8703 Y22.0231
G01 X27.8582 Y22.0076
G01 X27.8196 Y21.9556
G01 X27.8083 Y21.9395
G01 X27.7978 Y21.9229
G01 X27.7645 Y21.8674
G01 X27.7548 Y21.8503
G01 X27.7460 Y21.8327
G01 X27.7183 Y21.7741
G01 X27.7103 Y21.7562
G01 X27.7033 Y21.7379
G01 X27.6814 Y21.6769
G01 X27.6753 Y21.6582
G01 X27.6700 Y21.6393
G01 X27.6543 Y21.5764
G01 X27.6482 Y21.5476
G01 X27.6371 Y21.4738
G01 X27.6347 Y21.4543
G01 X27.6333 Y21.4348
G01 X27.6301 Y21.3700
G01 X27.6296 Y21.3504
G01 X27.6296 Y20.0296
G01 X27.6301 Y20.0100
G01 X27.6333 Y19.9452
G01 X27.6347 Y19.9257
G01 X27.6371 Y19.9062
G01 X27.6466 Y19.8421
G01 X27.6500 Y19.8227
G01 X27.6543 Y19.8036
G01 X27.6700 Y19.7407
G01 X27.6753 Y19.7218
G01 X27.6814 Y19.7031
G01 X27.7033 Y19.6421
G01 X27.7103 Y19.6238
G01 X27.7183 Y19.6059
G01 X27.7460 Y19.5473
G01 X27.7548 Y19.5297
G01 X27.7645 Y19.5126
G01 X27.7978 Y19.4571
G01 X27.8083 Y19.4405
G01 X27.8196 Y19.4244
G01 X27.8582 Y19.3724
G01 X27.8703 Y19.3569
G01 X27.8831 Y19.3420
G01 X27.9266 Y19.2940
G01 X27.9402 Y19.2798
G01 X27.9544 Y19.2662
G01 X28.0024 Y19.2227
G01 X28.0250 Y19.2038
G01 X28.0928 Y19.1535
G01 X28.1175 Y19.1374
G01 X28.1730 Y19.1041
G01 X28.1901 Y19.0944
G01 X28.2077 Y19.0856
G01 X28.2663 Y19.0579
G01 X28.2842 Y19.0499
G01 X28.3025 Y19.0429
G00 Z2.0000
G00 X30.8425 Y19.0429
G01 F60.00
G01 Z-0.1100
G01 F100.00
G01 X30.9128 Y19.0178
G01 X30.9411 Y19.0096
G01 X31.0040 Y18.9939
G01 X31.0231 Y18.9896
G01 X31.0425 Y18.9862
G01 X31.1066 Y18.9767
G01 X31.1358 Y18.9735
G01 X31.2202 Y18.9693
G01 X31.2496 Y18.9697
G01 X31.3242 Y18.9735
G01 X31.3534 Y18.9767
G01 X31.4175 Y18.9862
G01 X31.4369 Y18.9896
G01 X31.4560 Y18.9939
G01 X31.5189 Y19.0096
G01 X31.5378 Y19.0149
G01 X31.5565 Y19.0210
G01 X31.6175 Y19.0429
G01 X31.6358 Y19.0499
G01 X31.6537 Y19.0579
G01 X31.7123 Y19.0856
G01 X31.7385 Y19.0991
G01 X31.8025 Y19.1374
G01 X31.8272 Y19.1535
G01 X31.8950 Y19.2038
G01 X31.9176 Y19.2227
G01 X31.9728 Y19.2729
G01 X31.9934 Y19.2940
G01 X32.0369 Y19.3420
G01 X32.0497 Y19.3569
G01 X32.0618 Y19.3724
G01 X32.1004 Y19.4244
G01 X32.1117 Y19.4405
G01 X32.1222 Y19.4571
G01 X32.1555 Y19.5126
G01 X32.1652 Y19.5297
G01 X32.1740 Y19.5473
G01 X32.2017 Y19.6059
G01 X32.2097 Y19.6238
G01 X32.2167 Y19.6421
G01 X32.2386 Y19.7031
G01 X32.2447 Y19.7218
G01 X32.2500 Y19.7407
G01 X32.2657 Y19.8036
G01 X32.2718 Y19.8324
G01 X32.2829 Y19.9062
G01 X32.2853 Y19.9257
G01 X32.2867 Y19.9452
G01 X32.2899 Y20.0100
G01 X32.2904 Y20.0296
G01 X32.2903 Y21.3602
G01 X32.2867 Y21.4348
G01 X32.2853 Y21.4543
G01 X32.2829 Y21.4738
G01 X32.2734 Y21.5379
G01 X32.2700 Y21.5573
G01 X32.2657 Y21.5764
G01 X32.2500 Y21.6393
G01 X32.2418 Y21.6676
G01 X32.2167 Y21.7379
G01 X32.2097 Y21.7562
G01 X32.2017 Y21.7741
G01 X32.1740 Y21.8327
G01 X32.1652 Y21.8503
G01 X32.1555 Y21.8674
G01 X32.1222 Y21.9229
G01 X32.1117 Y21.9395
G01 X32.1004 Y21.9556
G01 X32.0618 Y22.0076
G01 X32.0497 Y22.0231
G01 X32.0369 Y22.0380
G01 X31.9934 Y22.0860
G01 X31.9798 Y22.1002
G01 X31.9656 Y22.1138
G01 X31.9176 Y22.1573
G01 X31.9027 Y22.1701
G01 X31.8872 Y22.1822
G01 X31.8352 Y22.2208
G01 X31.8191 Y22.2321
G01 X31.8025 Y22.2426
G01 X31.7470 Y22.2759
G01 X31.7299 Y22.2856
G01 X31.7123 Y22.2944
G01 X31.6537 Y22.3221
G01 X31.6358 Y22.3301
G01 X31.6175 Y22.3371
G01 X31.5472 Y22.3622
G01 X31.5189 Y22.3704
G01 X31.4560 Y22.3861
G01 X31.4272 Y22.3922
G01 X31.3534 Y22.4033
G01 X31.3339 Y22.4057
G01 X31.3144 Y22.4071
G01 X31.2496 Y22.4103
G01 X31.2300 Y22.4108
G01 X31.2104 Y22.4103
G01 X31.1456 Y22.4071
G01 X31.1261 Y22.4057
G01 X31.1066 Y22.4033
G01 X31.0425 Y22.3938
G01 X31.0231 Y22.3904
G01 X31.0040 Y22.3861
G01 X30.9411 Y22.3704
G01 X30.9222 Y22.3651
G01 X30.9035 Y22.3590
G01 X30.8425 Y22.3371
G01 X30.8242 Y22.3301
G01 X30.8063 Y22.3221
G01 X30.7477 Y22.2944
G01 X30.7301 Y22.2856
G01 X30.7130 Y22.2759
G01 X30.6575 Y22.2426
G01 X30.6409 Y22.2321
G01 X30.6248 Y22.2208
G01 X30.5728 Y22.1822
G01 X30.5573 Y22.1701
G01 X30.5424 Y22.1573
G01 X30.4944 Y22.1138
G01 X30.4802 Y22.1002
G01 X30.4666 Y22.0860
G01 X30.4231 Y22.0380
G01 X30.4103 Y22.0231
G01 X30.3982 Y22.0076
G01 X30.3596 Y21.9556
G01 X30.3483 Y21.9395
G01 X30.3378 Y21.9229
G01 X30.3045 Y21.8674
G01 X30.2948 Y21.8503
G01 X30.2860 Y21.8327
G01 X30.2583 Y21.7741
G01 X30.2503 Y21.7562
G01 X30.2433 Y21.7379
G01 X30.2214 Y21.6769
G01 X30.2153 Y21.6582
G01 X30.2100 Y21.6393
G01 X30.1943 Y21.5764
G01 X30.1882 Y21.5476
G01 X30.1771 Y21.4738
G01 X30.1747 Y21.4543
G01 X30.1733 Y21.4348
G01 X30.1701 Y21.3700
G01 X30.1696 Y21.3504
G01 X30.1696 Y20.0296
G01 X30.1701 Y20.0100
G01 X30.1733 Y19.9452
G01 X30.1747 Y19.9257
G01 X30.1771 Y19.9062
G01 X30.1866 Y19.8421
G01 X30.1900 Y19.8227
G01 X30.1943 Y19.8036
G01 X30.2100 Y19.7407
G01 X30.2153 Y19.7218
G01 X30.2214 Y19.7031
G01 X30.2433 Y19.6421
G01 X30.2503 Y19.6238
G01 X30.2583 Y19.6059
G01 X30.2860 Y19.5473
G01 X30.2948 Y19.5297
G01 X30.3045 Y19.5126
G01 X30.3378 Y19.4571
G01 X30.3483 Y19.4405
G01 X30.3596 Y19.4244
G01 X30.3982 Y19.3724
G01 X30.4103 Y19.3569
G01 X30.4231 Y19.3420
G01 X30.4666 Y19.2940
G01 X30.4802 Y19.2798
G01 X30.4944 Y19.2662
G01 X30.5424 Y19.2227
G01 X30.5650 Y19.2038
G01 X30.6328 Y19.1535
G01 X30.6575 Y19.1374
G01 X30.7130 Y19.1041
G01 X30.7301 Y19.0944
G01 X30.7477 Y19.0856
G01 X30.8063 Y19.0579
G01 X30.8242 Y19.0499
G01 X30.8425 Y19.0429
G00 Z2.0000
G00 X33.3825 Y19.0429
G01 F60.00
G01 Z-0.1100
G01 F100.00
G01 X33.4528 Y19.0178
G01 X33.4811 Y19.0096
G01 X33.5440 Y18.9939
G01 X33.5631 Y18.9896
G01 X33.5825 Y18.9862
G01 X33.6466 Y18.9767
G01 X33.6758 Y18.9735
G01 X33.7602 Y18.9693
G01 X33.7896 Y18.9697
G01 X33.8642 Y18.9735
G01 X33.8934 Y18.9767
G01 X33.9575 Y18.9862
G01 X33.9769 Y18.9896
G01 X33.9960 Y18.9939
G01 X34.0589 Y19.0096
G01 X34.0778 Y19.0149
G01 X34.0965 Y19.0210
G01 X34.1575 Y19.0429
G01 X34.1758 Y19.0499
G01 X34.1937 Y19.0579
G01 X34.2523 Y19.0856
G01 X34.2785 Y19.0991
G01 X34.3425 Y19.1374
G01 X34.3672 Y19.1535
G01 X34.4350 Y19.2038
G01 X34.4576 Y19.2227
G01 X34.5128 Y19.2729
G01 X34.5334 Y19.2940
G01 X34.5769 Y19.3420
G01 X34.5897 Y19.3569
G01 X34.6018 Y19.3724
G01 X34.6404 Y19.4244
G01 X34.6517 Y19.4405
G01 X34.6622 Y19.4571
G01 X34.6955 Y19.5126
G01 X34.7052 Y19.5297
G01 X34.7140 Y19.5473
G01 X34.7417 Y19.6059
G01 X34.7497 Y19.6238
G01 X34.7567 Y19.6421
G01 X34.7786 Y19.7031
G01 X34.7847 Y19.7218
G01 X34.7900 Y19.7407
G01 X34.8057 Y19.8036
G01 X34.8118 Y19.8324
G01 X34.8229 Y19.9062
G01 X34.8253 Y19.9257
G01 X34.8267 Y19.9452
G01 X34.8299 Y20.0100
G01 X34.8304 Y20.0296
G01 X34.8303 Y21.3602
G01 X34.8267 Y21.4348
G01 X34.8253 Y21.4543
G01 X34.8229 Y21.4738
G01 X34.8134 Y21.5379
G01 X34.8100 Y21.5573
G01 X34.8057 Y21.5764
G01 X34.7900 Y21.6393
G01 X34.7818 Y21.6676
G01 X34.7567 Y21.7379
G01 X34.7497 Y21.7562
G01 X34.7417 Y21.7741
G01 X34.7140 Y21.8327
G01 X34.7052 Y21.8503
G01 X34.6955 Y21.8674
G01 X34.6622 Y21.9229
G01 X34.6517 Y21.9395
G01 X34.6404 Y21.9556
G01 X34.6018 Y22.0076
G01 X34.5897 Y22.0231
G01 X34.5769 Y22.0380
G01 X34.5334 Y22.0860
G01 X34.5198 Y22.1002
G01 X34.5056 Y22.1138
G01 X34.4576 Y22.1573
G01 X34.4427 Y22.1701
G01 X34.4272 Y22.1822
G01 X34.3752 Y22.2208
G01 X34.3591 Y22.2321
G01 X34.3425 Y22.2426
G01 X34.2870 Y22.2759
G01 X34.2699 Y22.2856
G01 X34.2523 Y22.2944
G01 X34.1937 Y22.3221
G01 X34.1758 Y22.3301
G01 X34.1575 Y22.3371
G01 X34.0872 Y22.3622
G01 X34.0589 Y22.3704
G01 X33.9960 Y22.3861
G01 X33.9672 Y22.3922
G01 X33.8934 Y22.4033
G01 X33.8739 Y22.4057
G01 X33.8544 Y22.4071
G01 X33.7896 Y22.4103
G01 X33.7700 Y22.4108
G01 X33.7504 Y22.4103
G01 X33.6856 Y22.4071
G01 X33.6661 Y22.4057
G01 X33.6466 Y22.4033
G01 X33.5825 Y22.3938
G01 X33.5631 Y22.3904
G01 X33.5440 Y22.3861
G01 X33.4811 Y22.3704
G01 X33.4622 Y22.3651
G01 X33.4435 Y22.3590
G01 X33.3825 Y22.3371
G01 X33.3642 Y22.3301
G01 X33.3463 Y22.3221
G01 X33.2877 Y22.2944
G01 X33.2701 Y22.2856
G01 X33.2530 Y22.2759
G01 X33.1975 Y22.2426
G01 X33.1809 Y22.2321
G01 X33.1648 Y22.2208
G01 X33.1128 Y22.1822
G01 X33.0973 Y22.1701
G01 X33.0824 Y22.1573
G01 X33.0344 Y22.1138
G01 X33.0202 Y22.1002
G01 X33.0066 Y22.0860
G01 X32.9631 Y22.0380
G01 X32.9503 Y22.0231
G01 X32.9382 Y22.0076
G01 X32.8996 Y21.9556
G01 X32.8883 Y21.9395
G01 X32.8778 Y21.9229
G01 X32.8445 Y21.8674
G01 X32.8348 Y21.8503
G01 X32.8260 Y21.8327
G01 X32.7983 Y21.7741
G01 X32.7903 Y21.7562
G01 X32.7833 Y21.7379
G01 X32.7614 Y21.6769
G01 X32.7553 Y21.6582
G01 X32.7500 Y21.6393
G01 X32.7343 Y21.5764
G01 X32.7282 Y21.5476
G01 X32.7171 Y21.4738
G01 X32.7147 Y21.4543
G01 X32.7133 Y21.4348
G01 X32.7101 Y21.3700
G01 X32.7096 Y21.3504
G01 X32.7096 Y20.0296
G01 X32.7101 Y20.0100
G01 X32.7133 Y19.9452
G01 X32.7147 Y19.9257
G01 X32.7171 Y19.9062
G01 X32.7266 Y19.8421
G01 X32.7300 Y19.8227
G01 X32.7343 Y19.8036
G01 X32.7500 Y19.7407
G01 X32.7553 Y19.7218
G01 X32.7614 Y19.7031
G01 X32.7833 Y19.6421
G01 X32.7903 Y19.6238
G01 X32.7983 Y19.6059
G01 X32.8260 Y19.5473
G01 X32.8348 Y19.5297
G01 X32.8445 Y19.5126
G01 X32.8778 Y19.4571
G01 X32.8883 Y19.4405
G01 X32.8996 Y19.4244
G01 X32.9382 Y19.3724
G01 X32.9503 Y19.3569
G01 X32.9631 Y19.3420
G01 X33.0066 Y19.2940
G01 X33.0202 Y19.2798
G01 X33.0344 Y19.2662
G01 X33.0824 Y19.2227
G01 X33.1050 Y19.2038
G01 X33.1728 Y19.1535
G01 X33.1975 Y19.1374
G01 X33.2530 Y19.1041
G01 X33.2701 Y19.0944
G01 X33.2877 Y19.0856
G01 X33.3463 Y19.0579
G01 X33.3642 Y19.0499
G01 X33.3825 Y19.0429
G00 Z2.0000
G00 X35.9225 Y19.0429
G01 F60.00
G01 Z-0.1100
G01 F100.00
G01 X35.9928 Y19.0178
G01 X36.0211 Y19.0096
G01 X36.0840 Y18.9939
G01 X36.1031 Y18.9896
G01 X36.1225 Y18.9862
G01 X36.1866 Y18.9767
G01 X36.2158 Y18.9735
G01 X36.3002 Y18.9693
G01 X36.3296 Y18.9697
G01 X36.4042 Y18.9735
G01 X36.4334 Y18.9767
G01 X36.4975 Y18.9862
G01 X36.5169 Y18.9896
G01 X36.5360 Y18.9939
G01 X36.5989 Y19.0096
G01 X36.6178 Y19.0149
G01 X36.6365 Y19.0210
G01 X36.6975 Y19.0429
G01 X36.7158 Y19.0499
G01 X36.7337 Y19.0579
G01 X36.7923 Y19.0856
G01 X36.8185 Y19.0991
G01 X36.8825 Y19.1374
G01 X36.9072 Y19.1535
G01 X36.9750 Y19.2038
G01 X36.9976 Y19.2227
G01 X37.0528 Y19.2729
G01 X37.0734 Y19.2940
G01 X37.1169 Y19.3420
G01 X37.1297 Y19.3569
G01 X37.1418 Y19.3724
G01 X37.1804 Y19.4244
G01 X37.1917 Y19.4405
G01 X37.2022 Y19.4571
G01 X37.2355 Y19.5126
G01 X37.2452 Y19.5297
G01 X37.2540 Y19.5473
G01 X37.2817 Y19.6059
G01 X37.2897 Y19.6238
G01 X37.2967 Y19.6421
G01 X37.3186 Y19.7031
G01 X37.3247 Y19.7218
G01 X37.3300 Y19.7407
G01 X37.3457 Y19.8036
G01 X37.3518 Y19.8324
G01 X37.3629 Y19.9062
G01 X37.3653 Y19.9257
G01 X37.3667 Y19.9452
G01 X37.3699 Y20.0100
G01 X37.3704 Y20.0296
G01 X37.3703 Y21.3602
G01 X37.3667 Y21.4348
G01 X37.3653 Y21.4543
G01 X37.3629 Y21.4738
G01 X37.3534 Y21.5379
G01 X37.3500 Y21.5573
G01 X37.3457 Y21.5764
G01 X37.3300 Y21.6393
G01 X37.3218 Y21.6676
G01 X37.2967 Y21.7379
G01 X37.2897 Y21.7562
G01 X37.2817 Y21.7741
G01 X37.2540 Y21.8327
G01 X37.2452 Y21.8503
G01 X37.2355 Y21.8674
G01 X37.2022 Y21.9229
G01 X37.1917 Y21.9395
G01 X37.1804 Y21.9556
G01 X37.1418 Y22.0076
G01 X37.1297 Y22.0231
G01 X37.1169 Y22.0380
G01 X37.0734 Y22.0860
G01 X37.0598 Y22.1002
G01 X37.0456 Y22.1138
G01 X36.9976 Y22.1573
G01 X36.9827 Y22.1701
G01 X36.9672 Y22.1822
G01 X36.9152 Y22.2208
G01 X36.8991 Y22.2321
G01 X36.8825 Y22.2426
G01 X36.8270 Y22.2759
G01 X36.8099 Y22.2856
G01 X36.7923 Y22.2944
G01 X36.7337 Y22.3221
G01 X36.7158 Y22.3301
G01 X36.6975 Y22.3371
G01 X36.6272 Y22.3622
G01 X36.5989 Y22.3704
G01 X36.5360 Y22.3861
G01 X36.5072 Y22.3922
G01 X36.4334 Y22.4033
G01 X36.4139 Y22.4057
G01 X36.3944 Y22.4071
G01 X36.3296 Y22.4103
G01 X36.3100 Y22.4108
G01 X36.2904 Y22.4103
G01 X36.2256 Y22.4071
G01 X36.2061 Y22.4057
G01 X36.1866 Y22.4033
G01 X36.1225 Y22.3938
G01 X36.1031 Y22.3904
G01 X36.0840 Y22.3861
G01 X36.0211 Y22.3704
G01 X36.0022 Y22.3651
G01 X35.9835 Y22.3590
G01 X35.9225 Y22.3371
G01 X35.9042 Y22.3301
G01 X35.8863 Y22.3221
G01 X35.8277 Y22.2944
G01 X35.8101 Y22.2856
G01 X35.7930 Y22.2759
G01 X35.7375 Y22.2426
G01 X35.7209 Y22.2321
G01 X35.7048 Y22.2208
G01 X35.6528 Y22.1822
G01 X35.6373 Y22.1701
G01 X35.6224 Y22.1573
G01 X35.5744 Y22.1138
G01 X35.5602 Y22.1002
G01 X35.5466 Y22.0860
G01 X35.5031 Y22.0380
G01 X35.4903 Y22.0231
G01 X35.4782 Y22.0076
G01 X35.4396 Y21.9556
G01 X35.4283 Y21.9395
G01 X35.4178 Y21.9229
G01 X35.3845 Y21.8674
G01 X35.3748 Y21.8503
G01 X35.3660 Y21.8327
G01 X35.3383 Y21.7741
G01 X35.3303 Y21.7562
G01 X35.3233 Y21.7379
G01 X35.3014 Y21.6769
G01 X35.2953 Y21.6582
G01 X35.2900 Y21.6393
G01 X35.2743 Y21.5764
G01 X35.2682 Y21.5476
G01 X35.2571 Y21.4738
G01 X35.2547 Y21.4543
G01 X35.2533 Y21.4348
G01 X35.2501 Y21.3700
G01 X35.2496 Y21.3504
G01 X35.2496 Y20.0296
G01 X35.2501 Y20.0100
G01 X35.2533 Y19.9452
G01 X35.2547 Y19.9257
G01 X35.2571 Y19.9062
G01 X35.2666 Y19.8421
G01 X35.2700 Y19.8227
G01 X35.2743 Y19.8036
G01 X35.2900 Y19.7407
G01 X35.2953 Y19.7218
G01 X35.3014 Y19.7031
G01 X35.3233 Y19.6421
G01 X35.3303 Y19.6238
G01 X35.3383 Y19.6059
G01 X35.3660 Y19.5473
G01 X35.3748 Y19.5297
G01 X35.3845 Y19.5126
G01 X35.4178 Y19.4571
G01 X35.4283 Y19.4405
G01 X35.4396 Y19.4244
G01 X35.4782 Y19.3724
G01 X35.4903 Y19.3569
G01 X35.5031 Y19.3420
G01 X35.5466 Y19.2940
G01 X35.5602 Y19.2798
G01 X35.5744 Y19.2662
G01 X35.6224 Y19.2227
G01 X35.6450 Y19.2038
G01 X35.7128 Y19.1535
G01 X35.7375 Y19.1374
G01 X35.7930 Y19.1041
G01 X35.8101 Y19.0944
G01 X35.8277 Y19.0856
G01 X35.8863 Y19.0579
G01 X35.9042 Y19.0499
G01 X35.9225 Y19.0429
G00 Z2.0000
G00 X42.9826 Y19.5995
G01 F60.00
G01 Z-0.1100
G01 F100.00
G01 X43.0750 Y19.5664
G01 X43.0936 Y19.5603
G01 X43.1125 Y19.5550
G01 X43.2077 Y19.5312
G01 X43.2269 Y19.5269
G01 X43.2462 Y19.5235
G01 X43.3433 Y19.5091
G01 X43.3628 Y19.5067
G01 X43.3824 Y19.5053
G01 X43.4910 Y19.5001
G01 X43.4910 Y11.0009
G01 X43.4614 Y10.9831
G01 X43.4451 Y10.9722
G01 X43.3711 Y10.9174
G01 X43.3481 Y10.8990
G01 X43.2798 Y10.8373
G01 X43.2656 Y10.8237
G01 X43.2520 Y10.8095
G01 X43.1968 Y10.7486
G01 X43.1778 Y10.7260
G01 X43.1229 Y10.6522
G01 X43.1116 Y10.6361
G01 X43.1011 Y10.6195
G01 X43.0588 Y10.5490
G01 X43.0491 Y10.5319
G01 X43.0403 Y10.5143
G01 X43.0051 Y10.4400
G01 X42.9972 Y10.4220
G01 X42.9901 Y10.4037
G01 X42.9624 Y10.3263
G01 X42.9562 Y10.3076
G01 X42.9510 Y10.2887
G01 X42.9310 Y10.2089
G01 X42.9267 Y10.1898
G01 X42.9233 Y10.1704
G01 X42.9113 Y10.0891
G01 X42.9089 Y10.0696
G01 X42.9074 Y10.0500
G01 X42.9030 Y9.9580
G01 X42.9029 Y9.1246
G01 X42.9034 Y9.1050
G01 X42.9074 Y9.0228
G01 X42.9089 Y9.0032
G01 X42.9113 Y8.9837
G01 X42.9233 Y8.9024
G01 X42.9267 Y8.8830
G01 X42.9310 Y8.8639
G01 X42.9510 Y8.7841
G01 X42.9562 Y8.7652
G01 X42.9624 Y8.7465
G01 X42.9901 Y8.6691
G01 X42.9972 Y8.6508
G01 X43.0051 Y8.6328
G01 X43.0403 Y8.5585
G01 X43.0491 Y8.5409
G01 X43.0588 Y8.5238
G01 X43.1011 Y8.4533
G01 X43.1116 Y8.4367
G01 X43.1229 Y8.4206
G01 X43.1719 Y8.3546
G01 X43.1840 Y8.3391
G01 X43.1968 Y8.3242
G01 X43.2520 Y8.2633
G01 X43.2656 Y8.2491
G01 X43.2798 Y8.2355
G01 X43.3407 Y8.1803
G01 X43.3556 Y8.1675
G01 X43.3711 Y8.1554
G01 X43.4371 Y8.1064
G01 X43.4532 Y8.0951
G01 X43.4698 Y8.0846
G01 X43.5403 Y8.0423
G01 X43.5574 Y8.0326
G01 X43.5750 Y8.0238
G01 X43.6493 Y7.9886
G01 X43.6673 Y7.9807
G01 X43.6856 Y7.9736
G01 X43.7630 Y7.9459
G01 X43.7817 Y7.9397
G01 X43.8006 Y7.9345
G01 X43.8804 Y7.9145
G01 X43.8995 Y7.9102
G01 X43.9189 Y7.9068
G01 X44.0002 Y7.8948
G01 X44.0197 Y7.8924
G01 X44.0393 Y7.8909
G01 X44.1215 Y7.8869
G01 X44.1411 Y7.8864
G01 X44.1607 Y7.8869
G01 X44.2429 Y7.8909
G01 X44.2625 Y7.8924
G01 X44.2820 Y7.8948
G01 X44.3633 Y7.9068
G01 X44.3827 Y7.9102
G01 X44.4018 Y7.9145
G01 X44.4816 Y7.9345
G01 X44.5005 Y7.9397
G01 X44.5192 Y7.9459
G01 X44.5966 Y7.9736
G01 X44.6149 Y7.9807
G01 X44.6329 Y7.9886
G01 X44.7072 Y8.0238
G01 X44.7248 Y8.0326
G01 X44.7419 Y8.0423
G01 X44.8124 Y8.0846
G01 X44.8290 Y8.0951
G01 X44.8451 Y8.1064
G01 X44.9111 Y8.1554
G01 X44.9266 Y8.1675
G01 X44.9415 Y8.1803
G01 X45.0024 Y8.2355
G01 X45.0166 Y8.2491
G01 X45.0302 Y8.2633
G01 X45.0854 Y8.3242
G01 X45.0982 Y8.3391
G01 X45.1103 Y8.3546
G01 X45.1593 Y8.4206
G01 X45.1706 Y8.4367
G01 X45.1811 Y8.4533
G01 X45.2234 Y8.5238
G01 X45.2331 Y8.5409
G01 X45.2419 Y8.5585
G01 X45.2771 Y8.6328
G01 X45.2850 Y8.6508
G01 X45.2921 Y8.6691
G01 X45.3198 Y8.7465
G01 X45.3260 Y8.7652
G01 X45.3312 Y8.7841
G01 X45.3512 Y8.8639
G01 X45.3555 Y8.8830
G01 X45.3589 Y8.9024
G01 X45.3709 Y8.9837
G01 X45.3733 Y9.0032
G01 X45.3748 Y9.0228
G01 X45.3788 Y9.1050
G01 X45.3793 Y9.1246
G01 X45.3792 Y9.9580
G01 X45.3742 Y10.0598
G01 X45.3709 Y10.0891
G01 X45.3589 Y10.1704
G01 X45.3555 Y10.1898
G01 X45.3512 Y10.2089
G01 X45.3312 Y10.2887
G01 X45.3260 Y10.3076
G01 X45.3198 Y10.3263
G01 X45.2921 Y10.4037
G01 X45.2850 Y10.4220
G01 X45.2771 Y10.4400
G01 X45.2419 Y10.5143
G01 X45.2284 Y10.5405
G01 X45.1760 Y10.6279
G01 X45.1593 Y10.6522
G01 X45.1103 Y10.7182
G01 X45.0982 Y10.7337
G01 X45.0854 Y10.7486
G01 X45.0235 Y10.8167
G01 X45.0024 Y10.8373
G01 X44.9415 Y10.8925
G01 X44.9189 Y10.9115
G01 X44.8371 Y10.9722
G01 X44.8208 Y10.9831
G01 X44.7912 Y11.0009
G01 X44.7912 Y20.2589
G01 X44.7907 Y20.2785
G01 X44.7889 Y20.3128
G01 X44.7870 Y20.3324
G01 X44.7852 Y20.3456
G01 X44.7934 Y20.3642
G01 X44.8005 Y20.3826
G01 X44.8336 Y20.4750
G01 X44.8397 Y20.4936
G01 X44.8450 Y20.5125
G01 X44.8688 Y20.6077
G01 X44.8731 Y20.6269
G01 X44.8765 Y20.6462
G01 X44.8909 Y20.7433
G01 X44.8933 Y20.7628
G01 X44.8947 Y20.7824
G01 X44.8995 Y20.8804
G01 X44.9000 Y20.9000
G01 X44.8995 Y20.9196
G01 X44.8947 Y21.0176
G01 X44.8933 Y21.0372
G01 X44.8909 Y21.0567
G01 X44.8765 Y21.1538
G01 X44.8731 Y21.1731
G01 X44.8688 Y21.1923
G01 X44.8450 Y21.2875
G01 X44.8397 Y21.3064
G01 X44.8336 Y21.3250
G01 X44.8005 Y21.4174
G01 X44.7934 Y21.4358
G01 X44.7855 Y21.4537
G01 X44.7435 Y21.5424
G01 X44.7347 Y21.5600
G01 X44.7250 Y21.5770
G01 X44.6746 Y21.6612
G01 X44.6641 Y21.6778
G01 X44.6528 Y21.6938
G01 X44.5943 Y21.7727
G01 X44.5822 Y21.7882
G01 X44.5694 Y21.8030
G01 X44.5035 Y21.8757
G01 X44.4899 Y21.8899
G01 X44.4757 Y21.9035
G01 X44.4030 Y21.9694
G01 X44.3882 Y21.9822
G01 X44.3727 Y21.9943
G01 X44.2938 Y22.0528
G01 X44.2778 Y22.0641
G01 X44.2612 Y22.0746
G01 X44.1770 Y22.1250
G01 X44.1600 Y22.1347
G01 X44.1424 Y22.1435
G01 X44.0537 Y22.1855
G01 X44.0358 Y22.1934
G01 X44.0174 Y22.2005
G01 X43.9250 Y22.2336
G01 X43.9064 Y22.2397
G01 X43.8875 Y22.2450
G01 X43.7923 Y22.2688
G01 X43.7731 Y22.2731
G01 X43.7538 Y22.2765
G01 X43.6567 Y22.2909
G01 X43.6372 Y22.2933
G01 X43.6176 Y22.2947
G01 X43.5196 Y22.2995
G01 X43.5000 Y22.3000
G01 X43.4804 Y22.2995
G01 X43.3824 Y22.2947
G01 X43.3628 Y22.2933
G01 X43.3433 Y22.2909
G01 X43.2462 Y22.2765
G01 X43.2269 Y22.2731
G01 X43.2077 Y22.2688
G01 X43.1125 Y22.2450
G01 X43.0936 Y22.2397
G01 X43.0750 Y22.2336
G01 X42.9826 Y22.2005
G01 X42.9642 Y22.1934
G01 X42.9463 Y22.1855
G01 X42.8576 Y22.1435
G01 X42.8400 Y22.1347
G01 X42.8230 Y22.1250
G01 X42.7388 Y22.0746
G01 X42.7222 Y22.0641
G01 X42.7062 Y22.0528
G01 X42.6273 Y21.9943
G01 X42.6118 Y21.9822
G01 X42.5970 Y21.9694
G01 X42.5243 Y21.9035
G01 X42.5101 Y21.8899
G01 X42.4965 Y21.8757
G01 X42.4306 Y21.8030
G01 X42.4178 Y21.7882
G01 X42.4057 Y21.7727
G01 X42.3472 Y21.6938
G01 X42.3359 Y21.6778
G01 X42.3254 Y21.6612
G01 X42.2750 Y21.5770
G01 X42.2653 Y21.5600
G01 X42.2565 Y21.5424
G01 X42.2145 Y21.4537
G01 X42.2066 Y21.4358
G01 X42.1995 Y21.4174
G01 X42.1664 Y21.3250
G01 X42.1603 Y21.3064
G01 X42.1550 Y21.2875
G01 X42.1312 Y21.1923
G01 X42.1269 Y21.1731
G01 X42.1235 Y21.1538
G01 X42.1091 Y21.0567
G01 X42.1067 Y21.0372
G01 X42.1053 Y21.0176
G01 X42.1005 Y20.9196
G01 X42.1000 Y20.9000
G01 X42.1005 Y20.8804
G01 X42.1053 Y20.7824
G01 X42.1067 Y20.7628
G01 X42.1091 Y20.7433
G01 X42.1235 Y20.6462
G01 X42.1269 Y20.6269
G01 X42.1312 Y20.6077
G01 X42.1550 Y20.5125
G01 X42.1603 Y20.4936
G01 X42.1664 Y20.4750
G01 X42.1995 Y20.3826
G01 X42.2066 Y20.3642
G01 X42.2145 Y20.3463
G01 X42.2565 Y20.2576
G01 X42.2653 Y20.2400
G01 X42.2750 Y20.2230
G01 X42.3254 Y20.1388
G01 X42.3359 Y20.1222
G01 X42.3472 Y20.1062
G01 X42.4057 Y20.0273
G01 X42.4178 Y20.0118
G01 X42.4306 Y19.9970
G01 X42.4965 Y19.9243
G01 X42.5101 Y19.9101
G01 X42.5243 Y19.8965
G01 X42.5970 Y19.8306
G01 X42.6118 Y19.8178
G01 X42.6273 Y19.8057
G01 X42.7062 Y19.7472
G01 X42.7222 Y19.7359
G01 X42.7388 Y19.7254
G01 X42.8230 Y19.6750
G01 X42.8400 Y19.6653
G01 X42.8576 Y19.6565
G01 X42.9463 Y19.6145
G01 X42.9642 Y19.6066
G01 X42.9826 Y19.5995
G00 Z2.0000
G00 X35.9225 Y26.6629
G01 F60.00
G01 Z-0.1100
G01 F100.00
G01 X35.9928 Y26.6378
G01 X36.0211 Y26.6296
G01 X36.0840 Y26.6139
G01 X36.1031 Y26.6096
G01 X36.1225 Y26.6062
G01 X36.1866 Y26.5967
G01 X36.2158 Y26.5935
G01 X36.3002 Y26.5893
G01 X36.3296 Y26.5897
G01 X36.4042 Y26.5935
G01 X36.4334 Y26.5967
G01 X36.4975 Y26.6062
G01 X36.5169 Y26.6096
G01 X36.5360 Y26.6139
G01 X36.5989 Y26.6296
G01 X36.6178 Y26.6349
G01 X36.6365 Y26.6410
G01 X36.6975 Y26.6629
G01 X36.7158 Y26.6699
G01 X36.7337 Y26.6779
G01 X36.7923 Y26.7056
G01 X36.8185 Y26.7191
G01 X36.8825 Y26.7574
G01 X36.9072 Y26.7735
G01 X36.9750 Y26.8238
G01 X36.9976 Y26.8427
G01 X37.0528 Y26.8929
G01 X37.0734 Y26.9140
G01 X37.1169 Y26.9620
G01 X37.1297 Y26.9769
G01 X37.1418 Y26.9924
G01 X37.1804 Y27.0444
G01 X37.1917 Y27.0605
G01 X37.2022 Y27.0771
G01 X37.2355 Y27.1326
G01 X37.2452 Y27.1497
G01 X37.2540 Y27.1673
G01 X37.2817 Y27.2259
G01 X37.2897 Y27.2438
G01 X37.2967 Y27.2621
G01 X37.3186 Y27.3231
G01 X37.3247 Y27.3418
G01 X37.3300 Y27.3607
G01 X37.3457 Y27.4236
G01 X37.3518 Y27.4524
G01 X37.3629 Y27.5262
G01 X37.3653 Y27.5457
G01 X37.3667 Y27.5652
G01 X37.3699 Y27.6300
G01 X37.3704 Y27.6496
G01 X37.3703 Y28.9802
G01 X37.3667 Y29.0548
G01 X37.3653 Y29.0743
G01 X37.3629 Y29.0938
G01 X37.3534 Y29.1579
G01 X37.3500 Y29.1773
G01 X37.3457 Y29.1964
G01 X37.3300 Y29.2593
G01 X37.3218 Y29.2876
G01 X37.2967 Y29.3579
G01 X37.2897 Y29.3762
G01 X37.2817 Y29.3941
G01 X37.2540 Y29.4527
G01 X37.2452 Y29.4703
G01 X37.2355 Y29.4874
G01 X37.2022 Y29.5429
G01 X37.1917 Y29.5595
G01 X37.1804 Y29.5756
G01 X37.1418 Y29.6276
G01 X37.1297 Y29.6431
G01 X37.1169 Y29.6580
G01 X37.0734 Y29.7060
G01 X37.0598 Y29.7202
G01 X37.0456 Y29.7338
G01 X36.9976 Y29.7773
G01 X36.9827 Y29.7901
G01 X36.9672 Y29.8022
G01 X36.9152 Y29.8408
G01 X36.8991 Y29.8521
G01 X36.8825 Y29.8626
G01 X36.8270 Y29.8959
G01 X36.8099 Y29.9056
G01 X36.7923 Y29.9144
G01 X36.7337 Y29.9421
G01 X36.7158 Y29.9501
G01 X36.6975 Y29.9571
G01 X36.6272 Y29.9822
G01 X36.5989 Y29.9904
G01 X36.5360 Y30.0061
G01 X36.5072 Y30.0122
G01 X36.4334 Y30.0233
G01 X36.4139 Y30.0257
G01 X36.3944 Y30.0271
G01 X36.3296 Y30.0303
G01 X36.3100 Y30.0308
G01 X36.2904 Y30.0303
G01 X36.2256 Y30.0271
G01 X36.2061 Y30.0257
G01 X36.1866 Y30.0233
G01 X36.1225 Y30.0138
G01 X36.1031 Y30.0104
G01 X36.0840 Y30.0061
G01 X36.0211 Y29.9904
G01 X36.0022 Y29.9851
G01 X35.9835 Y29.9790
G01 X35.9225 Y29.9571
G01 X35.9042 Y29.9501
G01 X35.8863 Y29.9421
G01 X35.8277 Y29.9144
G01 X35.8101 Y29.9056
G01 X35.7930 Y29.8959
G01 X35.7375 Y29.8626
G01 X35.7209 Y29.8521
G01 X35.7048 Y29.8408
G01 X35.6528 Y29.8022
G01 X35.6373 Y29.7901
G01 X35.6224 Y29.7773
G01 X35.5744 Y29.7338
G01 X35.5602 Y29.7202
G01 X35.5466 Y29.7060
G01 X35.5031 Y29.6580
G01 X35.4903 Y29.6431
G01 X35.4782 Y29.6276
G01 X35.4396 Y29.5756
G01 X35.4283 Y29.5595
G01 X35.4178 Y29.5429
G01 X35.3845 Y29.4874
G01 X35.3748 Y29.4703
G01 X35.3660 Y29.4527
G01 X35.3383 Y29.3941
G01 X35.3303 Y29.3762
G01 X35.3233 Y29.3579
G01 X35.3014 Y29.2969
G01 X35.2953 Y29.2782
G01 X35.2900 Y29.2593
G01 X35.2743 Y29.1964
G01 X35.2682 Y29.1676
G01 X35.2571 Y29.0938
G01 X35.2547 Y29.0743
G01 X35.2533 Y29.0548
G01 X35.2501 Y28.9900
G01 X35.2496 Y28.9704
G01 X35.2496 Y27.6496
G01 X35.2501 Y27.6300
G01 X35.2533 Y27.5652
G01 X35.2547 Y27.5457
G01 X35.2571 Y27.5262
G01 X35.2666 Y27.4621
G01 X35.2700 Y27.4427
G01 X35.2743 Y27.4236
G01 X35.2900 Y27.3607
G01 X35.2953 Y27.3418
G01 X35.3014 Y27.3231
G01 X35.3233 Y27.2621
G01 X35.3303 Y27.2438
G01 X35.3383 Y27.2259
G01 X35.3660 Y27.1673
G01 X35.3748 Y27.1497
G01 X35.3845 Y27.1326
G01 X35.4178 Y27.0771
G01 X35.4283 Y27.0605
G01 X35.4396 Y27.0444
G01 X35.4782 Y26.9924
G01 X35.4903 Y26.9769
G01 X35.5031 Y26.9620
G01 X35.5466 Y26.9140
G01 X35.5602 Y26.8998
G01 X35.5744 Y26.8862
G01 X35.6224 Y26.8427
G01 X35.6450 Y26.8238
G01 X35.7128 Y26.7735
G01 X35.7375 Y26.7574
G01 X35.7930 Y26.7241
G01 X35.8101 Y26.7144
G01 X35.8277 Y26.7056
G01 X35.8863 Y26.6779
G01 X35.9042 Y26.6699
G01 X35.9225 Y26.6629
G00 Z2.0000
G00 X33.3825 Y26.6629
G01 F60.00
G01 Z-0.1100
G01 F100.00
G01 X33.4528 Y26.6378
G01 X33.4811 Y26.6296
G01 X33.5440 Y26.6139
G01 X33.5631 Y26.6096
G01 X33.5825 Y26.6062
G01 X33.6466 Y26.5967
G01 X33.6758 Y26.5935
G01 X33.7602 Y26.5893
G01 X33.7896 Y26.5897
G01 X33.8642 Y26.5935
G01 X33.8934 Y26.5967
G01 X33.9575 Y26.6062
G01 X33.9769 Y26.6096
G01 X33.9960 Y26.6139
G01 X34.0589 Y26.6296
G01 X34.0778 Y26.6349
G01 X34.0965 Y26.6410
G01 X34.1575 Y26.6629
G01 X34.1758 Y26.6699
G01 X34.1937 Y26.6779
G01 X34.2523 Y26.7056
G01 X34.2785 Y26.7191
G01 X34.3425 Y26.7574
G01 X34.3672 Y26.7735
G01 X34.4350 Y26.8238
G01 X34.4576 Y26.8427
G01 X34.5128 Y26.8929
G01 X34.5334 Y26.9140
G01 X34.5769 Y26.9620
G01 X34.5897 Y26.9769
G01 X34.6018 Y26.9924
G01 X34.6404 Y27.0444
G01 X34.6517 Y27.0605
G01 X34.6622 Y27.0771
G01 X34.6955 Y27.1326
G01 X34.7052 Y27.1497
G01 X34.7140 Y27.1673
G01 X34.7417 Y27.2259
G01 X34.7497 Y27.2438
G01 X34.7567 Y27.2621
G01 X34.7786 Y27.3231
G01 X34.7847 Y27.3418
G01 X34.7900 Y27.3607
G01 X34.8057 Y27.4236
G01 X34.8118 Y27.4524
G01 X34.8229 Y27.5262
G01 X34.8253 Y27.5457
G01 X34.8267 Y27.5652
G01 X34.8299 Y27.6300
G01 X34.8304 Y27.6496
G01 X34.8303 Y28.9802
G01 X34.8267 Y29.0548
G01 X34.8253 Y29.0743
G01 X34.8229 Y29.0938
G01 X34.8134 Y29.1579
G01 X34.8100 Y29.1773
G01 X34.8057 Y29.1964
G01 X34.7900 Y29.2593
G01 X34.7818 Y29.2876
G01 X34.7567 Y29.3579
G01 X34.7497 Y29.3762
G01 X34.7417 Y29.3941
G01 X34.7140 Y29.4527
G01 X34.7052 Y29.4703
G01 X34.6955 Y29.4874
G01 X34.6622 Y29.5429
G01 X34.6517 Y29.5595
G01 X34.6404 Y29.5756
G01 X34.6018 Y29.6276
G01 X34.5897 Y29.6431
G01 X34.5769 Y29.6580
G01 X34.5334 Y29.7060
G01 X34.5198 Y29.7202
G01 X34.5056 Y29.7338
G01 X34.4576 Y29.7773
G01 X34.4427 Y29.7901
G01 X34.4272 Y29.8022
G01 X34.3752 Y29.8408
G01 X34.3591 Y29.8521
G01 X34.3425 Y29.8626
G01 X34.2870 Y29.8959
G01 X34.2699 Y29.9056
G01 X34.2523 Y29.9144
G01 X34.1937 Y29.9421
G01 X34.1758 Y29.9501
G01 X34.1575 Y29.9571
G01 X34.0872 Y29.9822
G01 X34.0589 Y29.9904
G01 X33.9960 Y30.0061
G01 X33.9672 Y30.0122
G01 X33.8934 Y30.0233
G01 X33.8739 Y30.0257
G01 X33.8544 Y30.0271
G01 X33.7896 Y30.0303
G01 X33.7700 Y30.0308
G01 X33.7504 Y30.0303
G01 X33.6856 Y30.0271
G01 X33.6661 Y30.0257
G01 X33.6466 Y30.0233
G01 X33.5825 Y30.0138
G01 X33.5631 Y30.0104
G01 X33.5440 Y30.0061
G01 X33.4811 Y29.9904
G01 X33.4622 Y29.9851
G01 X33.4435 Y29.9790
G01 X33.3825 Y29.9571
G01 X33.3642 Y29.9501
G01 X33.3463 Y29.9421
G01 X33.2877 Y29.9144
G01 X33.2701 Y29.9056
G01 X33.2530 Y29.8959
G01 X33.1975 Y29.8626
G01 X33.1809 Y29.8521
G01 X33.1648 Y29.8408
G01 X33.1128 Y29.8022
G01 X33.0973 Y29.7901
G01 X33.0824 Y29.7773
G01 X33.0344 Y29.7338
G01 X33.0202 Y29.7202
G01 X33.0066 Y29.7060
G01 X32.9631 Y29.6580
G01 X32.9503 Y29.6431
G01 X32.9382 Y29.6276
G01 X32.8996 Y29.5756
G01 X32.8883 Y29.5595
G01 X32.8778 Y29.5429
G01 X32.8445 Y29.4874
G01 X32.8348 Y29.4703
G01 X32.8260 Y29.4527
G01 X32.7983 Y29.3941
G01 X32.7903 Y29.3762
G01 X32.7833 Y29.3579
G01 X32.7614 Y29.2969
G01 X32.7553 Y29.2782
G01 X32.7500 Y29.2593
G01 X32.7343 Y29.1964
G01 X32.7282 Y29.1676
G01 X32.7171 Y29.0938
G01 X32.7147 Y29.0743
G01 X32.7133 Y29.0548
G01 X32.7101 Y28.9900
G01 X32.7096 Y28.9704
G01 X32.7096 Y27.6496
G01 X32.7101 Y27.6300
G01 X32.7133 Y27.5652
G01 X32.7147 Y27.5457
G01 X32.7171 Y27.5262
G01 X32.7266 Y27.4621
G01 X32.7300 Y27.4427
G01 X32.7343 Y27.4236
G01 X32.7500 Y27.3607
G01 X32.7553 Y27.3418
G01 X32.7614 Y27.3231
G01 X32.7833 Y27.2621
G01 X32.7903 Y27.2438
G01 X32.7983 Y27.2259
G01 X32.8260 Y27.1673
G01 X32.8348 Y27.1497
G01 X32.8445 Y27.1326
G01 X32.8778 Y27.0771
G01 X32.8883 Y27.0605
G01 X32.8996 Y27.0444
G01 X32.9382 Y26.9924
G01 X32.9503 Y26.9769
G01 X32.9631 Y26.9620
G01 X33.0066 Y26.9140
G01 X33.0202 Y26.8998
G01 X33.0344 Y26.8862
G01 X33.0824 Y26.8427
G01 X33.1050 Y26.8238
G01 X33.1728 Y26.7735
G01 X33.1975 Y26.7574
G01 X33.2530 Y26.7241
G01 X33.2701 Y26.7144
G01 X33.2877 Y26.7056
G01 X33.3463 Y26.6779
G01 X33.3642 Y26.6699
G01 X33.3825 Y26.6629
G00 Z2.0000
G00 X30.8425 Y26.6629
G01 F60.00
G01 Z-0.1100
G01 F100.00
G01 X30.9128 Y26.6378
G01 X30.9411 Y26.6296
G01 X31.0040 Y26.6139
G01 X31.0231 Y26.6096
G01 X31.0425 Y26.6062
G01 X31.1066 Y26.5967
G01 X31.1358 Y26.5935
G01 X31.2202 Y26.5893
G01 X31.2496 Y26.5897
G01 X31.3242 Y26.5935
G01 X31.3534 Y26.5967
G01 X31.4175 Y26.6062
G01 X31.4369 Y26.6096
G01 X31.4560 Y26.6139
G01 X31.5189 Y26.6296
G01 X31.5378 Y26.6349
G01 X31.5565 Y26.6410
G01 X31.6175 Y26.6629
G01 X31.6358 Y26.6699
G01 X31.6537 Y26.6779
G01 X31.7123 Y26.7056
G01 X31.7385 Y26.7191
G01 X31.8025 Y26.7574
G01 X31.8272 Y26.7735
G01 X31.8950 Y26.8238
G01 X31.9176 Y26.8427
G01 X31.9728 Y26.8929
G01 X31.9934 Y26.9140
G01 X32.0369 Y26.9620
G01 X32.0497 Y26.9769
G01 X32.0618 Y26.9924
G01 X32.1004 Y27.0444
G01 X32.1117 Y27.0605
G01 X32.1222 Y27.0771
G01 X32.1555 Y27.1326
G01 X32.1652 Y27.1497
G01 X32.1740 Y27.1673
G01 X32.2017 Y27.2259
G01 X32.2097 Y27.2438
G01 X32.2167 Y27.2621
G01 X32.2386 Y27.3231
G01 X32.2447 Y27.3418
G01 X32.2500 Y27.3607
G01 X32.2657 Y27.4236
G01 X32.2718 Y27.4524
G01 X32.2829 Y27.5262
G01 X32.2853 Y27.5457
G01 X32.2867 Y27.5652
G01 X32.2899 Y27.6300
G01 X32.2904 Y27.6496
G01 X32.2903 Y28.9802
G01 X32.2867 Y29.0548
G01 X32.2853 Y29.0743
G01 X32.2829 Y29.0938
G01 X32.2734 Y29.1579
G01 X32.2700 Y29.1773
G01 X32.2657 Y29.1964
G01 X32.2500 Y29.2593
G01 X32.2418 Y29.2876
G01 X32.2167 Y29.3579
G01 X32.2097 Y29.3762
G01 X32.2017 Y29.3941
G01 X32.1740 Y29.4527
G01 X32.1652 Y29.4703
G01 X32.1555 Y29.4874
G01 X32.1222 Y29.5429
G01 X32.1117 Y29.5595
G01 X32.1004 Y29.5756
G01 X32.0618 Y29.6276
G01 X32.0497 Y29.6431
G01 X32.0369 Y29.6580
G01 X31.9934 Y29.7060
G01 X31.9798 Y29.7202
G01 X31.9656 Y29.7338
G01 X31.9176 Y29.7773
G01 X31.9027 Y29.7901
G01 X31.8872 Y29.8022
G01 X31.8352 Y29.8408
G01 X31.8191 Y29.8521
G01 X31.8025 Y29.8626
G01 X31.7470 Y29.8959
G01 X31.7299 Y29.9056
G01 X31.7123 Y29.9144
G01 X31.6537 Y29.9421
G01 X31.6358 Y29.9501
G01 X31.6175 Y29.9571
G01 X31.5472 Y29.9822
G01 X31.5189 Y29.9904
G01 X31.4560 Y30.0061
G01 X31.4272 Y30.0122
G01 X31.3534 Y30.0233
G01 X31.3339 Y30.0257
G01 X31.3144 Y30.0271
G01 X31.2496 Y30.0303
G01 X31.2300 Y30.0308
G01 X31.2104 Y30.0303
G01 X31.1456 Y30.0271
G01 X31.1261 Y30.0257
G01 X31.1066 Y30.0233
G01 X31.0425 Y30.0138
G01 X31.0231 Y30.0104
G01 X31.0040 Y30.0061
G01 X30.9411 Y29.9904
G01 X30.9222 Y29.9851
G01 X30.9035 Y29.9790
G01 X30.8425 Y29.9571
G01 X30.8242 Y29.9501
G01 X30.8063 Y29.9421
G01 X30.7477 Y29.9144
G01 X30.7301 Y29.9056
G01 X30.7130 Y29.8959
G01 X30.6575 Y29.8626
G01 X30.6409 Y29.8521
G01 X30.6248 Y29.8408
G01 X30.5728 Y29.8022
G01 X30.5573 Y29.7901
G01 X30.5424 Y29.7773
G01 X30.4944 Y29.7338
G01 X30.4802 Y29.7202
G01 X30.4666 Y29.7060
G01 X30.4231 Y29.6580
G01 X30.4103 Y29.6431
G01 X30.3982 Y29.6276
G01 X30.3596 Y29.5756
G01 X30.3483 Y29.5595
G01 X30.3378 Y29.5429
G01 X30.3045 Y29.4874
G01 X30.2948 Y29.4703
G01 X30.2860 Y29.4527
G01 X30.2583 Y29.3941
G01 X30.2503 Y29.3762
G01 X30.2433 Y29.3579
G01 X30.2214 Y29.2969
G01 X30.2153 Y29.2782
G01 X30.2100 Y29.2593
G01 X30.1943 Y29.1964
G01 X30.1882 Y29.1676
G01 X30.1771 Y29.0938
G01 X30.1747 Y29.0743
G01 X30.1733 Y29.0548
G01 X30.1701 Y28.9900
G01 X30.1696 Y28.9704
G01 X30.1696 Y27.6496
G01 X30.1701 Y27.6300
G01 X30.1733 Y27.5652
G01 X30.1747 Y27.5457
G01 X30.1771 Y27.5262
G01 X30.1866 Y27.4621
G01 X30.1900 Y27.4427
G01 X30.1943 Y27.4236
G01 X30.2100 Y27.3607
G01 X30.2153 Y27.3418
G01 X30.2214 Y27.3231
G01 X30.2433 Y27.2621
G01 X30.2503 Y27.2438
G01 X30.2583 Y27.2259
G01 X30.2860 Y27.1673
G01 X30.2948 Y27.1497
G01 X30.3045 Y27.1326
G01 X30.3378 Y27.0771
G01 X30.3483 Y27.0605
G01 X30.3596 Y27.0444
G01 X30.3982 Y26.9924
G01 X30.4103 Y26.9769
G01 X30.4231 Y26.9620
G01 X30.4666 Y26.9140
G01 X30.4802 Y26.8998
G01 X30.4944 Y26.8862
G01 X30.5424 Y26.8427
G01 X30.5650 Y26.8238
G01 X30.6328 Y26.7735
G01 X30.6575 Y26.7574
G01 X30.7130 Y26.7241
G01 X30.7301 Y26.7144
G01 X30.7477 Y26.7056
G01 X30.8063 Y26.6779
G01 X30.8242 Y26.6699
G01 X30.8425 Y26.6629
G00 Z2.0000
G00 X28.3025 Y26.6629
G01 F60.00
G01 Z-0.1100
G01 F100.00
G01 X28.3728 Y26.6378
G01 X28.4011 Y26.6296
G01 X28.4640 Y26.6139
G01 X28.4831 Y26.6096
G01 X28.5025 Y26.6062
G01 X28.5666 Y26.5967
G01 X28.5958 Y26.5935
G01 X28.6802 Y26.5893
G01 X28.7096 Y26.5897
G01 X28.7842 Y26.5935
G01 X28.8134 Y26.5967
G01 X28.8775 Y26.6062
G01 X28.8969 Y26.6096
G01 X28.9160 Y26.6139
G01 X28.9789 Y26.6296
G01 X28.9978 Y26.6349
G01 X29.0165 Y26.6410
G01 X29.0775 Y26.6629
G01 X29.0958 Y26.6699
G01 X29.1137 Y26.6779
G01 X29.1723 Y26.7056
G01 X29.1985 Y26.7191
G01 X29.2625 Y26.7574
G01 X29.2872 Y26.7735
G01 X29.3550 Y26.8238
G01 X29.3776 Y26.8427
G01 X29.4328 Y26.8929
G01 X29.4534 Y26.9140
G01 X29.4969 Y26.9620
G01 X29.5097 Y26.9769
G01 X29.5218 Y26.9924
G01 X29.5604 Y27.0444
G01 X29.5717 Y27.0605
G01 X29.5822 Y27.0771
G01 X29.6155 Y27.1326
G01 X29.6252 Y27.1497
G01 X29.6340 Y27.1673
G01 X29.6617 Y27.2259
G01 X29.6697 Y27.2438
G01 X29.6767 Y27.2621
G01 X29.6986 Y27.3231
G01 X29.7047 Y27.3418
G01 X29.7100 Y27.3607
G01 X29.7257 Y27.4236
G01 X29.7318 Y27.4524
G01 X29.7429 Y27.5262
G01 X29.7453 Y27.5457
G01 X29.7467 Y27.5652
G01 X29.7499 Y27.6300
G01 X29.7504 Y27.6496
G01 X29.7503 Y28.9802
G01 X29.7467 Y29.0548
G01 X29.7453 Y29.0743
G01 X29.7429 Y29.0938
G01 X29.7334 Y29.1579
G01 X29.7300 Y29.1773
G01 X29.7257 Y29.1964
G01 X29.7100 Y29.2593
G01 X29.7018 Y29.2876
G01 X29.6767 Y29.3579
G01 X29.6697 Y29.3762
G01 X29.6617 Y29.3941
G01 X29.6340 Y29.4527
G01 X29.6252 Y29.4703
G01 X29.6155 Y29.4874
G01 X29.5822 Y29.5429
G01 X29.5717 Y29.5595
G01 X29.5604 Y29.5756
G01 X29.5218 Y29.6276
G01 X29.5097 Y29.6431
G01 X29.4969 Y29.6580
G01 X29.4534 Y29.7060
G01 X29.4398 Y29.7202
G01 X29.4256 Y29.7338
G01 X29.3776 Y29.7773
G01 X29.3627 Y29.7901
G01 X29.3472 Y29.8022
G01 X29.2952 Y29.8408
G01 X29.2791 Y29.8521
G01 X29.2625 Y29.8626
G01 X29.2070 Y29.8959
G01 X29.1899 Y29.9056
G01 X29.1723 Y29.9144
G01 X29.1137 Y29.9421
G01 X29.0958 Y29.9501
G01 X29.0775 Y29.9571
G01 X29.0072 Y29.9822
G01 X28.9789 Y29.9904
G01 X28.9160 Y30.0061
G01 X28.8872 Y30.0122
G01 X28.8134 Y30.0233
G01 X28.7939 Y30.0257
G01 X28.7744 Y30.0271
G01 X28.7096 Y30.0303
G01 X28.6900 Y30.0308
G01 X28.6704 Y30.0303
G01 X28.6056 Y30.0271
G01 X28.5861 Y30.0257
G01 X28.5666 Y30.0233
G01 X28.5025 Y30.0138
G01 X28.4831 Y30.0104
G01 X28.4640 Y30.0061
G01 X28.4011 Y29.9904
G01 X28.3822 Y29.9851
G01 X28.3635 Y29.9790
G01 X28.3025 Y29.9571
G01 X28.2842 Y29.9501
G01 X28.2663 Y29.9421
G01 X28.2077 Y29.9144
G01 X28.1901 Y29.9056
G01 X28.1730 Y29.8959
G01 X28.1175 Y29.8626
G01 X28.1009 Y29.8521
G01 X28.0848 Y29.8408
G01 X28.0328 Y29.8022
G01 X28.0173 Y29.7901
G01 X28.0024 Y29.7773
G01 X27.9544 Y29.7338
G01 X27.9402 Y29.7202
G01 X27.9266 Y29.7060
G01 X27.8831 Y29.6580
G01 X27.8703 Y29.6431
G01 X27.8582 Y29.6276
G01 X27.8196 Y29.5756
G01 X27.8083 Y29.5595
G01 X27.7978 Y29.5429
G01 X27.7645 Y29.4874
G01 X27.7548 Y29.4703
G01 X27.7460 Y29.4527
G01 X27.7183 Y29.3941
G01 X27.7103 Y29.3762
G01 X27.7033 Y29.3579
G01 X27.6814 Y29.2969
G01 X27.6753 Y29.2782
G01 X27.6700 Y29.2593
G01 X27.6543 Y29.1964
G01 X27.6482 Y29.1676
G01 X27.6371 Y29.0938
G01 X27.6347 Y29.0743
G01 X27.6333 Y29.0548
G01 X27.6301 Y28.9900
G01 X27.6296 Y28.9704
G01 X27.6296 Y27.6496
G01 X27.6301 Y27.6300
G01 X27.6333 Y27.5652
G01 X27.6347 Y27.5457
G01 X27.6371 Y27.5262
G01 X27.6466 Y27.4621
G01 X27.6500 Y27.4427
G01 X27.6543 Y27.4236
G01 X27.6700 Y27.3607
G01 X27.6753 Y27.3418
G01 X27.6814 Y27.3231
G01 X27.7033 Y27.2621
G01 X27.7103 Y27.2438
G01 X27.7183 Y27.2259
G01 X27.7460 Y27.1673
G01 X27.7548 Y27.1497
G01 X27.7645 Y27.1326
G01 X27.7978 Y27.0771
G01 X27.8083 Y27.0605
G01 X27.8196 Y27.0444
G01 X27.8582 Y26.9924
G01 X27.8703 Y26.9769
G01 X27.8831 Y26.9620
G01 X27.9266 Y26.9140
G01 X27.9402 Y26.8998
G01 X27.9544 Y26.8862
G01 X28.0024 Y26.8427
G01 X28.0250 Y26.8238
G01 X28.0928 Y26.7735
G01 X28.1175 Y26.7574
G01 X28.1730 Y26.7241
G01 X28.1901 Y26.7144
G01 X28.2077 Y26.7056
G01 X28.2663 Y26.6779
G01 X28.2842 Y26.6699
G01 X28.3025 Y26.6629
G00 Z2.0000
G00 X28.1925 Y34.9529
G01 F60.00
G01 Z-0.1100
G01 F100.00
G01 X28.2628 Y34.9278
G01 X28.2911 Y34.9196
G01 X28.3540 Y34.9039
G01 X28.3731 Y34.8996
G01 X28.3925 Y34.8962
G01 X28.4566 Y34.8867
G01 X28.4858 Y34.8835
G01 X28.5702 Y34.8793
G01 X28.5996 Y34.8797
G01 X28.6742 Y34.8835
G01 X28.7034 Y34.8867
G01 X28.7675 Y34.8962
G01 X28.7869 Y34.8996
G01 X28.8060 Y34.9039
G01 X28.8689 Y34.9196
G01 X28.8878 Y34.9249
G01 X28.9065 Y34.9310
G01 X28.9675 Y34.9529
G01 X28.9858 Y34.9599
G01 X29.0037 Y34.9679
G01 X29.0623 Y34.9956
G01 X29.0885 Y35.0091
G01 X29.1525 Y35.0474
G01 X29.1772 Y35.0635
G01 X29.2450 Y35.1138
G01 X29.2676 Y35.1327
G01 X29.3228 Y35.1829
G01 X29.3434 Y35.2040
G01 X29.3869 Y35.2520
G01 X29.3997 Y35.2669
G01 X29.4118 Y35.2824
G01 X29.4504 Y35.3344
G01 X29.4617 Y35.3505
G01 X29.4722 Y35.3671
G01 X29.5055 Y35.4226
G01 X29.5152 Y35.4397
G01 X29.5240 Y35.4573
G01 X29.5517 Y35.5159
G01 X29.5597 Y35.5338
G01 X29.5667 Y35.5521
G01 X29.5886 Y35.6131
G01 X29.5947 Y35.6318
G01 X29.6000 Y35.6507
G01 X29.6157 Y35.7136
G01 X29.6218 Y35.7424
G01 X29.6329 Y35.8162
G01 X29.6353 Y35.8357
G01 X29.6367 Y35.8552
G01 X29.6399 Y35.9200
G01 X29.6404 Y35.9396
G01 X29.6403 Y37.2702
G01 X29.6367 Y37.3448
G01 X29.6353 Y37.3643
G01 X29.6329 Y37.3838
G01 X29.6234 Y37.4479
G01 X29.6200 Y37.4673
G01 X29.6157 Y37.4864
G01 X29.6000 Y37.5493
G01 X29.5918 Y37.5776
G01 X29.5667 Y37.6479
G01 X29.5597 Y37.6662
G01 X29.5517 Y37.6841
G01 X29.5240 Y37.7427
G01 X29.5152 Y37.7603
G01 X29.5055 Y37.7774
G01 X29.4722 Y37.8329
G01 X29.4617 Y37.8495
G01 X29.4504 Y37.8656
G01 X29.4118 Y37.9176
G01 X29.3997 Y37.9331
G01 X29.3869 Y37.9480
G01 X29.3434 Y37.9960
G01 X29.3298 Y38.0102
G01 X29.3156 Y38.0238
G01 X29.2676 Y38.0673
G01 X29.2527 Y38.0801
G01 X29.2372 Y38.0922
G01 X29.1852 Y38.1308
G01 X29.1691 Y38.1421
G01 X29.1525 Y38.1526
G01 X29.0970 Y38.1859
G01 X29.0799 Y38.1956
G01 X29.0623 Y38.2044
G01 X29.0037 Y38.2321
G01 X28.9858 Y38.2401
G01 X28.9675 Y38.2471
G01 X28.8972 Y38.2722
G01 X28.8689 Y38.2804
G01 X28.8060 Y38.2961
G01 X28.7772 Y38.3022
G01 X28.7034 Y38.3133
G01 X28.6839 Y38.3157
G01 X28.6644 Y38.3171
G01 X28.5996 Y38.3203
G01 X28.5800 Y38.3208
G01 X28.5604 Y38.3203
G01 X28.4956 Y38.3171
G01 X28.4761 Y38.3157
G01 X28.4566 Y38.3133
G01 X28.3925 Y38.3038
G01 X28.3731 Y38.3004
G01 X28.3540 Y38.2961
G01 X28.2911 Y38.2804
G01 X28.2722 Y38.2751
G01 X28.2535 Y38.2690
G01 X28.1925 Y38.2471
G01 X28.1742 Y38.2401
G01 X28.1563 Y38.2321
G01 X28.0977 Y38.2044
G01 X28.0801 Y38.1956
G01 X28.0630 Y38.1859
G01 X28.0075 Y38.1526
G01 X27.9909 Y38.1421
G01 X27.9748 Y38.1308
G01 X27.9228 Y38.0922
G01 X27.9073 Y38.0801
G01 X27.8924 Y38.0673
G01 X27.8444 Y38.0238
G01 X27.8302 Y38.0102
G01 X27.8166 Y37.9960
G01 X27.7731 Y37.9480
G01 X27.7603 Y37.9331
G01 X27.7482 Y37.9176
G01 X27.7096 Y37.8656
G01 X27.6983 Y37.8495
G01 X27.6878 Y37.8329
G01 X27.6545 Y37.7774
G01 X27.6448 Y37.7603
G01 X27.6360 Y37.7427
G01 X27.6083 Y37.6841
G01 X27.6003 Y37.6662
G01 X27.5933 Y37.6479
G01 X27.5714 Y37.5869
G01 X27.5653 Y37.5682
G01 X27.5600 Y37.5493
G01 X27.5443 Y37.4864
G01 X27.5382 Y37.4576
G01 X27.5271 Y37.3838
G01 X27.5247 Y37.3643
G01 X27.5233 Y37.3448
G01 X27.5201 Y37.2800
G01 X27.5196 Y37.2604
G01 X27.5196 Y35.9396
G01 X27.5201 Y35.9200
G01 X27.5233 Y35.8552
G01 X27.5247 Y35.8357
G01 X27.5271 Y35.8162
G01 X27.5366 Y35.7521
G01 X27.5400 Y35.7327
G01 X27.5443 Y35.7136
G01 X27.5600 Y35.6507
G01 X27.5653 Y35.6318
G01 X27.5714 Y35.6131
G01 X27.5933 Y35.5521
G01 X27.6003 Y35.5338
G01 X27.6083 Y35.5159
G01 X27.6360 Y35.4573
G01 X27.6448 Y35.4397
G01 X27.6545 Y35.4226
G01 X27.6878 Y35.3671
G01 X27.6983 Y35.3505
G01 X27.7096 Y35.3344
G01 X27.7482 Y35.2824
G01 X27.7603 Y35.2669
G01 X27.7731 Y35.2520
G01 X27.8166 Y35.2040
G01 X27.8302 Y35.1898
G01 X27.8444 Y35.1762
G01 X27.8924 Y35.1327
G01 X27.9150 Y35.1138
G01 X27.9828 Y35.0635
G01 X28.0075 Y35.0474
G01 X28.0630 Y35.0141
G01 X28.0801 Y35.0044
G01 X28.0977 Y34.9956
G01 X28.1563 Y34.9679
G01 X28.1742 Y34.9599
G01 X28.1925 Y34.9529
G00 Z2.0000
G00 X30.7325 Y34.9529
G01 F60.00
G01 Z-0.1100
G01 F100.00
G01 X30.8028 Y34.9278
G01 X30.8311 Y34.9196
G01 X30.8940 Y34.9039
G01 X30.9131 Y34.8996
G01 X30.9325 Y34.8962
G01 X30.9966 Y34.8867
G01 X31.0258 Y34.8835
G01 X31.1102 Y34.8793
G01 X31.1396 Y34.8797
G01 X31.2142 Y34.8835
G01 X31.2434 Y34.8867
G01 X31.3075 Y34.8962
G01 X31.3269 Y34.8996
G01 X31.3460 Y34.9039
G01 X31.4089 Y34.9196
G01 X31.4278 Y34.9249
G01 X31.4465 Y34.9310
G01 X31.5075 Y34.9529
G01 X31.5258 Y34.9599
G01 X31.5437 Y34.9679
G01 X31.6023 Y34.9956
G01 X31.6285 Y35.0091
G01 X31.6925 Y35.0474
G01 X31.7172 Y35.0635
G01 X31.7850 Y35.1138
G01 X31.8076 Y35.1327
G01 X31.8628 Y35.1829
G01 X31.8834 Y35.2040
G01 X31.9269 Y35.2520
G01 X31.9397 Y35.2669
G01 X31.9518 Y35.2824
G01 X31.9904 Y35.3344
G01 X32.0017 Y35.3505
G01 X32.0122 Y35.3671
G01 X32.0455 Y35.4226
G01 X32.0552 Y35.4397
G01 X32.0640 Y35.4573
G01 X32.0917 Y35.5159
G01 X32.0997 Y35.5338
G01 X32.1067 Y35.5521
G01 X32.1286 Y35.6131
G01 X32.1347 Y35.6318
G01 X32.1400 Y35.6507
G01 X32.1557 Y35.7136
G01 X32.1618 Y35.7424
G01 X32.1729 Y35.8162
G01 X32.1753 Y35.8357
G01 X32.1767 Y35.8552
G01 X32.1799 Y35.9200
G01 X32.1804 Y35.9396
G01 X32.1803 Y37.2702
G01 X32.1767 Y37.3448
G01 X32.1753 Y37.3643
G01 X32.1729 Y37.3838
G01 X32.1634 Y37.4479
G01 X32.1600 Y37.4673
G01 X32.1557 Y37.4864
G01 X32.1400 Y37.5493
G01 X32.1318 Y37.5776
G01 X32.1067 Y37.6479
G01 X32.0997 Y37.6662
G01 X32.0917 Y37.6841
G01 X32.0640 Y37.7427
G01 X32.0552 Y37.7603
G01 X32.0455 Y37.7774
G01 X32.0122 Y37.8329
G01 X32.0017 Y37.8495
G01 X31.9904 Y37.8656
G01 X31.9518 Y37.9176
G01 X31.9397 Y37.9331
G01 X31.9269 Y37.9480
G01 X31.8834 Y37.9960
G01 X31.8698 Y38.0102
G01 X31.8556 Y38.0238
G01 X31.8076 Y38.0673
G01 X31.7927 Y38.0801
G01 X31.7772 Y38.0922
G01 X31.7252 Y38.1308
G01 X31.7091 Y38.1421
G01 X31.6925 Y38.1526
G01 X31.6370 Y38.1859
G01 X31.6199 Y38.1956
G01 X31.6023 Y38.2044
G01 X31.5437 Y38.2321
G01 X31.5258 Y38.2401
G01 X31.5075 Y38.2471
G01 X31.4372 Y38.2722
G01 X31.4089 Y38.2804
G01 X31.3460 Y38.2961
G01 X31.3172 Y38.3022
G01 X31.2434 Y38.3133
G01 X31.2239 Y38.3157
G01 X31.2044 Y38.3171
G01 X31.1396 Y38.3203
G01 X31.1200 Y38.3208
G01 X31.1004 Y38.3203
G01 X31.0356 Y38.3171
G01 X31.0161 Y38.3157
G01 X30.9966 Y38.3133
G01 X30.9325 Y38.3038
G01 X30.9131 Y38.3004
G01 X30.8940 Y38.2961
G01 X30.8311 Y38.2804
G01 X30.8122 Y38.2751
G01 X30.7935 Y38.2690
G01 X30.7325 Y38.2471
G01 X30.7142 Y38.2401
G01 X30.6963 Y38.2321
G01 X30.6377 Y38.2044
G01 X30.6201 Y38.1956
G01 X30.6030 Y38.1859
G01 X30.5475 Y38.1526
G01 X30.5309 Y38.1421
G01 X30.5148 Y38.1308
G01 X30.4628 Y38.0922
G01 X30.4473 Y38.0801
G01 X30.4324 Y38.0673
G01 X30.3844 Y38.0238
G01 X30.3702 Y38.0102
G01 X30.3566 Y37.9960
G01 X30.3131 Y37.9480
G01 X30.3003 Y37.9331
G01 X30.2882 Y37.9176
G01 X30.2496 Y37.8656
G01 X30.2383 Y37.8495
G01 X30.2278 Y37.8329
G01 X30.1945 Y37.7774
G01 X30.1848 Y37.7603
G01 X30.1760 Y37.7427
G01 X30.1483 Y37.6841
G01 X30.1403 Y37.6662
G01 X30.1333 Y37.6479
G01 X30.1114 Y37.5869
G01 X30.1053 Y37.5682
G01 X30.1000 Y37.5493
G01 X30.0843 Y37.4864
G01 X30.0782 Y37.4576
G01 X30.0671 Y37.3838
G01 X30.0647 Y37.3643
G01 X30.0633 Y37.3448
G01 X30.0601 Y37.2800
G01 X30.0596 Y37.2604
G01 X30.0596 Y35.9396
G01 X30.0601 Y35.9200
G01 X30.0633 Y35.8552
G01 X30.0647 Y35.8357
G01 X30.0671 Y35.8162
G01 X30.0766 Y35.7521
G01 X30.0800 Y35.7327
G01 X30.0843 Y35.7136
G01 X30.1000 Y35.6507
G01 X30.1053 Y35.6318
G01 X30.1114 Y35.6131
G01 X30.1333 Y35.5521
G01 X30.1403 Y35.5338
G01 X30.1483 Y35.5159
G01 X30.1760 Y35.4573
G01 X30.1848 Y35.4397
G01 X30.1945 Y35.4226
G01 X30.2278 Y35.3671
G01 X30.2383 Y35.3505
G01 X30.2496 Y35.3344
G01 X30.2882 Y35.2824
G01 X30.3003 Y35.2669
G01 X30.3131 Y35.2520
G01 X30.3566 Y35.2040
G01 X30.3702 Y35.1898
G01 X30.3844 Y35.1762
G01 X30.4324 Y35.1327
G01 X30.4550 Y35.1138
G01 X30.5228 Y35.0635
G01 X30.5475 Y35.0474
G01 X30.6030 Y35.0141
G01 X30.6201 Y35.0044
G01 X30.6377 Y34.9956
G01 X30.6963 Y34.9679
G01 X30.7142 Y34.9599
G01 X30.7325 Y34.9529
G00 Z2.0000
G00 X33.2725 Y34.9529
G01 F60.00
G01 Z-0.1100
G01 F100.00
G01 X33.3428 Y34.9278
G01 X33.3711 Y34.9196
G01 X33.4340 Y34.9039
G01 X33.4531 Y34.8996
G01 X33.4725 Y34.8962
G01 X33.5366 Y34.8867
G01 X33.5658 Y34.8835
G01 X33.6502 Y34.8793
G01 X33.6796 Y34.8797
G01 X33.7542 Y34.8835
G01 X33.7834 Y34.8867
G01 X33.8475 Y34.8962
G01 X33.8669 Y34.8996
G01 X33.8860 Y34.9039
G01 X33.9489 Y34.9196
G01 X33.9678 Y34.9249
G01 X33.9865 Y34.9310
G01 X34.0475 Y34.9529
G01 X34.0658 Y34.9599
G01 X34.0837 Y34.9679
G01 X34.1423 Y34.9956
G01 X34.1685 Y35.0091
G01 X34.2325 Y35.0474
G01 X34.2572 Y35.0635
G01 X34.3250 Y35.1138
G01 X34.3476 Y35.1327
G01 X34.4028 Y35.1829
G01 X34.4234 Y35.2040
G01 X34.4669 Y35.2520
G01 X34.4797 Y35.2669
G01 X34.4918 Y35.2824
G01 X34.5304 Y35.3344
G01 X34.5417 Y35.3505
G01 X34.5522 Y35.3671
G01 X34.5855 Y35.4226
G01 X34.5952 Y35.4397
G01 X34.6040 Y35.4573
G01 X34.6317 Y35.5159
G01 X34.6397 Y35.5338
G01 X34.6467 Y35.5521
G01 X34.6686 Y35.6131
G01 X34.6747 Y35.6318
G01 X34.6800 Y35.6507
G01 X34.6957 Y35.7136
G01 X34.7018 Y35.7424
G01 X34.7129 Y35.8162
G01 X34.7153 Y35.8357
G01 X34.7167 Y35.8552
G01 X34.7199 Y35.9200
G01 X34.7204 Y35.9396
G01 X34.7203 Y37.2702
G01 X34.7167 Y37.3448
G01 X34.7153 Y37.3643
G01 X34.7129 Y37.3838
G01 X34.7034 Y37.4479
G01 X34.7000 Y37.4673
G01 X34.6957 Y37.4864
G01 X34.6800 Y37.5493
G01 X34.6718 Y37.5776
G01 X34.6467 Y37.6479
G01 X34.6397 Y37.6662
G01 X34.6317 Y37.6841
G01 X34.6040 Y37.7427
G01 X34.5952 Y37.7603
G01 X34.5855 Y37.7774
G01 X34.5522 Y37.8329
G01 X34.5417 Y37.8495
G01 X34.5304 Y37.8656
G01 X34.4918 Y37.9176
G01 X34.4797 Y37.9331
G01 X34.4669 Y37.9480
G01 X34.4234 Y37.9960
G01 X34.4098 Y38.0102
G01 X34.3956 Y38.0238
G01 X34.3476 Y38.0673
G01 X34.3327 Y38.0801
G01 X34.3172 Y38.0922
G01 X34.2652 Y38.1308
G01 X34.2491 Y38.1421
G01 X34.2325 Y38.1526
G01 X34.1770 Y38.1859
G01 X34.1599 Y38.1956
G01 X34.1423 Y38.2044
G01 X34.0837 Y38.2321
G01 X34.0658 Y38.2401
G01 X34.0475 Y38.2471
G01 X33.9772 Y38.2722
G01 X33.9489 Y38.2804
G01 X33.8860 Y38.2961
G01 X33.8572 Y38.3022
G01 X33.7834 Y38.3133
G01 X33.7639 Y38.3157
G01 X33.7444 Y38.3171
G01 X33.6796 Y38.3203
G01 X33.6600 Y38.3208
G01 X33.6404 Y38.3203
G01 X33.5756 Y38.3171
G01 X33.5561 Y38.3157
G01 X33.5366 Y38.3133
G01 X33.4725 Y38.3038
G01 X33.4531 Y38.3004
G01 X33.4340 Y38.2961
G01 X33.3711 Y38.2804
G01 X33.3522 Y38.2751
G01 X33.3335 Y38.2690
G01 X33.2725 Y38.2471
G01 X33.2542 Y38.2401
G01 X33.2363 Y38.2321
G01 X33.1777 Y38.2044
G01 X33.1601 Y38.1956
G01 X33.1430 Y38.1859
G01 X33.0875 Y38.1526
G01 X33.0709 Y38.1421
G01 X33.0548 Y38.1308
G01 X33.0028 Y38.0922
G01 X32.9873 Y38.0801
G01 X32.9724 Y38.0673
G01 X32.9244 Y38.0238
G01 X32.9102 Y38.0102
G01 X32.8966 Y37.9960
G01 X32.8531 Y37.9480
G01 X32.8403 Y37.9331
G01 X32.8282 Y37.9176
G01 X32.7896 Y37.8656
G01 X32.7783 Y37.8495
G01 X32.7678 Y37.8329
G01 X32.7345 Y37.7774
G01 X32.7248 Y37.7603
G01 X32.7160 Y37.7427
G01 X32.6883 Y37.6841
G01 X32.6803 Y37.6662
G01 X32.6733 Y37.6479
G01 X32.6514 Y37.5869
G01 X32.6453 Y37.5682
G01 X32.6400 Y37.5493
G01 X32.6243 Y37.4864
G01 X32.6182 Y37.4576
G01 X32.6071 Y37.3838
G01 X32.6047 Y37.3643
G01 X32.6033 Y37.3448
G01 X32.6001 Y37.2800
G01 X32.5996 Y37.2604
G01 X32.5996 Y35.9396
G01 X32.6001 Y35.9200
G01 X32.6033 Y35.8552
G01 X32.6047 Y35.8357
G01 X32.6071 Y35.8162
G01 X32.6166 Y35.7521
G01 X32.6200 Y35.7327
G01 X32.6243 Y35.7136
G01 X32.6400 Y35.6507
G01 X32.6453 Y35.6318
G01 X32.6514 Y35.6131
G01 X32.6733 Y35.5521
G01 X32.6803 Y35.5338
G01 X32.6883 Y35.5159
G01 X32.7160 Y35.4573
G01 X32.7248 Y35.4397
G01 X32.7345 Y35.4226
G01 X32.7678 Y35.3671
G01 X32.7783 Y35.3505
G01 X32.7896 Y35.3344
G01 X32.8282 Y35.2824
G01 X32.8403 Y35.2669
G01 X32.8531 Y35.2520
G01 X32.8966 Y35.2040
G01 X32.9102 Y35.1898
G01 X32.9244 Y35.1762
G01 X32.9724 Y35.1327
G01 X32.9950 Y35.1138
G01 X33.0628 Y35.0635
G01 X33.0875 Y35.0474
G01 X33.1430 Y35.0141
G01 X33.1601 Y35.0044
G01 X33.1777 Y34.9956
G01 X33.2363 Y34.9679
G01 X33.2542 Y34.9599
G01 X33.2725 Y34.9529
G00 Z2.0000
G00 X35.8125 Y34.9529
G01 F60.00
G01 Z-0.1100
G01 F100.00
G01 X35.8828 Y34.9278
G01 X35.9111 Y34.9196
G01 X35.9740 Y34.9039
G01 X35.9931 Y34.8996
G01 X36.0125 Y34.8962
G01 X36.0766 Y34.8867
G01 X36.1058 Y34.8835
G01 X36.1902 Y34.8793
G01 X36.2196 Y34.8797
G01 X36.2942 Y34.8835
G01 X36.3234 Y34.8867
G01 X36.3875 Y34.8962
G01 X36.4069 Y34.8996
G01 X36.4260 Y34.9039
G01 X36.4889 Y34.9196
G01 X36.5078 Y34.9249
G01 X36.5265 Y34.9310
G01 X36.5875 Y34.9529
G01 X36.6058 Y34.9599
G01 X36.6237 Y34.9679
G01 X36.6823 Y34.9956
G01 X36.7085 Y35.0091
G01 X36.7725 Y35.0474
G01 X36.7972 Y35.0635
G01 X36.8650 Y35.1138
G01 X36.8876 Y35.1327
G01 X36.9428 Y35.1829
G01 X36.9634 Y35.2040
G01 X37.0069 Y35.2520
G01 X37.0197 Y35.2669
G01 X37.0318 Y35.2824
G01 X37.0704 Y35.3344
G01 X37.0817 Y35.3505
G01 X37.0922 Y35.3671
G01 X37.1255 Y35.4226
G01 X37.1352 Y35.4397
G01 X37.1440 Y35.4573
G01 X37.1717 Y35.5159
G01 X37.1797 Y35.5338
G01 X37.1867 Y35.5521
G01 X37.2086 Y35.6131
G01 X37.2147 Y35.6318
G01 X37.2200 Y35.6507
G01 X37.2357 Y35.7136
G01 X37.2418 Y35.7424
G01 X37.2529 Y35.8162
G01 X37.2553 Y35.8357
G01 X37.2567 Y35.8552
G01 X37.2599 Y35.9200
G01 X37.2604 Y35.9396
G01 X37.2603 Y37.2702
G01 X37.2567 Y37.3448
G01 X37.2553 Y37.3643
G01 X37.2529 Y37.3838
G01 X37.2434 Y37.4479
G01 X37.2400 Y37.4673
G01 X37.2357 Y37.4864
G01 X37.2200 Y37.5493
G01 X37.2118 Y37.5776
G01 X37.1867 Y37.6479
G01 X37.1797 Y37.6662
G01 X37.1717 Y37.6841
G01 X37.1440 Y37.7427
G01 X37.1352 Y37.7603
G01 X37.1255 Y37.7774
G01 X37.0922 Y37.8329
G01 X37.0817 Y37.8495
G01 X37.0704 Y37.8656
G01 X37.0318 Y37.9176
G01 X37.0197 Y37.9331
G01 X37.0069 Y37.9480
G01 X36.9634 Y37.9960
G01 X36.9498 Y38.0102
G01 X36.9356 Y38.0238
G01 X36.8876 Y38.0673
G01 X36.8727 Y38.0801
G01 X36.8572 Y38.0922
G01 X36.8052 Y38.1308
G01 X36.7891 Y38.1421
G01 X36.7725 Y38.1526
G01 X36.7170 Y38.1859
G01 X36.6999 Y38.1956
G01 X36.6823 Y38.2044
G01 X36.6237 Y38.2321
G01 X36.6058 Y38.2401
G01 X36.5875 Y38.2471
G01 X36.5172 Y38.2722
G01 X36.4889 Y38.2804
G01 X36.4260 Y38.2961
G01 X36.3972 Y38.3022
G01 X36.3234 Y38.3133
G01 X36.3039 Y38.3157
G01 X36.2844 Y38.3171
G01 X36.2196 Y38.3203
G01 X36.2000 Y38.3208
G01 X36.1804 Y38.3203
G01 X36.1156 Y38.3171
G01 X36.0961 Y38.3157
G01 X36.0766 Y38.3133
G01 X36.0125 Y38.3038
G01 X35.9931 Y38.3004
G01 X35.9740 Y38.2961
G01 X35.9111 Y38.2804
G01 X35.8922 Y38.2751
G01 X35.8735 Y38.2690
G01 X35.8125 Y38.2471
G01 X35.7942 Y38.2401
G01 X35.7763 Y38.2321
G01 X35.7177 Y38.2044
G01 X35.7001 Y38.1956
G01 X35.6830 Y38.1859
G01 X35.6275 Y38.1526
G01 X35.6109 Y38.1421
G01 X35.5948 Y38.1308
G01 X35.5428 Y38.0922
G01 X35.5273 Y38.0801
G01 X35.5124 Y38.0673
G01 X35.4644 Y38.0238
G01 X35.4502 Y38.0102
G01 X35.4366 Y37.9960
G01 X35.3931 Y37.9480
G01 X35.3803 Y37.9331
G01 X35.3682 Y37.9176
G01 X35.3296 Y37.8656
G01 X35.3183 Y37.8495
G01 X35.3078 Y37.8329
G01 X35.2745 Y37.7774
G01 X35.2648 Y37.7603
G01 X35.2560 Y37.7427
G01 X35.2283 Y37.6841
G01 X35.2203 Y37.6662
G01 X35.2133 Y37.6479
G01 X35.1914 Y37.5869
G01 X35.1853 Y37.5682
G01 X35.1800 Y37.5493
G01 X35.1643 Y37.4864
G01 X35.1582 Y37.4576
G01 X35.1471 Y37.3838
G01 X35.1447 Y37.3643
G01 X35.1433 Y37.3448
G01 X35.1401 Y37.2800
G01 X35.1396 Y37.2604
G01 X35.1396 Y35.9396
G01 X35.1401 Y35.9200
G01 X35.1433 Y35.8552
G01 X35.1447 Y35.8357
G01 X35.1471 Y35.8162
G01 X35.1566 Y35.7521
G01 X35.1600 Y35.7327
G01 X35.1643 Y35.7136
G01 X35.1800 Y35.6507
G01 X35.1853 Y35.6318
G01 X35.1914 Y35.6131
G01 X35.2133 Y35.5521
G01 X35.2203 Y35.5338
G01 X35.2283 Y35.5159
G01 X35.2560 Y35.4573
G01 X35.2648 Y35.4397
G01 X35.2745 Y35.4226
G01 X35.3078 Y35.3671
G01 X35.3183 Y35.3505
G01 X35.3296 Y35.3344
G01 X35.3682 Y35.2824
G01 X35.3803 Y35.2669
G01 X35.3931 Y35.2520
G01 X35.4366 Y35.2040
G01 X35.4502 Y35.1898
G01 X35.4644 Y35.1762
G01 X35.5124 Y35.1327
G01 X35.5350 Y35.1138
G01 X35.6028 Y35.0635
G01 X35.6275 Y35.0474
G01 X35.6830 Y35.0141
G01 X35.7001 Y35.0044
G01 X35.7177 Y34.9956
G01 X35.7763 Y34.9679
G01 X35.7942 Y34.9599
G01 X35.8125 Y34.9529
G00 Z2.0000
G00 X38.3525 Y34.9529
G01 F60.00
G01 Z-0.1100
G01 F100.00
G01 X38.4228 Y34.9278
G01 X38.4511 Y34.9196
G01 X38.5140 Y34.9039
G01 X38.5331 Y34.8996
G01 X38.5525 Y34.8962
G01 X38.6166 Y34.8867
G01 X38.6458 Y34.8835
G01 X38.7302 Y34.8793
G01 X38.7596 Y34.8797
G01 X38.8342 Y34.8835
G01 X38.8634 Y34.8867
G01 X38.9275 Y34.8962
G01 X38.9469 Y34.8996
G01 X38.9660 Y34.9039
G01 X39.0289 Y34.9196
G01 X39.0478 Y34.9249
G01 X39.0665 Y34.9310
G01 X39.1275 Y34.9529
G01 X39.1458 Y34.9599
G01 X39.1637 Y34.9679
G01 X39.2223 Y34.9956
G01 X39.2485 Y35.0091
G01 X39.3125 Y35.0474
G01 X39.3372 Y35.0635
G01 X39.4050 Y35.1138
G01 X39.4276 Y35.1327
G01 X39.4828 Y35.1829
G01 X39.5034 Y35.2040
G01 X39.5469 Y35.2520
G01 X39.5597 Y35.2669
G01 X39.5718 Y35.2824
G01 X39.6104 Y35.3344
G01 X39.6217 Y35.3505
G01 X39.6322 Y35.3671
G01 X39.6655 Y35.4226
G01 X39.6752 Y35.4397
G01 X39.6840 Y35.4573
G01 X39.7117 Y35.5159
G01 X39.7197 Y35.5338
G01 X39.7267 Y35.5521
G01 X39.7486 Y35.6131
G01 X39.7547 Y35.6318
G01 X39.7600 Y35.6507
G01 X39.7757 Y35.7136
G01 X39.7818 Y35.7424
G01 X39.7929 Y35.8162
G01 X39.7953 Y35.8357
G01 X39.7967 Y35.8552
G01 X39.7999 Y35.9200
G01 X39.8004 Y35.9396
G01 X39.8003 Y37.2702
G01 X39.7967 Y37.3448
G01 X39.7953 Y37.3643
G01 X39.7929 Y37.3838
G01 X39.7834 Y37.4479
G01 X39.7800 Y37.4673
G01 X39.7757 Y37.4864
G01 X39.7600 Y37.5493
G01 X39.7518 Y37.5776
G01 X39.7267 Y37.6479
G01 X39.7197 Y37.6662
G01 X39.7117 Y37.6841
G01 X39.6840 Y37.7427
G01 X39.6752 Y37.7603
G01 X39.6655 Y37.7774
G01 X39.6322 Y37.8329
G01 X39.6217 Y37.8495
G01 X39.6104 Y37.8656
G01 X39.5718 Y37.9176
G01 X39.5597 Y37.9331
G01 X39.5469 Y37.9480
G01 X39.5034 Y37.9960
G01 X39.4898 Y38.0102
G01 X39.4756 Y38.0238
G01 X39.4276 Y38.0673
G01 X39.4127 Y38.0801
G01 X39.3972 Y38.0922
G01 X39.3452 Y38.1308
G01 X39.3291 Y38.1421
G01 X39.3125 Y38.1526
G01 X39.2570 Y38.1859
G01 X39.2399 Y38.1956
G01 X39.2223 Y38.2044
G01 X39.1637 Y38.2321
G01 X39.1458 Y38.2401
G01 X39.1275 Y38.2471
G01 X39.0572 Y38.2722
G01 X39.0289 Y38.2804
G01 X38.9660 Y38.2961
G01 X38.9372 Y38.3022
G01 X38.8634 Y38.3133
G01 X38.8439 Y38.3157
G01 X38.8244 Y38.3171
G01 X38.7596 Y38.3203
G01 X38.7400 Y38.3208
G01 X38.7204 Y38.3203
G01 X38.6556 Y38.3171
G01 X38.6361 Y38.3157
G01 X38.6166 Y38.3133
G01 X38.5525 Y38.3038
G01 X38.5331 Y38.3004
G01 X38.5140 Y38.2961
G01 X38.4511 Y38.2804
G01 X38.4322 Y38.2751
G01 X38.4135 Y38.2690
G01 X38.3525 Y38.2471
G01 X38.3342 Y38.2401
G01 X38.3163 Y38.2321
G01 X38.2577 Y38.2044
G01 X38.2401 Y38.1956
G01 X38.2230 Y38.1859
G01 X38.1675 Y38.1526
G01 X38.1509 Y38.1421
G01 X38.1348 Y38.1308
G01 X38.0828 Y38.0922
G01 X38.0673 Y38.0801
G01 X38.0524 Y38.0673
G01 X38.0044 Y38.0238
G01 X37.9902 Y38.0102
G01 X37.9766 Y37.9960
G01 X37.9331 Y37.9480
G01 X37.9203 Y37.9331
G01 X37.9082 Y37.9176
G01 X37.8696 Y37.8656
G01 X37.8583 Y37.8495
G01 X37.8478 Y37.8329
G01 X37.8145 Y37.7774
G01 X37.8048 Y37.7603
G01 X37.7960 Y37.7427
G01 X37.7683 Y37.6841
G01 X37.7603 Y37.6662
G01 X37.7533 Y37.6479
G01 X37.7314 Y37.5869
G01 X37.7253 Y37.5682
G01 X37.7200 Y37.5493
G01 X37.7043 Y37.4864
G01 X37.6982 Y37.4576
G01 X37.6871 Y37.3838
G01 X37.6847 Y37.3643
G01 X37.6833 Y37.3448
G01 X37.6801 Y37.2800
G01 X37.6796 Y37.2604
G01 X37.6796 Y35.9396
G01 X37.6801 Y35.9200
G01 X37.6833 Y35.8552
G01 X37.6847 Y35.8357
G01 X37.6871 Y35.8162
G01 X37.6966 Y35.7521
G01 X37.7000 Y35.7327
G01 X37.7043 Y35.7136
G01 X37.7200 Y35.6507
G01 X37.7253 Y35.6318
G01 X37.7314 Y35.6131
G01 X37.7533 Y35.5521
G01 X37.7603 Y35.5338
G01 X37.7683 Y35.5159
G01 X37.7960 Y35.4573
G01 X37.8048 Y35.4397
G01 X37.8145 Y35.4226
G01 X37.8478 Y35.3671
G01 X37.8583 Y35.3505
G01 X37.8696 Y35.3344
G01 X37.9082 Y35.2824
G01 X37.9203 Y35.2669
G01 X37.9331 Y35.2520
G01 X37.9766 Y35.2040
G01 X37.9902 Y35.1898
G01 X38.0044 Y35.1762
G01 X38.0524 Y35.1327
G01 X38.0750 Y35.1138
G01 X38.1428 Y35.0635
G01 X38.1675 Y35.0474
G01 X38.2230 Y35.0141
G01 X38.2401 Y35.0044
G01 X38.2577 Y34.9956
G01 X38.3163 Y34.9679
G01 X38.3342 Y34.9599
G01 X38.3525 Y34.9529
G00 Z2.0000
G00 X40.8925 Y34.9529
G01 F60.00
G01 Z-0.1100
G01 F100.00
G01 X40.9628 Y34.9278
G01 X40.9911 Y34.9196
G01 X41.0540 Y34.9039
G01 X41.0731 Y34.8996
G01 X41.0925 Y34.8962
G01 X41.1566 Y34.8867
G01 X41.1858 Y34.8835
G01 X41.2702 Y34.8793
G01 X41.2996 Y34.8797
G01 X41.3742 Y34.8835
G01 X41.4034 Y34.8867
G01 X41.4675 Y34.8962
G01 X41.4869 Y34.8996
G01 X41.5060 Y34.9039
G01 X41.5689 Y34.9196
G01 X41.5878 Y34.9249
G01 X41.6065 Y34.9310
G01 X41.6675 Y34.9529
G01 X41.6858 Y34.9599
G01 X41.7037 Y34.9679
G01 X41.7623 Y34.9956
G01 X41.7885 Y35.0091
G01 X41.8525 Y35.0474
G01 X41.8772 Y35.0635
G01 X41.9450 Y35.1138
G01 X41.9676 Y35.1327
G01 X42.0228 Y35.1829
G01 X42.0434 Y35.2040
G01 X42.0869 Y35.2520
G01 X42.0997 Y35.2669
G01 X42.1118 Y35.2824
G01 X42.1504 Y35.3344
G01 X42.1617 Y35.3505
G01 X42.1722 Y35.3671
G01 X42.2055 Y35.4226
G01 X42.2152 Y35.4397
G01 X42.2240 Y35.4573
G01 X42.2517 Y35.5159
G01 X42.2597 Y35.5338
G01 X42.2667 Y35.5521
G01 X42.2886 Y35.6131
G01 X42.2947 Y35.6318
G01 X42.3000 Y35.6507
G01 X42.3157 Y35.7136
G01 X42.3218 Y35.7424
G01 X42.3329 Y35.8162
G01 X42.3353 Y35.8357
G01 X42.3367 Y35.8552
G01 X42.3399 Y35.9200
G01 X42.3404 Y35.9396
G01 X42.3403 Y37.2702
G01 X42.3367 Y37.3448
G01 X42.3353 Y37.3643
G01 X42.3329 Y37.3838
G01 X42.3234 Y37.4479
G01 X42.3200 Y37.4673
G01 X42.3157 Y37.4864
G01 X42.3000 Y37.5493
G01 X42.2918 Y37.5776
G01 X42.2667 Y37.6479
G01 X42.2597 Y37.6662
G01 X42.2517 Y37.6841
G01 X42.2240 Y37.7427
G01 X42.2152 Y37.7603
G01 X42.2055 Y37.7774
