(G-CODE GENERATED BY FLATCAM v8.994 - www.flatcam.org - Version Date: 2020/11/7)

(Name: Alignment Drills_cnc)
(Type: G-code from Geometry)
(Units: MM)

(Created on Wednesday, 30 November 2022 at 21:20)

(This preprocessor is the default preprocessor used by FlatCAM.)
(It is made to work with MACH3 compatible motion controllers.)


(TOOLS DIAMETER: )
(Tool: 1 -> Dia: 1.8)

(FEEDRATE Z: )
(Tool: 1 -> Feedrate: 200.0)

(FEEDRATE RAPIDS: )
(Tool: 1 -> Feedrate Rapids: 1500)

(Z_CUT: )
(Tool: 1 -> Z_Cut: -6.0)

(Tools Offset: )
(Tool: 1 -> Offset Z: 0.0)

(Z_MOVE: )
(Tool: 1 -> Z_Move: 2)

(Z Toolchange: 5.0 mm)
(X,Y Toolchange: 0.0000, 0.0000 mm)
(Z Start: None mm)
(Z End: 10.0 mm)
(X,Y End: 0.0000, 0.0000 mm)
(Steps per circle: 64)
(Preprocessor Excellon: Default_no_M6)

(X range:    8.1748 ...   69.2042  mm)
(Y range:    0.9504 ...   66.3824  mm)

(Spindle Speed: 1000 RPM)
G21
G90
G94

G01 F200.00

M5
G00 Z5.0000
T1
G00 X0.0000 Y0.0000                
(MSG, Change to Tool Dia = 1.8000 ||| Total drills for tool T1 = 4)
M0
G00 Z5.0000
        
G01 F200.00
M03 S1000
G4 P1
G00 X9.0748 Y65.4824
G01 Z-6.0000
G01 Z0
G00 Z2.0000
G00 X68.3042 Y65.1219
G01 Z-6.0000
G01 Z0
G00 Z2.0000
G00 X68.3042 Y2.2109
G01 Z-6.0000
G01 Z0
G00 Z2.0000
G00 X9.0748 Y1.8504
G01 Z-6.0000
G01 Z0
G00 Z2.0000
M05
G00 Z10.00
G00 X0.0 Y0.0


