(G-CODE GENERATED BY FLATCAM v8.994 - www.flatcam.org - Version Date: 2020/11/7)

(Name: Attiny programmer shield.drl_cnc)
(Type: G-code from Geometry)
(Units: MM)

(Created on Wednesday, 30 November 2022 at 21:19)

(This preprocessor is the default preprocessor used by FlatCAM.)
(It is made to work with MACH3 compatible motion controllers.)


(TOOLS DIAMETER: )
(Tool: 1 -> Dia: 0.7)
(Tool: 2 -> Dia: 0.8)
(Tool: 3 -> Dia: 0.813)
(Tool: 4 -> Dia: 1.0)
(Tool: 5 -> Dia: 1.016)

(FEEDRATE Z: )
(Tool: 1 -> Feedrate: 200.0)
(Tool: 2 -> Feedrate: 200.0)
(Tool: 3 -> Feedrate: 200.0)
(Tool: 4 -> Feedrate: 200.0)
(Tool: 5 -> Feedrate: 200.0)

(FEEDRATE RAPIDS: )
(Tool: 1 -> Feedrate Rapids: 1500)
(Tool: 2 -> Feedrate Rapids: 1500)
(Tool: 3 -> Feedrate Rapids: 1500)
(Tool: 4 -> Feedrate Rapids: 1500)
(Tool: 5 -> Feedrate Rapids: 1500)

(Z_CUT: )
(Tool: 1 -> Z_Cut: -1.8)
(Tool: 2 -> Z_Cut: -1.8)
(Tool: 3 -> Z_Cut: -1.8)
(Tool: 4 -> Z_Cut: -1.8)
(Tool: 5 -> Z_Cut: -1.8)

(Tools Offset: )
(Tool: 1 -> Offset Z: 0.0)
(Tool: 2 -> Offset Z: 0.0)
(Tool: 3 -> Offset Z: 0.0)
(Tool: 4 -> Offset Z: 0.0)
(Tool: 5 -> Offset Z: 0.0)

(Z_MOVE: )
(Tool: 1 -> Z_Move: 2)
(Tool: 2 -> Z_Move: 2)
(Tool: 3 -> Z_Move: 2)
(Tool: 4 -> Z_Move: 2)
(Tool: 5 -> Z_Move: 2)

(Z Toolchange: 5.0 mm)
(X,Y Toolchange: 0.0000, 0.0000 mm)
(Z Start: None mm)
(Z End: 10.0 mm)
(X,Y End: 0.0000, 0.0000 mm)
(Steps per circle: 64)
(Preprocessor Excellon: Default_no_M6)

(X range:    9.8310 ...   68.0465  mm)
(Y range:    9.1360 ...   58.1960  mm)

(Spindle Speed: 1000 RPM)
G21
G90
G94

G01 F200.00

M5
G00 Z5.0000
T1
G00 X0.0000 Y0.0000                
(MSG, Change to Tool Dia = 0.7000 ||| Total drills for tool T1 = 92)
M0
G00 Z5.0000
        
G01 F200.00
M03 S1000
G4 P1
G00 X14.4000 Y15.6000
G01 Z-1.8000
G01 Z0
G00 Z2.0000
G00 X13.9400 Y20.5000
G01 Z-1.8000
G01 Z0
G00 Z2.0000
G00 X11.4000 Y20.5000
G01 Z-1.8000
G01 Z0
G00 Z2.0000
G00 X13.9700 Y30.1000
G01 Z-1.8000
G01 Z0
G00 Z2.0000
G00 X11.4300 Y30.1000
G01 Z-1.8000
G01 Z0
G00 Z2.0000
G00 X10.7900 Y36.0000
G01 Z-1.8000
G01 Z0
G00 Z2.0000
G00 X10.3390 Y42.1490
G01 Z-1.8000
G01 Z0
G00 Z2.0000
G00 X14.8610 Y42.1490
G01 Z-1.8000
G01 Z0
G00 Z2.0000
G00 X10.3390 Y48.6510
G01 Z-1.8000
G01 Z0
G00 Z2.0000
G00 X14.8610 Y48.6510
G01 Z-1.8000
G01 Z0
G00 Z2.0000
G00 X18.4000 Y44.8000
G01 Z-1.8000
G01 Z0
G00 Z2.0000
G00 X23.7000 Y42.5400
G01 Z-1.8000
G01 Z0
G00 Z2.0000
G00 X28.5800 Y44.2200
G01 Z-1.8000
G01 Z0
G00 Z2.0000
G00 X31.1200 Y44.2200
G01 Z-1.8000
G01 Z0
G00 Z2.0000
G00 X33.6600 Y44.2200
G01 Z-1.8000
G01 Z0
G00 Z2.0000
G00 X36.2000 Y44.2200
G01 Z-1.8000
G01 Z0
G00 Z2.0000
G00 X38.7400 Y44.2200
G01 Z-1.8000
G01 Z0
G00 Z2.0000
G00 X41.2800 Y44.2200
G01 Z-1.8000
G01 Z0
G00 Z2.0000
G00 X41.4000 Y48.2000
G01 Z-1.8000
G01 Z0
G00 Z2.0000
G00 X33.9000 Y48.9000
G01 Z-1.8000
G01 Z0
G00 Z2.0000
G00 X29.8000 Y53.3000
G01 Z-1.8000
G01 Z0
G00 Z2.0000
G00 X22.2970 Y57.7960
G01 Z-1.8000
G01 Z0
G00 Z2.0000
G00 X24.8370 Y57.7960
G01 Z-1.8000
G01 Z0
G00 Z2.0000
G00 X27.3770 Y57.7960
G01 Z-1.8000
G01 Z0
G00 Z2.0000
G00 X29.9170 Y57.7960
G01 Z-1.8000
G01 Z0
G00 Z2.0000
G00 X32.4570 Y57.7960
G01 Z-1.8000
G01 Z0
G00 Z2.0000
G00 X34.9970 Y57.7960
G01 Z-1.8000
G01 Z0
G00 Z2.0000
G00 X37.5370 Y57.7960
G01 Z-1.8000
G01 Z0
G00 Z2.0000
G00 X40.0770 Y57.7960
G01 Z-1.8000
G01 Z0
G00 Z2.0000
G00 X42.6170 Y57.7960
G01 Z-1.8000
G01 Z0
G00 Z2.0000
G00 X45.1570 Y57.7960
G01 Z-1.8000
G01 Z0
G00 Z2.0000
G00 X49.2210 Y57.7960
G01 Z-1.8000
G01 Z0
G00 Z2.0000
G00 X51.7610 Y57.7960
G01 Z-1.8000
G01 Z0
G00 Z2.0000
G00 X54.3010 Y57.7960
G01 Z-1.8000
G01 Z0
G00 Z2.0000
G00 X56.8410 Y57.7960
G01 Z-1.8000
G01 Z0
G00 Z2.0000
G00 X59.3810 Y57.7960
G01 Z-1.8000
G01 Z0
G00 Z2.0000
G00 X61.9210 Y57.7960
G01 Z-1.8000
G01 Z0
G00 Z2.0000
G00 X64.4610 Y57.7960
G01 Z-1.8000
G01 Z0
G00 Z2.0000
G00 X67.0010 Y57.7960
G01 Z-1.8000
G01 Z0
G00 Z2.0000
G00 X55.8000 Y54.1000
G01 Z-1.8000
G01 Z0
G00 Z2.0000
G00 X53.4670 Y52.0460
G01 Z-1.8000
G01 Z0
G00 Z2.0000
G00 X51.6450 Y49.0000
G01 Z-1.8000
G01 Z0
G00 Z2.0000
G00 X49.6450 Y46.1000
G01 Z-1.8000
G01 Z0
G00 Z2.0000
G00 X43.8200 Y44.2200
G01 Z-1.8000
G01 Z0
G00 Z2.0000
G00 X43.3000 Y40.3000
G01 Z-1.8000
G01 Z0
G00 Z2.0000
G00 X43.8200 Y36.6000
G01 Z-1.8000
G01 Z0
G00 Z2.0000
G00 X41.2800 Y36.6000
G01 Z-1.8000
G01 Z0
G00 Z2.0000
G00 X38.7400 Y36.6000
G01 Z-1.8000
G01 Z0
G00 Z2.0000
G00 X36.2000 Y36.6000
G01 Z-1.8000
G01 Z0
G00 Z2.0000
G00 X33.6600 Y36.6000
G01 Z-1.8000
G01 Z0
G00 Z2.0000
G00 X31.1200 Y36.6000
G01 Z-1.8000
G01 Z0
G00 Z2.0000
G00 X28.5800 Y36.6000
G01 Z-1.8000
G01 Z0
G00 Z2.0000
G00 X23.7000 Y37.4600
G01 Z-1.8000
G01 Z0
G00 Z2.0000
G00 X18.4100 Y36.0000
G01 Z-1.8000
G01 Z0
G00 Z2.0000
G00 X20.2000 Y29.4000
G01 Z-1.8000
G01 Z0
G00 Z2.0000
G00 X23.6000 Y26.9000
G01 Z-1.8000
G01 Z0
G00 Z2.0000
G00 X28.6900 Y28.3100
G01 Z-1.8000
G01 Z0
G00 Z2.0000
G00 X31.2300 Y28.3100
G01 Z-1.8000
G01 Z0
G00 Z2.0000
G00 X33.7700 Y28.3100
G01 Z-1.8000
G01 Z0
G00 Z2.0000
G00 X36.3100 Y28.3100
G01 Z-1.8000
G01 Z0
G00 Z2.0000
G00 X43.5000 Y20.9000
G01 Z-1.8000
G01 Z0
G00 Z2.0000
G00 X55.3600 Y26.4000
G01 Z-1.8000
G01 Z0
G00 Z2.0000
G00 X55.4200 Y31.2000
G01 Z-1.8000
G01 Z0
G00 Z2.0000
G00 X55.6200 Y37.3000
G01 Z-1.8000
G01 Z0
G00 Z2.0000
G00 X60.7000 Y37.3000
G01 Z-1.8000
G01 Z0
G00 Z2.0000
G00 X65.1000 Y35.7000
G01 Z-1.8000
G01 Z0
G00 Z2.0000
G00 X67.6400 Y35.7000
G01 Z-1.8000
G01 Z0
G00 Z2.0000
G00 X67.5400 Y29.6000
G01 Z-1.8000
G01 Z0
G00 Z2.0000
G00 X65.0000 Y29.6000
G01 Z-1.8000
G01 Z0
G00 Z2.0000
G00 X60.5000 Y31.2000
G01 Z-1.8000
G01 Z0
G00 Z2.0000
G00 X60.4400 Y26.4000
G01 Z-1.8000
G01 Z0
G00 Z2.0000
G00 X65.0000 Y24.4000
G01 Z-1.8000
G01 Z0
G00 Z2.0000
G00 X67.5400 Y24.4000
G01 Z-1.8000
G01 Z0
G00 Z2.0000
G00 X67.0010 Y9.5360
G01 Z-1.8000
G01 Z0
G00 Z2.0000
G00 X64.4610 Y9.5360
G01 Z-1.8000
G01 Z0
G00 Z2.0000
G00 X61.9210 Y9.5360
G01 Z-1.8000
G01 Z0
G00 Z2.0000
G00 X59.3810 Y9.5360
G01 Z-1.8000
G01 Z0
G00 Z2.0000
G00 X56.8410 Y9.5360
G01 Z-1.8000
G01 Z0
G00 Z2.0000
G00 X54.3010 Y9.5360
G01 Z-1.8000
G01 Z0
G00 Z2.0000
G00 X49.2210 Y9.5360
G01 Z-1.8000
G01 Z0
G00 Z2.0000
G00 X46.6810 Y9.5360
G01 Z-1.8000
G01 Z0
G00 Z2.0000
G00 X44.1410 Y9.5360
G01 Z-1.8000
G01 Z0
G00 Z2.0000
G00 X41.6010 Y9.5360
G01 Z-1.8000
G01 Z0
G00 Z2.0000
G00 X39.0610 Y9.5360
G01 Z-1.8000
G01 Z0
G00 Z2.0000
G00 X36.5210 Y9.5360
G01 Z-1.8000
G01 Z0
G00 Z2.0000
G00 X33.9810 Y9.5360
G01 Z-1.8000
G01 Z0
G00 Z2.0000
G00 X31.4410 Y9.5360
G01 Z-1.8000
G01 Z0
G00 Z2.0000
G00 X36.3100 Y20.6900
G01 Z-1.8000
G01 Z0
G00 Z2.0000
G00 X33.7700 Y20.6900
G01 Z-1.8000
G01 Z0
G00 Z2.0000
G00 X31.2300 Y20.6900
G01 Z-1.8000
G01 Z0
G00 Z2.0000
G00 X28.6900 Y20.6900
G01 Z-1.8000
G01 Z0
G00 Z2.0000
G00 X23.6000 Y21.8200
G01 Z-1.8000
G01 Z0
G00 Z2.0000
M05
G00 Z10.00
G00 X0.0 Y0.0


