(G-CODE GENERATED BY FLATCAM v8.994 - www.flatcam.org - Version Date: 2020/11/7)

(Name: Attiny programmer shield-B_Cu.gbr_iso_combined_cnc)
(Type: G-code from Geometry)
(Units: MM)

(Created on Wednesday, 30 November 2022 at 21:18)

(This preprocessor is the default preprocessor used by FlatCAM.)
(It is made to work with MACH3 compatible motion controllers.)

(TOOL DIAMETER: 0.8 mm)
(Feedrate_XY: 100.0 mm/min)
(Feedrate_Z: 60.0 mm/min)
(Feedrate rapids 1500.0 mm/min)

(Z_Cut: -0.11 mm)
(Z_Move: 2.0 mm)
(Z Start: None mm)
(Z End: 10.0 mm)
(X,Y End: 0.0000, 0.0000 mm)
(Steps per circle: 64)
(Preprocessor Geometry: Default_no_M6)

(X range:    7.8349 ...   68.8274  mm)
(Y range:    7.8864 ...   59.4464  mm)

(Spindle Speed: 1000.0 RPM)
G21
G90
G94

G01 F100.00

M5
G00 Z15.0000
G00 X0.0000 Y0.0000
T1
(MSG, Change to Tool Dia = 0.8000)
M0
G00 Z15.0000
        
M03 S1000.0
G4 P1.0
G01 F100.00
G00 X21.0673 Y10.0891
G01 F60.00
G01 Z-0.1100
G01 F100.00
G01 X21.0649 Y10.0696
G01 X21.0634 Y10.0500
G01 X21.0594 Y9.9678
G01 X21.0589 Y9.9482
G01 X21.0590 Y9.1148
G01 X21.0634 Y9.0228
G01 X21.0649 Y9.0032
G01 X21.0673 Y8.9837
G01 X21.0793 Y8.9024
G01 X21.0847 Y8.8734
G01 X21.1070 Y8.7841
G01 X21.1122 Y8.7652
G01 X21.1184 Y8.7465
G01 X21.1461 Y8.6691
G01 X21.1532 Y8.6508
G01 X21.1611 Y8.6328
G01 X21.1963 Y8.5585
G01 X21.2051 Y8.5409
G01 X21.2148 Y8.5238
G01 X21.2571 Y8.4533
G01 X21.2731 Y8.4286
G01 X21.3279 Y8.3546
G01 X21.3400 Y8.3391
G01 X21.3528 Y8.3242
G01 X21.4080 Y8.2633
G01 X21.4216 Y8.2491
G01 X21.4358 Y8.2355
G01 X21.4967 Y8.1803
G01 X21.5193 Y8.1613
G01 X21.5931 Y8.1064
G01 X21.6092 Y8.0951
G01 X21.6258 Y8.0846
G01 X21.6963 Y8.0423
G01 X21.7134 Y8.0326
G01 X21.7310 Y8.0238
G01 X21.8053 Y7.9886
G01 X21.8233 Y7.9807
G01 X21.8416 Y7.9736
G01 X21.9190 Y7.9459
G01 X21.9377 Y7.9397
G01 X21.9566 Y7.9345
G01 X22.0364 Y7.9145
G01 X22.0555 Y7.9102
G01 X22.0749 Y7.9068
G01 X22.1562 Y7.8948
G01 X22.1757 Y7.8924
G01 X22.1953 Y7.8909
G01 X22.2775 Y7.8869
G01 X22.2971 Y7.8864
G01 X22.3167 Y7.8869
G01 X22.3989 Y7.8909
G01 X22.4185 Y7.8924
G01 X22.4380 Y7.8948
G01 X22.5193 Y7.9068
G01 X22.5387 Y7.9102
G01 X22.5578 Y7.9145
G01 X22.6376 Y7.9345
G01 X22.6565 Y7.9397
G01 X22.6752 Y7.9459
G01 X22.7526 Y7.9736
G01 X22.7709 Y7.9807
G01 X22.7889 Y7.9886
G01 X22.8632 Y8.0238
G01 X22.8808 Y8.0326
G01 X22.8979 Y8.0423
G01 X22.9684 Y8.0846
G01 X22.9850 Y8.0951
G01 X23.0011 Y8.1064
G01 X23.0671 Y8.1554
G01 X23.0826 Y8.1675
G01 X23.0975 Y8.1803
G01 X23.1584 Y8.2355
G01 X23.1726 Y8.2491
G01 X23.1862 Y8.2633
G01 X23.2414 Y8.3242
G01 X23.2604 Y8.3468
G01 X23.3153 Y8.4206
G01 X23.3266 Y8.4367
G01 X23.3371 Y8.4533
G01 X23.3794 Y8.5238
G01 X23.3936 Y8.5496
G01 X23.4372 Y8.6417
G01 X23.4481 Y8.6691
G01 X23.4758 Y8.7465
G01 X23.4820 Y8.7652
G01 X23.4872 Y8.7841
G01 X23.5072 Y8.8639
G01 X23.5115 Y8.8830
G01 X23.5149 Y8.9024
G01 X23.5269 Y8.9837
G01 X23.5293 Y9.0032
G01 X23.5308 Y9.0228
G01 X23.5352 Y9.1148
G01 X23.5353 Y9.9482
G01 X23.5348 Y9.9678
G01 X23.5302 Y10.0598
G01 X23.5269 Y10.0891
G01 X23.5149 Y10.1704
G01 X23.5115 Y10.1898
G01 X23.5072 Y10.2089
G01 X23.4872 Y10.2887
G01 X23.4820 Y10.3076
G01 X23.4758 Y10.3263
G01 X23.4481 Y10.4037
G01 X23.4410 Y10.4220
G01 X23.4331 Y10.4400
G01 X23.3979 Y10.5143
G01 X23.3891 Y10.5319
G01 X23.3794 Y10.5490
G01 X23.3371 Y10.6195
G01 X23.3266 Y10.6361
G01 X23.3153 Y10.6522
G01 X23.2663 Y10.7182
G01 X23.2542 Y10.7337
G01 X23.2414 Y10.7486
G01 X23.1862 Y10.8095
G01 X23.1726 Y10.8237
G01 X23.1584 Y10.8373
G01 X23.0975 Y10.8925
G01 X23.0749 Y10.9115
G01 X23.0011 Y10.9664
G01 X22.9850 Y10.9777
G01 X22.9684 Y10.9882
G01 X22.8979 Y11.0305
G01 X22.8808 Y11.0402
G01 X22.8632 Y11.0490
G01 X22.7889 Y11.0842
G01 X22.7709 Y11.0921
G01 X22.7526 Y11.0992
G01 X22.6752 Y11.1269
G01 X22.6565 Y11.1331
G01 X22.6376 Y11.1383
G01 X22.5578 Y11.1583
G01 X22.5387 Y11.1626
G01 X22.5193 Y11.1660
G01 X22.4380 Y11.1780
G01 X22.4185 Y11.1804
G01 X22.3989 Y11.1819
G01 X22.3167 Y11.1859
G01 X22.2971 Y11.1864
G01 X22.2775 Y11.1859
G01 X22.1953 Y11.1819
G01 X22.1757 Y11.1804
G01 X22.1562 Y11.1780
G01 X22.0749 Y11.1660
G01 X22.0555 Y11.1626
G01 X22.0364 Y11.1583
G01 X21.9566 Y11.1383
G01 X21.9377 Y11.1331
G01 X21.9190 Y11.1269
G01 X21.8416 Y11.0992
G01 X21.8233 Y11.0921
G01 X21.8053 Y11.0842
G01 X21.7310 Y11.0490
G01 X21.7134 Y11.0402
G01 X21.6963 Y11.0305
G01 X21.6258 Y10.9882
G01 X21.6092 Y10.9777
G01 X21.5931 Y10.9664
G01 X21.5271 Y10.9174
G01 X21.5116 Y10.9053
G01 X21.4967 Y10.8925
G01 X21.4358 Y10.8373
G01 X21.4216 Y10.8237
G01 X21.4080 Y10.8095
G01 X21.3528 Y10.7486
G01 X21.3400 Y10.7337
G01 X21.3279 Y10.7182
G01 X21.2789 Y10.6522
G01 X21.2676 Y10.6361
G01 X21.2571 Y10.6195
G01 X21.2148 Y10.5490
G01 X21.2051 Y10.5319
G01 X21.1963 Y10.5143
G01 X21.1611 Y10.4400
G01 X21.1532 Y10.4220
G01 X21.1461 Y10.4037
G01 X21.1184 Y10.3263
G01 X21.1122 Y10.3076
G01 X21.1070 Y10.2887
G01 X21.0870 Y10.2089
G01 X21.0827 Y10.1898
G01 X21.0793 Y10.1704
G01 X21.0673 Y10.0891
G00 Z2.0000
G00 X23.6073 Y10.0891
G01 F60.00
G01 Z-0.1100
G01 F100.00
G01 X23.6049 Y10.0696
G01 X23.6034 Y10.0500
G01 X23.5994 Y9.9678
G01 X23.5989 Y9.9482
G01 X23.5990 Y9.1148
G01 X23.6034 Y9.0228
G01 X23.6049 Y9.0032
G01 X23.6073 Y8.9837
G01 X23.6193 Y8.9024
G01 X23.6247 Y8.8734
G01 X23.6470 Y8.7841
G01 X23.6522 Y8.7652
G01 X23.6584 Y8.7465
G01 X23.6861 Y8.6691
G01 X23.6932 Y8.6508
G01 X23.7011 Y8.6328
G01 X23.7363 Y8.5585
G01 X23.7451 Y8.5409
G01 X23.7548 Y8.5238
G01 X23.7971 Y8.4533
G01 X23.8131 Y8.4286
G01 X23.8679 Y8.3546
G01 X23.8800 Y8.3391
G01 X23.8928 Y8.3242
G01 X23.9480 Y8.2633
G01 X23.9616 Y8.2491
G01 X23.9758 Y8.2355
G01 X24.0367 Y8.1803
G01 X24.0593 Y8.1613
G01 X24.1331 Y8.1064
G01 X24.1492 Y8.0951
G01 X24.1658 Y8.0846
G01 X24.2363 Y8.0423
G01 X24.2534 Y8.0326
G01 X24.2710 Y8.0238
G01 X24.3453 Y7.9886
G01 X24.3633 Y7.9807
G01 X24.3816 Y7.9736
G01 X24.4590 Y7.9459
G01 X24.4777 Y7.9397
G01 X24.4966 Y7.9345
G01 X24.5764 Y7.9145
G01 X24.5955 Y7.9102
G01 X24.6149 Y7.9068
G01 X24.6962 Y7.8948
G01 X24.7157 Y7.8924
G01 X24.7353 Y7.8909
G01 X24.8175 Y7.8869
G01 X24.8371 Y7.8864
G01 X24.8567 Y7.8869
G01 X24.9389 Y7.8909
G01 X24.9585 Y7.8924
G01 X24.9780 Y7.8948
G01 X25.0593 Y7.9068
G01 X25.0787 Y7.9102
G01 X25.0978 Y7.9145
G01 X25.1776 Y7.9345
G01 X25.1965 Y7.9397
G01 X25.2152 Y7.9459
G01 X25.2926 Y7.9736
G01 X25.3109 Y7.9807
G01 X25.3289 Y7.9886
G01 X25.4032 Y8.0238
G01 X25.4208 Y8.0326
G01 X25.4379 Y8.0423
G01 X25.5084 Y8.0846
G01 X25.5250 Y8.0951
G01 X25.5411 Y8.1064
G01 X25.6071 Y8.1554
G01 X25.6226 Y8.1675
G01 X25.6375 Y8.1803
G01 X25.6984 Y8.2355
G01 X25.7126 Y8.2491
G01 X25.7262 Y8.2633
G01 X25.7814 Y8.3242
G01 X25.8004 Y8.3468
G01 X25.8553 Y8.4206
G01 X25.8666 Y8.4367
G01 X25.8771 Y8.4533
G01 X25.9194 Y8.5238
G01 X25.9336 Y8.5496
G01 X25.9772 Y8.6417
G01 X25.9881 Y8.6691
G01 X26.0158 Y8.7465
G01 X26.0220 Y8.7652
G01 X26.0272 Y8.7841
G01 X26.0472 Y8.8639
G01 X26.0515 Y8.8830
G01 X26.0549 Y8.9024
G01 X26.0669 Y8.9837
G01 X26.0693 Y9.0032
G01 X26.0708 Y9.0228
G01 X26.0752 Y9.1148
G01 X26.0753 Y9.9482
G01 X26.0748 Y9.9678
G01 X26.0702 Y10.0598
G01 X26.0669 Y10.0891
G01 X26.0549 Y10.1704
G01 X26.0515 Y10.1898
G01 X26.0472 Y10.2089
G01 X26.0272 Y10.2887
G01 X26.0220 Y10.3076
G01 X26.0158 Y10.3263
G01 X25.9881 Y10.4037
G01 X25.9810 Y10.4220
G01 X25.9731 Y10.4400
G01 X25.9379 Y10.5143
G01 X25.9291 Y10.5319
G01 X25.9194 Y10.5490
G01 X25.8771 Y10.6195
G01 X25.8666 Y10.6361
G01 X25.8553 Y10.6522
G01 X25.8063 Y10.7182
G01 X25.7942 Y10.7337
G01 X25.7814 Y10.7486
G01 X25.7262 Y10.8095
G01 X25.7126 Y10.8237
G01 X25.6984 Y10.8373
G01 X25.6375 Y10.8925
G01 X25.6149 Y10.9115
G01 X25.5411 Y10.9664
G01 X25.5250 Y10.9777
G01 X25.5084 Y10.9882
G01 X25.4379 Y11.0305
G01 X25.4208 Y11.0402
G01 X25.4032 Y11.0490
G01 X25.3289 Y11.0842
G01 X25.3109 Y11.0921
G01 X25.2926 Y11.0992
G01 X25.2152 Y11.1269
G01 X25.1965 Y11.1331
G01 X25.1776 Y11.1383
G01 X25.0978 Y11.1583
G01 X25.0787 Y11.1626
G01 X25.0593 Y11.1660
G01 X24.9780 Y11.1780
G01 X24.9585 Y11.1804
G01 X24.9389 Y11.1819
G01 X24.8567 Y11.1859
G01 X24.8371 Y11.1864
G01 X24.8175 Y11.1859
G01 X24.7353 Y11.1819
G01 X24.7157 Y11.1804
G01 X24.6962 Y11.1780
G01 X24.6149 Y11.1660
G01 X24.5955 Y11.1626
G01 X24.5764 Y11.1583
G01 X24.4966 Y11.1383
G01 X24.4777 Y11.1331
G01 X24.4590 Y11.1269
G01 X24.3816 Y11.0992
G01 X24.3633 Y11.0921
G01 X24.3453 Y11.0842
G01 X24.2710 Y11.0490
G01 X24.2534 Y11.0402
G01 X24.2363 Y11.0305
G01 X24.1658 Y10.9882
G01 X24.1492 Y10.9777
G01 X24.1331 Y10.9664
G01 X24.0671 Y10.9174
G01 X24.0516 Y10.9053
G01 X24.0367 Y10.8925
G01 X23.9758 Y10.8373
G01 X23.9616 Y10.8237
G01 X23.9480 Y10.8095
G01 X23.8928 Y10.7486
G01 X23.8800 Y10.7337
G01 X23.8679 Y10.7182
G01 X23.8189 Y10.6522
G01 X23.8076 Y10.6361
G01 X23.7971 Y10.6195
G01 X23.7548 Y10.5490
G01 X23.7451 Y10.5319
G01 X23.7363 Y10.5143
G01 X23.7011 Y10.4400
G01 X23.6932 Y10.4220
G01 X23.6861 Y10.4037
G01 X23.6584 Y10.3263
G01 X23.6522 Y10.3076
G01 X23.6470 Y10.2887
G01 X23.6270 Y10.2089
G01 X23.6227 Y10.1898
G01 X23.6193 Y10.1704
G01 X23.6073 Y10.0891
G00 Z2.0000
G00 X26.1473 Y10.0891
G01 F60.00
G01 Z-0.1100
G01 F100.00
G01 X26.1449 Y10.0696
G01 X26.1434 Y10.0500
G01 X26.1394 Y9.9678
G01 X26.1389 Y9.9482
G01 X26.1390 Y9.1148
G01 X26.1434 Y9.0228
G01 X26.1449 Y9.0032
G01 X26.1473 Y8.9837
G01 X26.1593 Y8.9024
G01 X26.1647 Y8.8734
G01 X26.1870 Y8.7841
G01 X26.1922 Y8.7652
G01 X26.1984 Y8.7465
G01 X26.2261 Y8.6691
G01 X26.2332 Y8.6508
G01 X26.2411 Y8.6328
G01 X26.2763 Y8.5585
G01 X26.2851 Y8.5409
G01 X26.2948 Y8.5238
G01 X26.3371 Y8.4533
G01 X26.3531 Y8.4286
G01 X26.4079 Y8.3546
G01 X26.4200 Y8.3391
G01 X26.4328 Y8.3242
G01 X26.4880 Y8.2633
G01 X26.5016 Y8.2491
G01 X26.5158 Y8.2355
G01 X26.5767 Y8.1803
G01 X26.5993 Y8.1613
G01 X26.6731 Y8.1064
G01 X26.6892 Y8.0951
G01 X26.7058 Y8.0846
G01 X26.7763 Y8.0423
G01 X26.7934 Y8.0326
G01 X26.8110 Y8.0238
G01 X26.8853 Y7.9886
G01 X26.9033 Y7.9807
G01 X26.9216 Y7.9736
G01 X26.9990 Y7.9459
G01 X27.0177 Y7.9397
G01 X27.0366 Y7.9345
G01 X27.1164 Y7.9145
G01 X27.1355 Y7.9102
G01 X27.1549 Y7.9068
G01 X27.2362 Y7.8948
G01 X27.2557 Y7.8924
G01 X27.2753 Y7.8909
G01 X27.3575 Y7.8869
G01 X27.3771 Y7.8864
G01 X27.3967 Y7.8869
G01 X27.4789 Y7.8909
G01 X27.4985 Y7.8924
G01 X27.5180 Y7.8948
G01 X27.5993 Y7.9068
G01 X27.6187 Y7.9102
G01 X27.6378 Y7.9145
G01 X27.7176 Y7.9345
G01 X27.7365 Y7.9397
G01 X27.7552 Y7.9459
G01 X27.8326 Y7.9736
G01 X27.8509 Y7.9807
G01 X27.8689 Y7.9886
G01 X27.9432 Y8.0238
G01 X27.9608 Y8.0326
G01 X27.9779 Y8.0423
G01 X28.0484 Y8.0846
G01 X28.0650 Y8.0951
G01 X28.0811 Y8.1064
G01 X28.1471 Y8.1554
G01 X28.1626 Y8.1675
G01 X28.1775 Y8.1803
G01 X28.2384 Y8.2355
G01 X28.2526 Y8.2491
G01 X28.2662 Y8.2633
G01 X28.3214 Y8.3242
G01 X28.3404 Y8.3468
G01 X28.3953 Y8.4206
G01 X28.4066 Y8.4367
G01 X28.4171 Y8.4533
G01 X28.4594 Y8.5238
G01 X28.4736 Y8.5496
G01 X28.5172 Y8.6417
G01 X28.5281 Y8.6691
G01 X28.5558 Y8.7465
G01 X28.5620 Y8.7652
G01 X28.5672 Y8.7841
G01 X28.5872 Y8.8639
G01 X28.5915 Y8.8830
G01 X28.5949 Y8.9024
G01 X28.6069 Y8.9837
G01 X28.6093 Y9.0032
G01 X28.6108 Y9.0228
G01 X28.6152 Y9.1148
G01 X28.6153 Y9.9482
G01 X28.6148 Y9.9678
G01 X28.6102 Y10.0598
G01 X28.6069 Y10.0891
G01 X28.5949 Y10.1704
G01 X28.5915 Y10.1898
G01 X28.5872 Y10.2089
G01 X28.5672 Y10.2887
G01 X28.5620 Y10.3076
G01 X28.5558 Y10.3263
G01 X28.5281 Y10.4037
G01 X28.5210 Y10.4220
G01 X28.5131 Y10.4400
G01 X28.4779 Y10.5143
G01 X28.4691 Y10.5319
G01 X28.4594 Y10.5490
G01 X28.4171 Y10.6195
G01 X28.4066 Y10.6361
G01 X28.3953 Y10.6522
G01 X28.3463 Y10.7182
G01 X28.3342 Y10.7337
G01 X28.3214 Y10.7486
G01 X28.2662 Y10.8095
G01 X28.2526 Y10.8237
G01 X28.2384 Y10.8373
G01 X28.1775 Y10.8925
G01 X28.1549 Y10.9115
G01 X28.0811 Y10.9664
G01 X28.0650 Y10.9777
G01 X28.0484 Y10.9882
G01 X27.9779 Y11.0305
G01 X27.9608 Y11.0402
G01 X27.9432 Y11.0490
G01 X27.8689 Y11.0842
G01 X27.8509 Y11.0921
G01 X27.8326 Y11.0992
G01 X27.7552 Y11.1269
G01 X27.7365 Y11.1331
G01 X27.7176 Y11.1383
G01 X27.6378 Y11.1583
G01 X27.6187 Y11.1626
G01 X27.5993 Y11.1660
G01 X27.5180 Y11.1780
G01 X27.4985 Y11.1804
G01 X27.4789 Y11.1819
G01 X27.3967 Y11.1859
G01 X27.3771 Y11.1864
G01 X27.3575 Y11.1859
G01 X27.2753 Y11.1819
G01 X27.2557 Y11.1804
G01 X27.2362 Y11.1780
G01 X27.1549 Y11.1660
G01 X27.1355 Y11.1626
G01 X27.1164 Y11.1583
G01 X27.0366 Y11.1383
G01 X27.0177 Y11.1331
G01 X26.9990 Y11.1269
G01 X26.9216 Y11.0992
G01 X26.9033 Y11.0921
G01 X26.8853 Y11.0842
G01 X26.8110 Y11.0490
G01 X26.7934 Y11.0402
G01 X26.7763 Y11.0305
G01 X26.7058 Y10.9882
G01 X26.6892 Y10.9777
G01 X26.6731 Y10.9664
G01 X26.6071 Y10.9174
G01 X26.5916 Y10.9053
G01 X26.5767 Y10.8925
G01 X26.5158 Y10.8373
G01 X26.5016 Y10.8237
G01 X26.4880 Y10.8095
G01 X26.4328 Y10.7486
G01 X26.4200 Y10.7337
G01 X26.4079 Y10.7182
G01 X26.3589 Y10.6522
G01 X26.3476 Y10.6361
G01 X26.3371 Y10.6195
G01 X26.2948 Y10.5490
G01 X26.2851 Y10.5319
G01 X26.2763 Y10.5143
G01 X26.2411 Y10.4400
G01 X26.2332 Y10.4220
G01 X26.2261 Y10.4037
G01 X26.1984 Y10.3263
G01 X26.1922 Y10.3076
G01 X26.1870 Y10.2887
G01 X26.1670 Y10.2089
G01 X26.1627 Y10.1898
G01 X26.1593 Y10.1704
G01 X26.1473 Y10.0891
G00 Z2.0000
G00 X28.6873 Y10.0891
G01 F60.00
G01 Z-0.1100
G01 F100.00
G01 X28.6849 Y10.0696
G01 X28.6834 Y10.0500
G01 X28.6794 Y9.9678
G01 X28.6789 Y9.9482
G01 X28.6790 Y9.1148
G01 X28.6834 Y9.0228
G01 X28.6849 Y9.0032
G01 X28.6873 Y8.9837
G01 X28.6993 Y8.9024
G01 X28.7047 Y8.8734
G01 X28.7270 Y8.7841
G01 X28.7322 Y8.7652
G01 X28.7384 Y8.7465
G01 X28.7661 Y8.6691
G01 X28.7732 Y8.6508
G01 X28.7811 Y8.6328
G01 X28.8163 Y8.5585
G01 X28.8251 Y8.5409
G01 X28.8348 Y8.5238
G01 X28.8771 Y8.4533
G01 X28.8931 Y8.4286
G01 X28.9479 Y8.3546
G01 X28.9600 Y8.3391
G01 X28.9728 Y8.3242
G01 X29.0280 Y8.2633
G01 X29.0416 Y8.2491
G01 X29.0558 Y8.2355
G01 X29.1167 Y8.1803
G01 X29.1393 Y8.1613
G01 X29.2131 Y8.1064
G01 X29.2292 Y8.0951
G01 X29.2458 Y8.0846
G01 X29.3163 Y8.0423
G01 X29.3334 Y8.0326
G01 X29.3510 Y8.0238
G01 X29.4253 Y7.9886
G01 X29.4433 Y7.9807
G01 X29.4616 Y7.9736
G01 X29.5390 Y7.9459
G01 X29.5577 Y7.9397
G01 X29.5766 Y7.9345
G01 X29.6564 Y7.9145
G01 X29.6755 Y7.9102
G01 X29.6949 Y7.9068
G01 X29.7762 Y7.8948
G01 X29.7957 Y7.8924
G01 X29.8153 Y7.8909
G01 X29.8975 Y7.8869
G01 X29.9171 Y7.8864
G01 X29.9367 Y7.8869
G01 X30.0189 Y7.8909
G01 X30.0385 Y7.8924
G01 X30.0580 Y7.8948
G01 X30.1393 Y7.9068
G01 X30.1587 Y7.9102
G01 X30.1778 Y7.9145
G01 X30.2576 Y7.9345
G01 X30.2765 Y7.9397
G01 X30.2952 Y7.9459
G01 X30.3726 Y7.9736
G01 X30.3909 Y7.9807
G01 X30.4089 Y7.9886
G01 X30.4832 Y8.0238
G01 X30.5008 Y8.0326
G01 X30.5179 Y8.0423
G01 X30.5884 Y8.0846
G01 X30.6050 Y8.0951
G01 X30.6211 Y8.1064
G01 X30.6871 Y8.1554
G01 X30.7026 Y8.1675
G01 X30.7175 Y8.1803
G01 X30.7784 Y8.2355
G01 X30.7926 Y8.2491
G01 X30.8062 Y8.2633
G01 X30.8614 Y8.3242
G01 X30.8804 Y8.3468
G01 X30.9353 Y8.4206
G01 X30.9466 Y8.4367
G01 X30.9571 Y8.4533
G01 X30.9994 Y8.5238
G01 X31.0136 Y8.5496
G01 X31.0572 Y8.6417
G01 X31.0681 Y8.6691
G01 X31.0958 Y8.7465
G01 X31.1020 Y8.7652
G01 X31.1072 Y8.7841
G01 X31.1272 Y8.8639
G01 X31.1315 Y8.8830
G01 X31.1349 Y8.9024
G01 X31.1469 Y8.9837
G01 X31.1493 Y9.0032
G01 X31.1508 Y9.0228
G01 X31.1552 Y9.1148
G01 X31.1553 Y9.9482
G01 X31.1548 Y9.9678
G01 X31.1502 Y10.0598
G01 X31.1469 Y10.0891
G01 X31.1349 Y10.1704
G01 X31.1315 Y10.1898
G01 X31.1272 Y10.2089
G01 X31.1072 Y10.2887
G01 X31.1020 Y10.3076
G01 X31.0958 Y10.3263
G01 X31.0681 Y10.4037
G01 X31.0610 Y10.4220
G01 X31.0531 Y10.4400
G01 X31.0179 Y10.5143
G01 X31.0091 Y10.5319
G01 X30.9994 Y10.5490
G01 X30.9571 Y10.6195
G01 X30.9466 Y10.6361
G01 X30.9353 Y10.6522
G01 X30.8863 Y10.7182
G01 X30.8742 Y10.7337
G01 X30.8614 Y10.7486
G01 X30.8062 Y10.8095
G01 X30.7926 Y10.8237
G01 X30.7784 Y10.8373
G01 X30.7175 Y10.8925
G01 X30.6949 Y10.9115
G01 X30.6211 Y10.9664
G01 X30.6050 Y10.9777
G01 X30.5884 Y10.9882
G01 X30.5179 Y11.0305
G01 X30.5008 Y11.0402
G01 X30.4832 Y11.0490
G01 X30.4089 Y11.0842
G01 X30.3909 Y11.0921
G01 X30.3726 Y11.0992
G01 X30.2952 Y11.1269
G01 X30.2765 Y11.1331
G01 X30.2576 Y11.1383
G01 X30.1778 Y11.1583
G01 X30.1587 Y11.1626
G01 X30.1393 Y11.1660
G01 X30.0580 Y11.1780
G01 X30.0385 Y11.1804
G01 X30.0189 Y11.1819
G01 X29.9367 Y11.1859
G01 X29.9171 Y11.1864
G01 X29.8975 Y11.1859
G01 X29.8153 Y11.1819
G01 X29.7957 Y11.1804
G01 X29.7762 Y11.1780
G01 X29.6949 Y11.1660
G01 X29.6755 Y11.1626
G01 X29.6564 Y11.1583
G01 X29.5766 Y11.1383
G01 X29.5577 Y11.1331
G01 X29.5390 Y11.1269
G01 X29.4616 Y11.0992
G01 X29.4433 Y11.0921
G01 X29.4253 Y11.0842
G01 X29.3510 Y11.0490
G01 X29.3334 Y11.0402
G01 X29.3163 Y11.0305
G01 X29.2458 Y10.9882
G01 X29.2292 Y10.9777
G01 X29.2131 Y10.9664
G01 X29.1471 Y10.9174
G01 X29.1316 Y10.9053
G01 X29.1167 Y10.8925
G01 X29.0558 Y10.8373
G01 X29.0416 Y10.8237
G01 X29.0280 Y10.8095
G01 X28.9728 Y10.7486
G01 X28.9600 Y10.7337
G01 X28.9479 Y10.7182
G01 X28.8989 Y10.6522
G01 X28.8876 Y10.6361
G01 X28.8771 Y10.6195
G01 X28.8348 Y10.5490
G01 X28.8251 Y10.5319
G01 X28.8163 Y10.5143
G01 X28.7811 Y10.4400
G01 X28.7732 Y10.4220
G01 X28.7661 Y10.4037
G01 X28.7384 Y10.3263
G01 X28.7322 Y10.3076
G01 X28.7270 Y10.2887
G01 X28.7070 Y10.2089
G01 X28.7027 Y10.1898
G01 X28.6993 Y10.1704
G01 X28.6873 Y10.0891
G00 Z2.0000
G00 X31.2273 Y10.0891
G01 F60.00
G01 Z-0.1100
G01 F100.00
G01 X31.2249 Y10.0696
G01 X31.2234 Y10.0500
G01 X31.2194 Y9.9678
G01 X31.2189 Y9.9482
G01 X31.2190 Y9.1148
G01 X31.2234 Y9.0228
G01 X31.2249 Y9.0032
G01 X31.2273 Y8.9837
G01 X31.2393 Y8.9024
G01 X31.2447 Y8.8734
G01 X31.2670 Y8.7841
G01 X31.2722 Y8.7652
G01 X31.2784 Y8.7465
G01 X31.3061 Y8.6691
G01 X31.3132 Y8.6508
G01 X31.3211 Y8.6328
G01 X31.3563 Y8.5585
G01 X31.3651 Y8.5409
G01 X31.3748 Y8.5238
G01 X31.4171 Y8.4533
G01 X31.4331 Y8.4286
G01 X31.4879 Y8.3546
G01 X31.5000 Y8.3391
G01 X31.5128 Y8.3242
G01 X31.5680 Y8.2633
G01 X31.5816 Y8.2491
G01 X31.5958 Y8.2355
G01 X31.6567 Y8.1803
G01 X31.6793 Y8.1613
G01 X31.7531 Y8.1064
G01 X31.7692 Y8.0951
G01 X31.7858 Y8.0846
G01 X31.8563 Y8.0423
G01 X31.8734 Y8.0326
G01 X31.8910 Y8.0238
G01 X31.9653 Y7.9886
G01 X31.9833 Y7.9807
G01 X32.0016 Y7.9736
G01 X32.0790 Y7.9459
G01 X32.0977 Y7.9397
G01 X32.1166 Y7.9345
G01 X32.1964 Y7.9145
G01 X32.2155 Y7.9102
G01 X32.2349 Y7.9068
G01 X32.3162 Y7.8948
G01 X32.3357 Y7.8924
G01 X32.3553 Y7.8909
G01 X32.4375 Y7.8869
G01 X32.4571 Y7.8864
G01 X32.4767 Y7.8869
G01 X32.5589 Y7.8909
G01 X32.5785 Y7.8924
G01 X32.5980 Y7.8948
G01 X32.6793 Y7.9068
G01 X32.6987 Y7.9102
G01 X32.7178 Y7.9145
G01 X32.7976 Y7.9345
G01 X32.8165 Y7.9397
G01 X32.8352 Y7.9459
G01 X32.9126 Y7.9736
G01 X32.9309 Y7.9807
G01 X32.9489 Y7.9886
G01 X33.0232 Y8.0238
G01 X33.0408 Y8.0326
G01 X33.0579 Y8.0423
G01 X33.1284 Y8.0846
G01 X33.1450 Y8.0951
G01 X33.1611 Y8.1064
G01 X33.2271 Y8.1554
G01 X33.2426 Y8.1675
G01 X33.2575 Y8.1803
G01 X33.3184 Y8.2355
G01 X33.3326 Y8.2491
G01 X33.3462 Y8.2633
G01 X33.4014 Y8.3242
G01 X33.4204 Y8.3468
G01 X33.4753 Y8.4206
G01 X33.4866 Y8.4367
G01 X33.4971 Y8.4533
G01 X33.5394 Y8.5238
G01 X33.5536 Y8.5496
G01 X33.5972 Y8.6417
G01 X33.6081 Y8.6691
G01 X33.6358 Y8.7465
G01 X33.6420 Y8.7652
G01 X33.6472 Y8.7841
G01 X33.6672 Y8.8639
G01 X33.6715 Y8.8830
G01 X33.6749 Y8.9024
G01 X33.6869 Y8.9837
G01 X33.6893 Y9.0032
G01 X33.6908 Y9.0228
G01 X33.6952 Y9.1148
G01 X33.6953 Y9.9482
G01 X33.6948 Y9.9678
G01 X33.6902 Y10.0598
G01 X33.6869 Y10.0891
G01 X33.6749 Y10.1704
G01 X33.6715 Y10.1898
G01 X33.6672 Y10.2089
G01 X33.6472 Y10.2887
G01 X33.6420 Y10.3076
G01 X33.6358 Y10.3263
G01 X33.6081 Y10.4037
G01 X33.6010 Y10.4220
G01 X33.5931 Y10.4400
G01 X33.5579 Y10.5143
G01 X33.5491 Y10.5319
G01 X33.5394 Y10.5490
G01 X33.4971 Y10.6195
G01 X33.4866 Y10.6361
G01 X33.4753 Y10.6522
G01 X33.4263 Y10.7182
G01 X33.4142 Y10.7337
G01 X33.4014 Y10.7486
G01 X33.3462 Y10.8095
G01 X33.3326 Y10.8237
G01 X33.3184 Y10.8373
G01 X33.2575 Y10.8925
G01 X33.2349 Y10.9115
G01 X33.1611 Y10.9664
G01 X33.1450 Y10.9777
G01 X33.1284 Y10.9882
G01 X33.0579 Y11.0305
G01 X33.0408 Y11.0402
G01 X33.0232 Y11.0490
G01 X32.9489 Y11.0842
G01 X32.9309 Y11.0921
G01 X32.9126 Y11.0992
G01 X32.8352 Y11.1269
G01 X32.8165 Y11.1331
G01 X32.7976 Y11.1383
G01 X32.7178 Y11.1583
G01 X32.6987 Y11.1626
G01 X32.6793 Y11.1660
G01 X32.5980 Y11.1780
G01 X32.5785 Y11.1804
G01 X32.5589 Y11.1819
G01 X32.4767 Y11.1859
G01 X32.4571 Y11.1864
G01 X32.4375 Y11.1859
G01 X32.3553 Y11.1819
G01 X32.3357 Y11.1804
G01 X32.3162 Y11.1780
G01 X32.2349 Y11.1660
G01 X32.2155 Y11.1626
G01 X32.1964 Y11.1583
G01 X32.1166 Y11.1383
G01 X32.0977 Y11.1331
G01 X32.0790 Y11.1269
G01 X32.0016 Y11.0992
G01 X31.9833 Y11.0921
G01 X31.9653 Y11.0842
G01 X31.8910 Y11.0490
G01 X31.8734 Y11.0402
G01 X31.8563 Y11.0305
G01 X31.7858 Y10.9882
G01 X31.7692 Y10.9777
G01 X31.7531 Y10.9664
G01 X31.6871 Y10.9174
G01 X31.6716 Y10.9053
G01 X31.6567 Y10.8925
G01 X31.5958 Y10.8373
G01 X31.5816 Y10.8237
G01 X31.5680 Y10.8095
G01 X31.5128 Y10.7486
G01 X31.5000 Y10.7337
G01 X31.4879 Y10.7182
G01 X31.4389 Y10.6522
G01 X31.4276 Y10.6361
G01 X31.4171 Y10.6195
G01 X31.3748 Y10.5490
G01 X31.3651 Y10.5319
G01 X31.3563 Y10.5143
G01 X31.3211 Y10.4400
G01 X31.3132 Y10.4220
G01 X31.3061 Y10.4037
G01 X31.2784 Y10.3263
G01 X31.2722 Y10.3076
G01 X31.2670 Y10.2887
G01 X31.2470 Y10.2089
G01 X31.2427 Y10.1898
G01 X31.2393 Y10.1704
G01 X31.2273 Y10.0891
G00 Z2.0000
G00 X33.7673 Y10.0891
G01 F60.00
G01 Z-0.1100
G01 F100.00
G01 X33.7649 Y10.0696
G01 X33.7634 Y10.0500
G01 X33.7594 Y9.9678
G01 X33.7589 Y9.9482
G01 X33.7590 Y9.1148
G01 X33.7634 Y9.0228
G01 X33.7649 Y9.0032
G01 X33.7673 Y8.9837
G01 X33.7793 Y8.9024
G01 X33.7847 Y8.8734
G01 X33.8070 Y8.7841
G01 X33.8122 Y8.7652
G01 X33.8184 Y8.7465
G01 X33.8461 Y8.6691
G01 X33.8532 Y8.6508
G01 X33.8611 Y8.6328
G01 X33.8963 Y8.5585
G01 X33.9051 Y8.5409
G01 X33.9148 Y8.5238
G01 X33.9571 Y8.4533
G01 X33.9731 Y8.4286
G01 X34.0279 Y8.3546
G01 X34.0400 Y8.3391
G01 X34.0528 Y8.3242
G01 X34.1080 Y8.2633
G01 X34.1216 Y8.2491
G01 X34.1358 Y8.2355
G01 X34.1967 Y8.1803
G01 X34.2193 Y8.1613
G01 X34.2931 Y8.1064
G01 X34.3092 Y8.0951
G01 X34.3258 Y8.0846
G01 X34.3963 Y8.0423
G01 X34.4134 Y8.0326
G01 X34.4310 Y8.0238
G01 X34.5053 Y7.9886
G01 X34.5233 Y7.9807
G01 X34.5416 Y7.9736
G01 X34.6190 Y7.9459
G01 X34.6377 Y7.9397
G01 X34.6566 Y7.9345
G01 X34.7364 Y7.9145
G01 X34.7555 Y7.9102
G01 X34.7749 Y7.9068
G01 X34.8562 Y7.8948
G01 X34.8757 Y7.8924
G01 X34.8953 Y7.8909
G01 X34.9775 Y7.8869
G01 X34.9971 Y7.8864
G01 X35.0167 Y7.8869
G01 X35.0989 Y7.8909
G01 X35.1185 Y7.8924
G01 X35.1380 Y7.8948
G01 X35.2193 Y7.9068
G01 X35.2387 Y7.9102
G01 X35.2578 Y7.9145
G01 X35.3376 Y7.9345
G01 X35.3565 Y7.9397
G01 X35.3752 Y7.9459
G01 X35.4526 Y7.9736
G01 X35.4709 Y7.9807
G01 X35.4889 Y7.9886
G01 X35.5632 Y8.0238
G01 X35.5808 Y8.0326
G01 X35.5979 Y8.0423
G01 X35.6684 Y8.0846
G01 X35.6850 Y8.0951
G01 X35.7011 Y8.1064
G01 X35.7671 Y8.1554
G01 X35.7826 Y8.1675
G01 X35.7975 Y8.1803
G01 X35.8584 Y8.2355
G01 X35.8726 Y8.2491
G01 X35.8862 Y8.2633
G01 X35.9414 Y8.3242
G01 X35.9604 Y8.3468
G01 X36.0153 Y8.4206
G01 X36.0266 Y8.4367
G01 X36.0371 Y8.4533
G01 X36.0794 Y8.5238
G01 X36.0936 Y8.5496
G01 X36.1372 Y8.6417
G01 X36.1481 Y8.6691
G01 X36.1758 Y8.7465
G01 X36.1820 Y8.7652
G01 X36.1872 Y8.7841
G01 X36.2072 Y8.8639
G01 X36.2115 Y8.8830
G01 X36.2149 Y8.9024
G01 X36.2269 Y8.9837
G01 X36.2293 Y9.0032
G01 X36.2308 Y9.0228
G01 X36.2352 Y9.1148
G01 X36.2353 Y9.9482
G01 X36.2348 Y9.9678
G01 X36.2302 Y10.0598
G01 X36.2269 Y10.0891
G01 X36.2149 Y10.1704
G01 X36.2115 Y10.1898
G01 X36.2072 Y10.2089
G01 X36.1872 Y10.2887
G01 X36.1820 Y10.3076
G01 X36.1758 Y10.3263
G01 X36.1481 Y10.4037
G01 X36.1410 Y10.4220
G01 X36.1331 Y10.4400
G01 X36.0979 Y10.5143
G01 X36.0891 Y10.5319
G01 X36.0794 Y10.5490
G01 X36.0371 Y10.6195
G01 X36.0266 Y10.6361
G01 X36.0153 Y10.6522
G01 X35.9663 Y10.7182
G01 X35.9542 Y10.7337
G01 X35.9414 Y10.7486
G01 X35.8862 Y10.8095
G01 X35.8726 Y10.8237
G01 X35.8584 Y10.8373
G01 X35.7975 Y10.8925
G01 X35.7749 Y10.9115
G01 X35.7011 Y10.9664
G01 X35.6850 Y10.9777
G01 X35.6684 Y10.9882
G01 X35.5979 Y11.0305
G01 X35.5808 Y11.0402
G01 X35.5632 Y11.0490
G01 X35.4889 Y11.0842
G01 X35.4709 Y11.0921
G01 X35.4526 Y11.0992
G01 X35.3752 Y11.1269
G01 X35.3565 Y11.1331
G01 X35.3376 Y11.1383
G01 X35.2578 Y11.1583
G01 X35.2387 Y11.1626
G01 X35.2193 Y11.1660
G01 X35.1380 Y11.1780
G01 X35.1185 Y11.1804
G01 X35.0989 Y11.1819
G01 X35.0167 Y11.1859
G01 X34.9971 Y11.1864
G01 X34.9775 Y11.1859
G01 X34.8953 Y11.1819
G01 X34.8757 Y11.1804
G01 X34.8562 Y11.1780
G01 X34.7749 Y11.1660
G01 X34.7555 Y11.1626
G01 X34.7364 Y11.1583
G01 X34.6566 Y11.1383
G01 X34.6377 Y11.1331
G01 X34.6190 Y11.1269
G01 X34.5416 Y11.0992
G01 X34.5233 Y11.0921
G01 X34.5053 Y11.0842
G01 X34.4310 Y11.0490
G01 X34.4134 Y11.0402
G01 X34.3963 Y11.0305
G01 X34.3258 Y10.9882
G01 X34.3092 Y10.9777
G01 X34.2931 Y10.9664
G01 X34.2271 Y10.9174
G01 X34.2116 Y10.9053
G01 X34.1967 Y10.8925
G01 X34.1358 Y10.8373
G01 X34.1216 Y10.8237
G01 X34.1080 Y10.8095
G01 X34.0528 Y10.7486
G01 X34.0400 Y10.7337
G01 X34.0279 Y10.7182
G01 X33.9789 Y10.6522
G01 X33.9676 Y10.6361
G01 X33.9571 Y10.6195
G01 X33.9148 Y10.5490
G01 X33.9051 Y10.5319
G01 X33.8963 Y10.5143
G01 X33.8611 Y10.4400
G01 X33.8532 Y10.4220
G01 X33.8461 Y10.4037
G01 X33.8184 Y10.3263
G01 X33.8122 Y10.3076
G01 X33.8070 Y10.2887
G01 X33.7870 Y10.2089
G01 X33.7827 Y10.1898
G01 X33.7793 Y10.1704
G01 X33.7673 Y10.0891
G00 Z2.0000
G00 X36.3073 Y10.0891
G01 F60.00
G01 Z-0.1100
G01 F100.00
G01 X36.3049 Y10.0696
G01 X36.3034 Y10.0500
G01 X36.2994 Y9.9678
G01 X36.2989 Y9.9482
G01 X36.2990 Y9.1148
G01 X36.3034 Y9.0228
G01 X36.3049 Y9.0032
G01 X36.3073 Y8.9837
G01 X36.3193 Y8.9024
G01 X36.3247 Y8.8734
G01 X36.3470 Y8.7841
G01 X36.3522 Y8.7652
G01 X36.3584 Y8.7465
G01 X36.3861 Y8.6691
G01 X36.3932 Y8.6508
G01 X36.4011 Y8.6328
G01 X36.4363 Y8.5585
G01 X36.4451 Y8.5409
G01 X36.4548 Y8.5238
G01 X36.4971 Y8.4533
G01 X36.5131 Y8.4286
G01 X36.5679 Y8.3546
G01 X36.5800 Y8.3391
G01 X36.5928 Y8.3242
G01 X36.6480 Y8.2633
G01 X36.6616 Y8.2491
G01 X36.6758 Y8.2355
G01 X36.7367 Y8.1803
G01 X36.7593 Y8.1613
G01 X36.8331 Y8.1064
G01 X36.8492 Y8.0951
G01 X36.8658 Y8.0846
G01 X36.9363 Y8.0423
G01 X36.9534 Y8.0326
G01 X36.9710 Y8.0238
G01 X37.0453 Y7.9886
G01 X37.0633 Y7.9807
G01 X37.0816 Y7.9736
G01 X37.1590 Y7.9459
G01 X37.1777 Y7.9397
G01 X37.1966 Y7.9345
G01 X37.2764 Y7.9145
G01 X37.2955 Y7.9102
G01 X37.3149 Y7.9068
G01 X37.3962 Y7.8948
G01 X37.4157 Y7.8924
G01 X37.4353 Y7.8909
G01 X37.5175 Y7.8869
G01 X37.5371 Y7.8864
G01 X37.5567 Y7.8869
G01 X37.6389 Y7.8909
G01 X37.6585 Y7.8924
G01 X37.6780 Y7.8948
G01 X37.7593 Y7.9068
G01 X37.7787 Y7.9102
G01 X37.7978 Y7.9145
G01 X37.8776 Y7.9345
G01 X37.8965 Y7.9397
G01 X37.9152 Y7.9459
G01 X37.9926 Y7.9736
G01 X38.0109 Y7.9807
G01 X38.0289 Y7.9886
G01 X38.1032 Y8.0238
G01 X38.1208 Y8.0326
G01 X38.1379 Y8.0423
G01 X38.2084 Y8.0846
G01 X38.2250 Y8.0951
G01 X38.2411 Y8.1064
G01 X38.3071 Y8.1554
G01 X38.3226 Y8.1675
G01 X38.3375 Y8.1803
G01 X38.3984 Y8.2355
G01 X38.4126 Y8.2491
G01 X38.4262 Y8.2633
G01 X38.4814 Y8.3242
G01 X38.5004 Y8.3468
G01 X38.5553 Y8.4206
G01 X38.5666 Y8.4367
G01 X38.5771 Y8.4533
G01 X38.6194 Y8.5238
G01 X38.6336 Y8.5496
G01 X38.6772 Y8.6417
G01 X38.6881 Y8.6691
G01 X38.7158 Y8.7465
G01 X38.7220 Y8.7652
G01 X38.7272 Y8.7841
G01 X38.7472 Y8.8639
G01 X38.7515 Y8.8830
G01 X38.7549 Y8.9024
G01 X38.7669 Y8.9837
G01 X38.7693 Y9.0032
G01 X38.7708 Y9.0228
G01 X38.7752 Y9.1148
G01 X38.7753 Y9.9482
G01 X38.7748 Y9.9678
G01 X38.7702 Y10.0598
G01 X38.7669 Y10.0891
G01 X38.7549 Y10.1704
G01 X38.7515 Y10.1898
G01 X38.7472 Y10.2089
G01 X38.7272 Y10.2887
G01 X38.7220 Y10.3076
G01 X38.7158 Y10.3263
G01 X38.6881 Y10.4037
G01 X38.6810 Y10.4220
G01 X38.6731 Y10.4400
G01 X38.6379 Y10.5143
G01 X38.6291 Y10.5319
G01 X38.6194 Y10.5490
G01 X38.5771 Y10.6195
G01 X38.5666 Y10.6361
G01 X38.5553 Y10.6522
G01 X38.5063 Y10.7182
G01 X38.4942 Y10.7337
G01 X38.4814 Y10.7486
G01 X38.4262 Y10.8095
G01 X38.4126 Y10.8237
G01 X38.3984 Y10.8373
G01 X38.3375 Y10.8925
G01 X38.3149 Y10.9115
G01 X38.2411 Y10.9664
G01 X38.2250 Y10.9777
G01 X38.2084 Y10.9882
G01 X38.1379 Y11.0305
G01 X38.1208 Y11.0402
G01 X38.1032 Y11.0490
G01 X38.0289 Y11.0842
G01 X38.0109 Y11.0921
G01 X37.9926 Y11.0992
G01 X37.9152 Y11.1269
G01 X37.8965 Y11.1331
G01 X37.8776 Y11.1383
G01 X37.7978 Y11.1583
G01 X37.7787 Y11.1626
G01 X37.7593 Y11.1660
G01 X37.6780 Y11.1780
G01 X37.6585 Y11.1804
G01 X37.6389 Y11.1819
G01 X37.5567 Y11.1859
G01 X37.5371 Y11.1864
G01 X37.5175 Y11.1859
G01 X37.4353 Y11.1819
G01 X37.4157 Y11.1804
G01 X37.3962 Y11.1780
G01 X37.3149 Y11.1660
G01 X37.2955 Y11.1626
G01 X37.2764 Y11.1583
G01 X37.1966 Y11.1383
G01 X37.1777 Y11.1331
G01 X37.1590 Y11.1269
G01 X37.0816 Y11.0992
G01 X37.0633 Y11.0921
G01 X37.0453 Y11.0842
G01 X36.9710 Y11.0490
G01 X36.9534 Y11.0402
G01 X36.9363 Y11.0305
G01 X36.8658 Y10.9882
G01 X36.8492 Y10.9777
G01 X36.8331 Y10.9664
G01 X36.7671 Y10.9174
G01 X36.7516 Y10.9053
G01 X36.7367 Y10.8925
G01 X36.6758 Y10.8373
G01 X36.6616 Y10.8237
G01 X36.6480 Y10.8095
G01 X36.5928 Y10.7486
G01 X36.5800 Y10.7337
G01 X36.5679 Y10.7182
G01 X36.5189 Y10.6522
G01 X36.5076 Y10.6361
G01 X36.4971 Y10.6195
G01 X36.4548 Y10.5490
G01 X36.4451 Y10.5319
G01 X36.4363 Y10.5143
G01 X36.4011 Y10.4400
G01 X36.3932 Y10.4220
G01 X36.3861 Y10.4037
G01 X36.3584 Y10.3263
G01 X36.3522 Y10.3076
G01 X36.3470 Y10.2887
G01 X36.3270 Y10.2089
G01 X36.3227 Y10.1898
G01 X36.3193 Y10.1704
G01 X36.3073 Y10.0891
G00 Z2.0000
G00 X38.8473 Y10.0891
G01 F60.00
G01 Z-0.1100
G01 F100.00
G01 X38.8449 Y10.0696
G01 X38.8434 Y10.0500
G01 X38.8394 Y9.9678
G01 X38.8389 Y9.9482
G01 X38.8390 Y9.1148
G01 X38.8434 Y9.0228
G01 X38.8449 Y9.0032
G01 X38.8473 Y8.9837
G01 X38.8593 Y8.9024
G01 X38.8647 Y8.8734
G01 X38.8870 Y8.7841
G01 X38.8922 Y8.7652
G01 X38.8984 Y8.7465
G01 X38.9261 Y8.6691
G01 X38.9332 Y8.6508
G01 X38.9411 Y8.6328
G01 X38.9763 Y8.5585
G01 X38.9851 Y8.5409
G01 X38.9948 Y8.5238
G01 X39.0371 Y8.4533
G01 X39.0531 Y8.4286
G01 X39.1079 Y8.3546
G01 X39.1200 Y8.3391
G01 X39.1328 Y8.3242
G01 X39.1880 Y8.2633
G01 X39.2016 Y8.2491
G01 X39.2158 Y8.2355
G01 X39.2767 Y8.1803
G01 X39.2993 Y8.1613
G01 X39.3731 Y8.1064
G01 X39.3892 Y8.0951
G01 X39.4058 Y8.0846
G01 X39.4763 Y8.0423
G01 X39.4934 Y8.0326
G01 X39.5110 Y8.0238
G01 X39.5853 Y7.9886
G01 X39.6033 Y7.9807
G01 X39.6216 Y7.9736
G01 X39.6990 Y7.9459
G01 X39.7177 Y7.9397
G01 X39.7366 Y7.9345
G01 X39.8164 Y7.9145
G01 X39.8355 Y7.9102
G01 X39.8549 Y7.9068
G01 X39.9362 Y7.8948
G01 X39.9557 Y7.8924
G01 X39.9753 Y7.8909
G01 X40.0575 Y7.8869
G01 X40.0771 Y7.8864
G01 X40.0967 Y7.8869
G01 X40.1789 Y7.8909
G01 X40.1985 Y7.8924
G01 X40.2180 Y7.8948
G01 X40.2993 Y7.9068
G01 X40.3187 Y7.9102
G01 X40.3378 Y7.9145
G01 X40.4176 Y7.9345
G01 X40.4365 Y7.9397
G01 X40.4552 Y7.9459
G01 X40.5326 Y7.9736
G01 X40.5509 Y7.9807
G01 X40.5689 Y7.9886
G01 X40.6432 Y8.0238
G01 X40.6608 Y8.0326
G01 X40.6779 Y8.0423
G01 X40.7484 Y8.0846
G01 X40.7650 Y8.0951
G01 X40.7811 Y8.1064
G01 X40.8471 Y8.1554
G01 X40.8626 Y8.1675
G01 X40.8775 Y8.1803
G01 X40.9384 Y8.2355
G01 X40.9526 Y8.2491
G01 X40.9662 Y8.2633
G01 X41.0214 Y8.3242
G01 X41.0404 Y8.3468
G01 X41.0953 Y8.4206
G01 X41.1066 Y8.4367
G01 X41.1171 Y8.4533
G01 X41.1594 Y8.5238
G01 X41.1736 Y8.5496
G01 X41.2172 Y8.6417
G01 X41.2281 Y8.6691
G01 X41.2558 Y8.7465
G01 X41.2620 Y8.7652
G01 X41.2672 Y8.7841
G01 X41.2872 Y8.8639
G01 X41.2915 Y8.8830
G01 X41.2949 Y8.9024
G01 X41.3069 Y8.9837
G01 X41.3093 Y9.0032
G01 X41.3108 Y9.0228
G01 X41.3152 Y9.1148
G01 X41.3153 Y9.9482
G01 X41.3148 Y9.9678
G01 X41.3102 Y10.0598
G01 X41.3069 Y10.0891
G01 X41.2949 Y10.1704
G01 X41.2915 Y10.1898
G01 X41.2872 Y10.2089
G01 X41.2672 Y10.2887
G01 X41.2620 Y10.3076
G01 X41.2558 Y10.3263
G01 X41.2281 Y10.4037
G01 X41.2210 Y10.4220
G01 X41.2131 Y10.4400
G01 X41.1779 Y10.5143
G01 X41.1691 Y10.5319
G01 X41.1594 Y10.5490
G01 X41.1171 Y10.6195
G01 X41.1066 Y10.6361
G01 X41.0953 Y10.6522
G01 X41.0463 Y10.7182
G01 X41.0342 Y10.7337
G01 X41.0214 Y10.7486
G01 X40.9662 Y10.8095
G01 X40.9526 Y10.8237
G01 X40.9384 Y10.8373
G01 X40.8775 Y10.8925
G01 X40.8549 Y10.9115
G01 X40.7811 Y10.9664
G01 X40.7650 Y10.9777
G01 X40.7484 Y10.9882
G01 X40.6779 Y11.0305
G01 X40.6608 Y11.0402
G01 X40.6432 Y11.0490
G01 X40.5689 Y11.0842
G01 X40.5509 Y11.0921
G01 X40.5326 Y11.0992
G01 X40.4552 Y11.1269
G01 X40.4365 Y11.1331
G01 X40.4176 Y11.1383
G01 X40.3378 Y11.1583
G01 X40.3187 Y11.1626
G01 X40.2993 Y11.1660
G01 X40.2180 Y11.1780
G01 X40.1985 Y11.1804
G01 X40.1789 Y11.1819
G01 X40.0967 Y11.1859
G01 X40.0771 Y11.1864
G01 X40.0575 Y11.1859
G01 X39.9753 Y11.1819
G01 X39.9557 Y11.1804
G01 X39.9362 Y11.1780
G01 X39.8549 Y11.1660
G01 X39.8355 Y11.1626
G01 X39.8164 Y11.1583
G01 X39.7366 Y11.1383
G01 X39.7177 Y11.1331
G01 X39.6990 Y11.1269
G01 X39.6216 Y11.0992
G01 X39.6033 Y11.0921
G01 X39.5853 Y11.0842
G01 X39.5110 Y11.0490
G01 X39.4934 Y11.0402
G01 X39.4763 Y11.0305
G01 X39.4058 Y10.9882
G01 X39.3892 Y10.9777
G01 X39.3731 Y10.9664
G01 X39.3071 Y10.9174
G01 X39.2916 Y10.9053
G01 X39.2767 Y10.8925
G01 X39.2158 Y10.8373
G01 X39.2016 Y10.8237
G01 X39.1880 Y10.8095
G01 X39.1328 Y10.7486
G01 X39.1200 Y10.7337
G01 X39.1079 Y10.7182
G01 X39.0589 Y10.6522
G01 X39.0476 Y10.6361
G01 X39.0371 Y10.6195
G01 X38.9948 Y10.5490
G01 X38.9851 Y10.5319
G01 X38.9763 Y10.5143
G01 X38.9411 Y10.4400
G01 X38.9332 Y10.4220
G01 X38.9261 Y10.4037
G01 X38.8984 Y10.3263
G01 X38.8922 Y10.3076
G01 X38.8870 Y10.2887
G01 X38.8670 Y10.2089
G01 X38.8627 Y10.1898
G01 X38.8593 Y10.1704
G01 X38.8473 Y10.0891
G00 Z2.0000
G00 X41.3873 Y10.0891
G01 F60.00
G01 Z-0.1100
G01 F100.00
G01 X41.3849 Y10.0696
G01 X41.3834 Y10.0500
G01 X41.3794 Y9.9678
G01 X41.3789 Y9.9482
G01 X41.3790 Y9.1148
G01 X41.3834 Y9.0228
G01 X41.3849 Y9.0032
G01 X41.3873 Y8.9837
G01 X41.3993 Y8.9024
G01 X41.4047 Y8.8734
G01 X41.4270 Y8.7841
G01 X41.4322 Y8.7652
G01 X41.4384 Y8.7465
G01 X41.4661 Y8.6691
G01 X41.4732 Y8.6508
G01 X41.4811 Y8.6328
G01 X41.5163 Y8.5585
G01 X41.5251 Y8.5409
G01 X41.5348 Y8.5238
G01 X41.5771 Y8.4533
G01 X41.5931 Y8.4286
G01 X41.6479 Y8.3546
G01 X41.6600 Y8.3391
G01 X41.6728 Y8.3242
G01 X41.7280 Y8.2633
G01 X41.7416 Y8.2491
G01 X41.7558 Y8.2355
G01 X41.8167 Y8.1803
G01 X41.8393 Y8.1613
G01 X41.9131 Y8.1064
G01 X41.9292 Y8.0951
G01 X41.9458 Y8.0846
G01 X42.0163 Y8.0423
G01 X42.0334 Y8.0326
G01 X42.0510 Y8.0238
G01 X42.1253 Y7.9886
G01 X42.1433 Y7.9807
G01 X42.1616 Y7.9736
G01 X42.2390 Y7.9459
G01 X42.2577 Y7.9397
G01 X42.2766 Y7.9345
G01 X42.3564 Y7.9145
G01 X42.3755 Y7.9102
G01 X42.3949 Y7.9068
G01 X42.4762 Y7.8948
G01 X42.4957 Y7.8924
G01 X42.5153 Y7.8909
G01 X42.5975 Y7.8869
G01 X42.6171 Y7.8864
G01 X42.6367 Y7.8869
G01 X42.7189 Y7.8909
G01 X42.7385 Y7.8924
G01 X42.7580 Y7.8948
G01 X42.8393 Y7.9068
G01 X42.8587 Y7.9102
G01 X42.8778 Y7.9145
G01 X42.9576 Y7.9345
G01 X42.9765 Y7.9397
G01 X42.9952 Y7.9459
G01 X43.0726 Y7.9736
G01 X43.0909 Y7.9807
G01 X43.1089 Y7.9886
G01 X43.1832 Y8.0238
G01 X43.2008 Y8.0326
G01 X43.2179 Y8.0423
G01 X43.2884 Y8.0846
G01 X43.3050 Y8.0951
G01 X43.3211 Y8.1064
G01 X43.3871 Y8.1554
G01 X43.4026 Y8.1675
G01 X43.4175 Y8.1803
G01 X43.4784 Y8.2355
G01 X43.4926 Y8.2491
G01 X43.5062 Y8.2633
G01 X43.5614 Y8.3242
G01 X43.5804 Y8.3468
G01 X43.6353 Y8.4206
G01 X43.6466 Y8.4367
G01 X43.6571 Y8.4533
G01 X43.6994 Y8.5238
G01 X43.7136 Y8.5496
G01 X43.7572 Y8.6417
G01 X43.7681 Y8.6691
G01 X43.7958 Y8.7465
G01 X43.8020 Y8.7652
G01 X43.8072 Y8.7841
G01 X43.8272 Y8.8639
G01 X43.8315 Y8.8830
G01 X43.8349 Y8.9024
G01 X43.8469 Y8.9837
G01 X43.8493 Y9.0032
G01 X43.8508 Y9.0228
G01 X43.8552 Y9.1148
G01 X43.8553 Y9.9482
G01 X43.8548 Y9.9678
G01 X43.8502 Y10.0598
G01 X43.8469 Y10.0891
G01 X43.8349 Y10.1704
G01 X43.8315 Y10.1898
G01 X43.8272 Y10.2089
G01 X43.8072 Y10.2887
G01 X43.8020 Y10.3076
G01 X43.7958 Y10.3263
G01 X43.7681 Y10.4037
G01 X43.7610 Y10.4220
G01 X43.7531 Y10.4400
G01 X43.7179 Y10.5143
G01 X43.7091 Y10.5319
G01 X43.6994 Y10.5490
G01 X43.6571 Y10.6195
G01 X43.6466 Y10.6361
G01 X43.6353 Y10.6522
G01 X43.5863 Y10.7182
G01 X43.5742 Y10.7337
G01 X43.5614 Y10.7486
G01 X43.5062 Y10.8095
G01 X43.4926 Y10.8237
G01 X43.4784 Y10.8373
G01 X43.4175 Y10.8925
G01 X43.3949 Y10.9115
G01 X43.3211 Y10.9664
G01 X43.3050 Y10.9777
G01 X43.2884 Y10.9882
G01 X43.2179 Y11.0305
G01 X43.2008 Y11.0402
G01 X43.1832 Y11.0490
G01 X43.1089 Y11.0842
G01 X43.0909 Y11.0921
G01 X43.0726 Y11.0992
G01 X42.9952 Y11.1269
G01 X42.9765 Y11.1331
G01 X42.9576 Y11.1383
G01 X42.8778 Y11.1583
G01 X42.8587 Y11.1626
G01 X42.8393 Y11.1660
G01 X42.7580 Y11.1780
G01 X42.7385 Y11.1804
G01 X42.7189 Y11.1819
G01 X42.6367 Y11.1859
G01 X42.6171 Y11.1864
G01 X42.5975 Y11.1859
G01 X42.5153 Y11.1819
G01 X42.4957 Y11.1804
G01 X42.4762 Y11.1780
G01 X42.3949 Y11.1660
G01 X42.3755 Y11.1626
G01 X42.3564 Y11.1583
G01 X42.2766 Y11.1383
G01 X42.2577 Y11.1331
G01 X42.2390 Y11.1269
G01 X42.1616 Y11.0992
G01 X42.1433 Y11.0921
G01 X42.1253 Y11.0842
G01 X42.0510 Y11.0490
G01 X42.0334 Y11.0402
G01 X42.0163 Y11.0305
G01 X41.9458 Y10.9882
G01 X41.9292 Y10.9777
G01 X41.9131 Y10.9664
G01 X41.8471 Y10.9174
G01 X41.8316 Y10.9053
G01 X41.8167 Y10.8925
G01 X41.7558 Y10.8373
G01 X41.7416 Y10.8237
G01 X41.7280 Y10.8095
G01 X41.6728 Y10.7486
G01 X41.6600 Y10.7337
G01 X41.6479 Y10.7182
G01 X41.5989 Y10.6522
G01 X41.5876 Y10.6361
G01 X41.5771 Y10.6195
G01 X41.5348 Y10.5490
G01 X41.5251 Y10.5319
G01 X41.5163 Y10.5143
G01 X41.4811 Y10.4400
G01 X41.4732 Y10.4220
G01 X41.4661 Y10.4037
G01 X41.4384 Y10.3263
G01 X41.4322 Y10.3076
G01 X41.4270 Y10.2887
G01 X41.4070 Y10.2089
G01 X41.4027 Y10.1898
G01 X41.3993 Y10.1704
G01 X41.3873 Y10.0891
G00 Z2.0000
G00 X43.9273 Y10.0891
G01 F60.00
G01 Z-0.1100
G01 F100.00
G01 X43.9249 Y10.0696
G01 X43.9234 Y10.0500
G01 X43.9194 Y9.9678
G01 X43.9189 Y9.9482
G01 X43.9190 Y9.1148
G01 X43.9234 Y9.0228
G01 X43.9249 Y9.0032
G01 X43.9273 Y8.9837
G01 X43.9393 Y8.9024
G01 X43.9447 Y8.8734
G01 X43.9670 Y8.7841
G01 X43.9722 Y8.7652
G01 X43.9784 Y8.7465
G01 X44.0061 Y8.6691
G01 X44.0132 Y8.6508
G01 X44.0211 Y8.6328
G01 X44.0563 Y8.5585
G01 X44.0651 Y8.5409
G01 X44.0748 Y8.5238
G01 X44.1171 Y8.4533
G01 X44.1331 Y8.4286
G01 X44.1879 Y8.3546
G01 X44.2000 Y8.3391
G01 X44.2128 Y8.3242
G01 X44.2680 Y8.2633
G01 X44.2816 Y8.2491
G01 X44.2958 Y8.2355
G01 X44.3567 Y8.1803
G01 X44.3793 Y8.1613
G01 X44.4531 Y8.1064
G01 X44.4692 Y8.0951
G01 X44.4858 Y8.0846
G01 X44.5563 Y8.0423
G01 X44.5734 Y8.0326
G01 X44.5910 Y8.0238
G01 X44.6653 Y7.9886
G01 X44.6833 Y7.9807
G01 X44.7016 Y7.9736
G01 X44.7790 Y7.9459
G01 X44.7977 Y7.9397
G01 X44.8166 Y7.9345
G01 X44.8964 Y7.9145
G01 X44.9155 Y7.9102
G01 X44.9349 Y7.9068
G01 X45.0162 Y7.8948
G01 X45.0357 Y7.8924
G01 X45.0553 Y7.8909
G01 X45.1375 Y7.8869
G01 X45.1571 Y7.8864
G01 X45.1767 Y7.8869
G01 X45.2589 Y7.8909
G01 X45.2785 Y7.8924
G01 X45.2980 Y7.8948
G01 X45.3793 Y7.9068
G01 X45.3987 Y7.9102
G01 X45.4178 Y7.9145
G01 X45.4976 Y7.9345
G01 X45.5165 Y7.9397
G01 X45.5352 Y7.9459
G01 X45.6126 Y7.9736
G01 X45.6309 Y7.9807
G01 X45.6489 Y7.9886
G01 X45.7232 Y8.0238
G01 X45.7408 Y8.0326
G01 X45.7579 Y8.0423
G01 X45.8284 Y8.0846
G01 X45.8450 Y8.0951
G01 X45.8611 Y8.1064
G01 X45.9271 Y8.1554
G01 X45.9426 Y8.1675
G01 X45.9575 Y8.1803
G01 X46.0184 Y8.2355
G01 X46.0326 Y8.2491
G01 X46.0462 Y8.2633
G01 X46.1014 Y8.3242
G01 X46.1204 Y8.3468
G01 X46.1753 Y8.4206
G01 X46.1866 Y8.4367
G01 X46.1971 Y8.4533
G01 X46.2394 Y8.5238
G01 X46.2536 Y8.5496
G01 X46.2972 Y8.6417
G01 X46.3081 Y8.6691
G01 X46.3358 Y8.7465
G01 X46.3420 Y8.7652
G01 X46.3472 Y8.7841
G01 X46.3672 Y8.8639
G01 X46.3715 Y8.8830
G01 X46.3749 Y8.9024
G01 X46.3869 Y8.9837
G01 X46.3893 Y9.0032
G01 X46.3908 Y9.0228
G01 X46.3952 Y9.1148
G01 X46.3953 Y9.9482
G01 X46.3948 Y9.9678
G01 X46.3902 Y10.0598
G01 X46.3869 Y10.0891
G01 X46.3749 Y10.1704
G01 X46.3715 Y10.1898
G01 X46.3672 Y10.2089
G01 X46.3472 Y10.2887
G01 X46.3420 Y10.3076
G01 X46.3358 Y10.3263
G01 X46.3081 Y10.4037
G01 X46.3010 Y10.4220
G01 X46.2931 Y10.4400
G01 X46.2579 Y10.5143
G01 X46.2491 Y10.5319
G01 X46.2394 Y10.5490
G01 X46.1971 Y10.6195
G01 X46.1866 Y10.6361
G01 X46.1753 Y10.6522
G01 X46.1263 Y10.7182
G01 X46.1142 Y10.7337
G01 X46.1014 Y10.7486
G01 X46.0462 Y10.8095
G01 X46.0326 Y10.8237
G01 X46.0184 Y10.8373
G01 X45.9575 Y10.8925
G01 X45.9349 Y10.9115
G01 X45.8611 Y10.9664
G01 X45.8450 Y10.9777
G01 X45.8284 Y10.9882
G01 X45.7579 Y11.0305
G01 X45.7408 Y11.0402
G01 X45.7232 Y11.0490
G01 X45.6489 Y11.0842
G01 X45.6309 Y11.0921
G01 X45.6126 Y11.0992
G01 X45.5352 Y11.1269
G01 X45.5165 Y11.1331
G01 X45.4976 Y11.1383
G01 X45.4178 Y11.1583
G01 X45.3987 Y11.1626
G01 X45.3793 Y11.1660
G01 X45.2980 Y11.1780
G01 X45.2785 Y11.1804
G01 X45.2589 Y11.1819
G01 X45.1767 Y11.1859
G01 X45.1571 Y11.1864
G01 X45.1375 Y11.1859
G01 X45.0553 Y11.1819
G01 X45.0357 Y11.1804
G01 X45.0162 Y11.1780
G01 X44.9349 Y11.1660
G01 X44.9155 Y11.1626
G01 X44.8964 Y11.1583
G01 X44.8166 Y11.1383
G01 X44.7977 Y11.1331
G01 X44.7790 Y11.1269
G01 X44.7016 Y11.0992
G01 X44.6833 Y11.0921
G01 X44.6653 Y11.0842
G01 X44.5910 Y11.0490
G01 X44.5734 Y11.0402
G01 X44.5563 Y11.0305
G01 X44.4858 Y10.9882
G01 X44.4692 Y10.9777
G01 X44.4531 Y10.9664
G01 X44.3871 Y10.9174
G01 X44.3716 Y10.9053
G01 X44.3567 Y10.8925
G01 X44.2958 Y10.8373
G01 X44.2816 Y10.8237
G01 X44.2680 Y10.8095
G01 X44.2128 Y10.7486
G01 X44.2000 Y10.7337
G01 X44.1879 Y10.7182
G01 X44.1389 Y10.6522
G01 X44.1276 Y10.6361
G01 X44.1171 Y10.6195
G01 X44.0748 Y10.5490
G01 X44.0651 Y10.5319
G01 X44.0563 Y10.5143
G01 X44.0211 Y10.4400
G01 X44.0132 Y10.4220
G01 X44.0061 Y10.4037
G01 X43.9784 Y10.3263
G01 X43.9722 Y10.3076
G01 X43.9670 Y10.2887
G01 X43.9470 Y10.2089
G01 X43.9427 Y10.1898
G01 X43.9393 Y10.1704
G01 X43.9273 Y10.0891
G00 Z2.0000
G00 X47.9913 Y10.0891
G01 F60.00
G01 Z-0.1100
G01 F100.00
G01 X47.9889 Y10.0696
G01 X47.9874 Y10.0500
G01 X47.9834 Y9.9678
G01 X47.9829 Y9.9482
G01 X47.9830 Y9.1148
G01 X47.9874 Y9.0228
G01 X47.9889 Y9.0032
G01 X47.9913 Y8.9837
G01 X48.0033 Y8.9024
G01 X48.0087 Y8.8734
G01 X48.0310 Y8.7841
G01 X48.0362 Y8.7652
G01 X48.0424 Y8.7465
G01 X48.0701 Y8.6691
G01 X48.0772 Y8.6508
G01 X48.0851 Y8.6328
G01 X48.1203 Y8.5585
G01 X48.1291 Y8.5409
G01 X48.1388 Y8.5238
G01 X48.1811 Y8.4533
G01 X48.1971 Y8.4286
G01 X48.2519 Y8.3546
G01 X48.2640 Y8.3391
G01 X48.2768 Y8.3242
G01 X48.3320 Y8.2633
G01 X48.3456 Y8.2491
G01 X48.3598 Y8.2355
G01 X48.4207 Y8.1803
G01 X48.4433 Y8.1613
G01 X48.5171 Y8.1064
G01 X48.5332 Y8.0951
G01 X48.5498 Y8.0846
G01 X48.6203 Y8.0423
G01 X48.6374 Y8.0326
G01 X48.6550 Y8.0238
G01 X48.7293 Y7.9886
G01 X48.7473 Y7.9807
G01 X48.7656 Y7.9736
G01 X48.8430 Y7.9459
G01 X48.8617 Y7.9397
G01 X48.8806 Y7.9345
G01 X48.9604 Y7.9145
G01 X48.9795 Y7.9102
G01 X48.9989 Y7.9068
G01 X49.0802 Y7.8948
G01 X49.0997 Y7.8924
G01 X49.1193 Y7.8909
G01 X49.2015 Y7.8869
G01 X49.2211 Y7.8864
G01 X49.2407 Y7.8869
G01 X49.3229 Y7.8909
G01 X49.3425 Y7.8924
G01 X49.3620 Y7.8948
G01 X49.4433 Y7.9068
G01 X49.4627 Y7.9102
G01 X49.4818 Y7.9145
G01 X49.5616 Y7.9345
G01 X49.5805 Y7.9397
G01 X49.5992 Y7.9459
G01 X49.6766 Y7.9736
G01 X49.6949 Y7.9807
G01 X49.7129 Y7.9886
G01 X49.7872 Y8.0238
G01 X49.8048 Y8.0326
G01 X49.8219 Y8.0423
G01 X49.8924 Y8.0846
G01 X49.9090 Y8.0951
G01 X49.9251 Y8.1064
G01 X49.9911 Y8.1554
G01 X50.0066 Y8.1675
G01 X50.0215 Y8.1803
G01 X50.0824 Y8.2355
G01 X50.0966 Y8.2491
G01 X50.1102 Y8.2633
G01 X50.1654 Y8.3242
G01 X50.1844 Y8.3468
G01 X50.2393 Y8.4206
G01 X50.2506 Y8.4367
G01 X50.2611 Y8.4533
G01 X50.3034 Y8.5238
G01 X50.3176 Y8.5496
G01 X50.3612 Y8.6417
G01 X50.3721 Y8.6691
G01 X50.3998 Y8.7465
G01 X50.4060 Y8.7652
G01 X50.4112 Y8.7841
G01 X50.4312 Y8.8639
G01 X50.4355 Y8.8830
G01 X50.4389 Y8.9024
G01 X50.4509 Y8.9837
G01 X50.4533 Y9.0032
G01 X50.4548 Y9.0228
G01 X50.4592 Y9.1148
G01 X50.4593 Y9.9482
G01 X50.4588 Y9.9678
G01 X50.4542 Y10.0598
G01 X50.4509 Y10.0891
G01 X50.4389 Y10.1704
G01 X50.4355 Y10.1898
G01 X50.4312 Y10.2089
G01 X50.4112 Y10.2887
G01 X50.4060 Y10.3076
G01 X50.3998 Y10.3263
G01 X50.3721 Y10.4037
G01 X50.3650 Y10.4220
G01 X50.3571 Y10.4400
G01 X50.3219 Y10.5143
G01 X50.3131 Y10.5319
G01 X50.3034 Y10.5490
G01 X50.2611 Y10.6195
G01 X50.2506 Y10.6361
G01 X50.2393 Y10.6522
G01 X50.1903 Y10.7182
G01 X50.1782 Y10.7337
G01 X50.1654 Y10.7486
G01 X50.1102 Y10.8095
G01 X50.0966 Y10.8237
G01 X50.0824 Y10.8373
G01 X50.0215 Y10.8925
G01 X49.9989 Y10.9115
G01 X49.9251 Y10.9664
G01 X49.9090 Y10.9777
G01 X49.8924 Y10.9882
G01 X49.8219 Y11.0305
G01 X49.8048 Y11.0402
G01 X49.7872 Y11.0490
G01 X49.7129 Y11.0842
G01 X49.6949 Y11.0921
G01 X49.6766 Y11.0992
G01 X49.5992 Y11.1269
G01 X49.5805 Y11.1331
G01 X49.5616 Y11.1383
G01 X49.4818 Y11.1583
G01 X49.4627 Y11.1626
G01 X49.4433 Y11.1660
G01 X49.3620 Y11.1780
G01 X49.3425 Y11.1804
G01 X49.3229 Y11.1819
G01 X49.2407 Y11.1859
G01 X49.2211 Y11.1864
G01 X49.2015 Y11.1859
G01 X49.1193 Y11.1819
G01 X49.0997 Y11.1804
G01 X49.0802 Y11.1780
G01 X48.9989 Y11.1660
G01 X48.9795 Y11.1626
G01 X48.9604 Y11.1583
G01 X48.8806 Y11.1383
G01 X48.8617 Y11.1331
G01 X48.8430 Y11.1269
G01 X48.7656 Y11.0992
G01 X48.7473 Y11.0921
G01 X48.7293 Y11.0842
G01 X48.6550 Y11.0490
G01 X48.6374 Y11.0402
G01 X48.6203 Y11.0305
G01 X48.5498 Y10.9882
G01 X48.5332 Y10.9777
G01 X48.5171 Y10.9664
G01 X48.4511 Y10.9174
G01 X48.4356 Y10.9053
G01 X48.4207 Y10.8925
G01 X48.3598 Y10.8373
G01 X48.3456 Y10.8237
G01 X48.3320 Y10.8095
G01 X48.2768 Y10.7486
G01 X48.2640 Y10.7337
G01 X48.2519 Y10.7182
G01 X48.2029 Y10.6522
G01 X48.1916 Y10.6361
G01 X48.1811 Y10.6195
G01 X48.1388 Y10.5490
G01 X48.1291 Y10.5319
G01 X48.1203 Y10.5143
G01 X48.0851 Y10.4400
G01 X48.0772 Y10.4220
G01 X48.0701 Y10.4037
G01 X48.0424 Y10.3263
G01 X48.0362 Y10.3076
G01 X48.0310 Y10.2887
G01 X48.0110 Y10.2089
G01 X48.0067 Y10.1898
G01 X48.0033 Y10.1704
G01 X47.9913 Y10.0891
G00 Z2.0000
G00 X50.5313 Y10.0891
G01 F60.00
G01 Z-0.1100
G01 F100.00
G01 X50.5289 Y10.0696
G01 X50.5274 Y10.0500
G01 X50.5234 Y9.9678
G01 X50.5229 Y9.9482
G01 X50.5230 Y9.1148
G01 X50.5274 Y9.0228
G01 X50.5289 Y9.0032
G01 X50.5313 Y8.9837
G01 X50.5433 Y8.9024
G01 X50.5487 Y8.8734
G01 X50.5710 Y8.7841
G01 X50.5762 Y8.7652
G01 X50.5824 Y8.7465
G01 X50.6101 Y8.6691
G01 X50.6172 Y8.6508
G01 X50.6251 Y8.6328
G01 X50.6603 Y8.5585
G01 X50.6691 Y8.5409
G01 X50.6788 Y8.5238
G01 X50.7211 Y8.4533
G01 X50.7371 Y8.4286
G01 X50.7919 Y8.3546
G01 X50.8040 Y8.3391
G01 X50.8168 Y8.3242
G01 X50.8720 Y8.2633
G01 X50.8856 Y8.2491
G01 X50.8998 Y8.2355
G01 X50.9607 Y8.1803
G01 X50.9833 Y8.1613
G01 X51.0571 Y8.1064
G01 X51.0732 Y8.0951
G01 X51.0898 Y8.0846
G01 X51.1603 Y8.0423
G01 X51.1774 Y8.0326
G01 X51.1950 Y8.0238
G01 X51.2693 Y7.9886
G01 X51.2873 Y7.9807
G01 X51.3056 Y7.9736
G01 X51.3830 Y7.9459
G01 X51.4017 Y7.9397
G01 X51.4206 Y7.9345
G01 X51.5004 Y7.9145
G01 X51.5195 Y7.9102
G01 X51.5389 Y7.9068
G01 X51.6202 Y7.8948
G01 X51.6397 Y7.8924
G01 X51.6593 Y7.8909
G01 X51.7415 Y7.8869
G01 X51.7611 Y7.8864
G01 X51.7807 Y7.8869
G01 X51.8629 Y7.8909
G01 X51.8825 Y7.8924
G01 X51.9020 Y7.8948
G01 X51.9833 Y7.9068
G01 X52.0027 Y7.9102
G01 X52.0218 Y7.9145
G01 X52.1016 Y7.9345
G01 X52.1205 Y7.9397
G01 X52.1392 Y7.9459
G01 X52.2166 Y7.9736
G01 X52.2349 Y7.9807
G01 X52.2529 Y7.9886
G01 X52.3272 Y8.0238
G01 X52.3448 Y8.0326
G01 X52.3619 Y8.0423
G01 X52.4324 Y8.0846
G01 X52.4490 Y8.0951
G01 X52.4651 Y8.1064
G01 X52.5311 Y8.1554
G01 X52.5466 Y8.1675
G01 X52.5615 Y8.1803
G01 X52.6224 Y8.2355
G01 X52.6366 Y8.2491
G01 X52.6502 Y8.2633
G01 X52.7054 Y8.3242
G01 X52.7244 Y8.3468
G01 X52.7793 Y8.4206
G01 X52.7906 Y8.4367
G01 X52.8011 Y8.4533
G01 X52.8434 Y8.5238
G01 X52.8576 Y8.5496
G01 X52.9012 Y8.6417
G01 X52.9121 Y8.6691
G01 X52.9398 Y8.7465
G01 X52.9460 Y8.7652
G01 X52.9512 Y8.7841
G01 X52.9712 Y8.8639
G01 X52.9755 Y8.8830
G01 X52.9789 Y8.9024
G01 X52.9909 Y8.9837
G01 X52.9933 Y9.0032
G01 X52.9948 Y9.0228
G01 X52.9992 Y9.1148
G01 X52.9993 Y9.9482
G01 X52.9988 Y9.9678
G01 X52.9942 Y10.0598
G01 X52.9909 Y10.0891
G01 X52.9789 Y10.1704
G01 X52.9755 Y10.1898
G01 X52.9712 Y10.2089
G01 X52.9512 Y10.2887
G01 X52.9460 Y10.3076
G01 X52.9398 Y10.3263
G01 X52.9121 Y10.4037
G01 X52.9050 Y10.4220
G01 X52.8971 Y10.4400
G01 X52.8619 Y10.5143
G01 X52.8531 Y10.5319
G01 X52.8434 Y10.5490
G01 X52.8011 Y10.6195
G01 X52.7906 Y10.6361
G01 X52.7793 Y10.6522
G01 X52.7303 Y10.7182
G01 X52.7182 Y10.7337
G01 X52.7054 Y10.7486
G01 X52.6502 Y10.8095
G01 X52.6366 Y10.8237
G01 X52.6224 Y10.8373
G01 X52.5615 Y10.8925
G01 X52.5389 Y10.9115
G01 X52.4651 Y10.9664
G01 X52.4490 Y10.9777
G01 X52.4324 Y10.9882
G01 X52.3619 Y11.0305
G01 X52.3448 Y11.0402
G01 X52.3272 Y11.0490
G01 X52.2529 Y11.0842
G01 X52.2349 Y11.0921
G01 X52.2166 Y11.0992
G01 X52.1392 Y11.1269
G01 X52.1205 Y11.1331
G01 X52.1016 Y11.1383
G01 X52.0218 Y11.1583
G01 X52.0027 Y11.1626
G01 X51.9833 Y11.1660
G01 X51.9020 Y11.1780
G01 X51.8825 Y11.1804
G01 X51.8629 Y11.1819
G01 X51.7807 Y11.1859
G01 X51.7611 Y11.1864
G01 X51.7415 Y11.1859
G01 X51.6593 Y11.1819
G01 X51.6397 Y11.1804
G01 X51.6202 Y11.1780
G01 X51.5389 Y11.1660
G01 X51.5195 Y11.1626
G01 X51.5004 Y11.1583
G01 X51.4206 Y11.1383
G01 X51.4017 Y11.1331
G01 X51.3830 Y11.1269
G01 X51.3056 Y11.0992
G01 X51.2873 Y11.0921
G01 X51.2693 Y11.0842
G01 X51.1950 Y11.0490
G01 X51.1774 Y11.0402
G01 X51.1603 Y11.0305
G01 X51.0898 Y10.9882
G01 X51.0732 Y10.9777
G01 X51.0571 Y10.9664
G01 X50.9911 Y10.9174
G01 X50.9756 Y10.9053
G01 X50.9607 Y10.8925
G01 X50.8998 Y10.8373
G01 X50.8856 Y10.8237
G01 X50.8720 Y10.8095
G01 X50.8168 Y10.7486
G01 X50.8040 Y10.7337
G01 X50.7919 Y10.7182
G01 X50.7429 Y10.6522
G01 X50.7316 Y10.6361
G01 X50.7211 Y10.6195
G01 X50.6788 Y10.5490
G01 X50.6691 Y10.5319
G01 X50.6603 Y10.5143
G01 X50.6251 Y10.4400
G01 X50.6172 Y10.4220
G01 X50.6101 Y10.4037
G01 X50.5824 Y10.3263
G01 X50.5762 Y10.3076
G01 X50.5710 Y10.2887
G01 X50.5510 Y10.2089
G01 X50.5467 Y10.1898
G01 X50.5433 Y10.1704
G01 X50.5313 Y10.0891
G00 Z2.0000
G00 X53.0713 Y10.0891
G01 F60.00
G01 Z-0.1100
G01 F100.00
G01 X53.0689 Y10.0696
G01 X53.0674 Y10.0500
G01 X53.0634 Y9.9678
G01 X53.0629 Y9.9482
G01 X53.0630 Y9.1148
G01 X53.0674 Y9.0228
G01 X53.0689 Y9.0032
G01 X53.0713 Y8.9837
G01 X53.0833 Y8.9024
G01 X53.0887 Y8.8734
G01 X53.1110 Y8.7841
G01 X53.1162 Y8.7652
G01 X53.1224 Y8.7465
G01 X53.1501 Y8.6691
G01 X53.1572 Y8.6508
G01 X53.1651 Y8.6328
G01 X53.2003 Y8.5585
G01 X53.2091 Y8.5409
G01 X53.2188 Y8.5238
G01 X53.2611 Y8.4533
G01 X53.2771 Y8.4286
G01 X53.3319 Y8.3546
G01 X53.3440 Y8.3391
G01 X53.3568 Y8.3242
G01 X53.4120 Y8.2633
G01 X53.4256 Y8.2491
G01 X53.4398 Y8.2355
G01 X53.5007 Y8.1803
G01 X53.5233 Y8.1613
G01 X53.5971 Y8.1064
G01 X53.6132 Y8.0951
G01 X53.6298 Y8.0846
G01 X53.7003 Y8.0423
G01 X53.7174 Y8.0326
G01 X53.7350 Y8.0238
G01 X53.8093 Y7.9886
G01 X53.8273 Y7.9807
G01 X53.8456 Y7.9736
G01 X53.9230 Y7.9459
G01 X53.9417 Y7.9397
G01 X53.9606 Y7.9345
G01 X54.0404 Y7.9145
G01 X54.0595 Y7.9102
G01 X54.0789 Y7.9068
G01 X54.1602 Y7.8948
G01 X54.1797 Y7.8924
G01 X54.1993 Y7.8909
G01 X54.2815 Y7.8869
G01 X54.3011 Y7.8864
G01 X54.3207 Y7.8869
G01 X54.4029 Y7.8909
G01 X54.4225 Y7.8924
G01 X54.4420 Y7.8948
G01 X54.5233 Y7.9068
G01 X54.5427 Y7.9102
G01 X54.5618 Y7.9145
G01 X54.6416 Y7.9345
G01 X54.6605 Y7.9397
G01 X54.6792 Y7.9459
G01 X54.7566 Y7.9736
G01 X54.7749 Y7.9807
G01 X54.7929 Y7.9886
G01 X54.8672 Y8.0238
G01 X54.8848 Y8.0326
G01 X54.9019 Y8.0423
G01 X54.9724 Y8.0846
G01 X54.9890 Y8.0951
G01 X55.0051 Y8.1064
G01 X55.0711 Y8.1554
G01 X55.0866 Y8.1675
G01 X55.1015 Y8.1803
G01 X55.1624 Y8.2355
G01 X55.1766 Y8.2491
G01 X55.1902 Y8.2633
G01 X55.2454 Y8.3242
G01 X55.2644 Y8.3468
G01 X55.3193 Y8.4206
G01 X55.3306 Y8.4367
G01 X55.3411 Y8.4533
G01 X55.3834 Y8.5238
G01 X55.3976 Y8.5496
G01 X55.4412 Y8.6417
G01 X55.4521 Y8.6691
G01 X55.4798 Y8.7465
G01 X55.4860 Y8.7652
G01 X55.4912 Y8.7841
G01 X55.5112 Y8.8639
G01 X55.5155 Y8.8830
G01 X55.5189 Y8.9024
G01 X55.5309 Y8.9837
G01 X55.5333 Y9.0032
G01 X55.5348 Y9.0228
G01 X55.5392 Y9.1148
G01 X55.5393 Y9.9482
G01 X55.5388 Y9.9678
G01 X55.5342 Y10.0598
G01 X55.5309 Y10.0891
G01 X55.5189 Y10.1704
G01 X55.5155 Y10.1898
G01 X55.5112 Y10.2089
G01 X55.4912 Y10.2887
G01 X55.4860 Y10.3076
G01 X55.4798 Y10.3263
G01 X55.4521 Y10.4037
G01 X55.4450 Y10.4220
G01 X55.4371 Y10.4400
G01 X55.4019 Y10.5143
G01 X55.3931 Y10.5319
G01 X55.3834 Y10.5490
G01 X55.3411 Y10.6195
G01 X55.3306 Y10.6361
G01 X55.3193 Y10.6522
G01 X55.2703 Y10.7182
G01 X55.2582 Y10.7337
G01 X55.2454 Y10.7486
G01 X55.1902 Y10.8095
G01 X55.1766 Y10.8237
G01 X55.1624 Y10.8373
G01 X55.1015 Y10.8925
G01 X55.0789 Y10.9115
G01 X55.0051 Y10.9664
G01 X54.9890 Y10.9777
G01 X54.9724 Y10.9882
G01 X54.9019 Y11.0305
G01 X54.8848 Y11.0402
G01 X54.8672 Y11.0490
G01 X54.7929 Y11.0842
G01 X54.7749 Y11.0921
G01 X54.7566 Y11.0992
G01 X54.6792 Y11.1269
G01 X54.6605 Y11.1331
G01 X54.6416 Y11.1383
G01 X54.5618 Y11.1583
G01 X54.5427 Y11.1626
G01 X54.5233 Y11.1660
G01 X54.4420 Y11.1780
G01 X54.4225 Y11.1804
G01 X54.4029 Y11.1819
G01 X54.3207 Y11.1859
G01 X54.3011 Y11.1864
G01 X54.2815 Y11.1859
G01 X54.1993 Y11.1819
G01 X54.1797 Y11.1804
G01 X54.1602 Y11.1780
G01 X54.0789 Y11.1660
G01 X54.0595 Y11.1626
G01 X54.0404 Y11.1583
G01 X53.9606 Y11.1383
G01 X53.9417 Y11.1331
G01 X53.9230 Y11.1269
G01 X53.8456 Y11.0992
G01 X53.8273 Y11.0921
G01 X53.8093 Y11.0842
G01 X53.7350 Y11.0490
G01 X53.7174 Y11.0402
G01 X53.7003 Y11.0305
G01 X53.6298 Y10.9882
G01 X53.6132 Y10.9777
G01 X53.5971 Y10.9664
G01 X53.5311 Y10.9174
G01 X53.5156 Y10.9053
G01 X53.5007 Y10.8925
G01 X53.4398 Y10.8373
G01 X53.4256 Y10.8237
G01 X53.4120 Y10.8095
G01 X53.3568 Y10.7486
G01 X53.3440 Y10.7337
G01 X53.3319 Y10.7182
G01 X53.2829 Y10.6522
G01 X53.2716 Y10.6361
G01 X53.2611 Y10.6195
G01 X53.2188 Y10.5490
G01 X53.2091 Y10.5319
G01 X53.2003 Y10.5143
G01 X53.1651 Y10.4400
G01 X53.1572 Y10.4220
G01 X53.1501 Y10.4037
G01 X53.1224 Y10.3263
G01 X53.1162 Y10.3076
G01 X53.1110 Y10.2887
G01 X53.0910 Y10.2089
G01 X53.0867 Y10.1898
G01 X53.0833 Y10.1704
G01 X53.0713 Y10.0891
G00 Z2.0000
G00 X55.6113 Y10.0891
G01 F60.00
G01 Z-0.1100
G01 F100.00
G01 X55.6089 Y10.0696
G01 X55.6074 Y10.0500
G01 X55.6034 Y9.9678
G01 X55.6029 Y9.9482
G01 X55.6030 Y9.1148
G01 X55.6074 Y9.0228
G01 X55.6089 Y9.0032
G01 X55.6113 Y8.9837
G01 X55.6233 Y8.9024
G01 X55.6287 Y8.8734
G01 X55.6510 Y8.7841
G01 X55.6562 Y8.7652
G01 X55.6624 Y8.7465
G01 X55.6901 Y8.6691
G01 X55.6972 Y8.6508
G01 X55.7051 Y8.6328
G01 X55.7403 Y8.5585
G01 X55.7491 Y8.5409
G01 X55.7588 Y8.5238
G01 X55.8011 Y8.4533
G01 X55.8171 Y8.4286
G01 X55.8719 Y8.3546
G01 X55.8840 Y8.3391
G01 X55.8968 Y8.3242
G01 X55.9520 Y8.2633
G01 X55.9656 Y8.2491
G01 X55.9798 Y8.2355
G01 X56.0407 Y8.1803
G01 X56.0633 Y8.1613
G01 X56.1371 Y8.1064
G01 X56.1532 Y8.0951
G01 X56.1698 Y8.0846
G01 X56.2403 Y8.0423
G01 X56.2574 Y8.0326
G01 X56.2750 Y8.0238
G01 X56.3493 Y7.9886
G01 X56.3673 Y7.9807
G01 X56.3856 Y7.9736
G01 X56.4630 Y7.9459
G01 X56.4817 Y7.9397
G01 X56.5006 Y7.9345
G01 X56.5804 Y7.9145
G01 X56.5995 Y7.9102
G01 X56.6189 Y7.9068
G01 X56.7002 Y7.8948
G01 X56.7197 Y7.8924
G01 X56.7393 Y7.8909
G01 X56.8215 Y7.8869
G01 X56.8411 Y7.8864
G01 X56.8607 Y7.8869
G01 X56.9429 Y7.8909
G01 X56.9625 Y7.8924
G01 X56.9820 Y7.8948
G01 X57.0633 Y7.9068
G01 X57.0827 Y7.9102
G01 X57.1018 Y7.9145
G01 X57.1816 Y7.9345
G01 X57.2005 Y7.9397
G01 X57.2192 Y7.9459
G01 X57.2966 Y7.9736
G01 X57.3149 Y7.9807
G01 X57.3329 Y7.9886
G01 X57.4072 Y8.0238
G01 X57.4248 Y8.0326
G01 X57.4419 Y8.0423
G01 X57.5124 Y8.0846
G01 X57.5290 Y8.0951
G01 X57.5451 Y8.1064
G01 X57.6111 Y8.1554
G01 X57.6266 Y8.1675
G01 X57.6415 Y8.1803
G01 X57.7024 Y8.2355
G01 X57.7166 Y8.2491
G01 X57.7302 Y8.2633
G01 X57.7854 Y8.3242
G01 X57.8044 Y8.3468
G01 X57.8593 Y8.4206
G01 X57.8706 Y8.4367
G01 X57.8811 Y8.4533
G01 X57.9234 Y8.5238
G01 X57.9376 Y8.5496
G01 X57.9812 Y8.6417
G01 X57.9921 Y8.6691
G01 X58.0198 Y8.7465
G01 X58.0260 Y8.7652
G01 X58.0312 Y8.7841
G01 X58.0512 Y8.8639
G01 X58.0555 Y8.8830
G01 X58.0589 Y8.9024
G01 X58.0709 Y8.9837
G01 X58.0733 Y9.0032
G01 X58.0748 Y9.0228
G01 X58.0792 Y9.1148
G01 X58.0793 Y9.9482
G01 X58.0788 Y9.9678
G01 X58.0742 Y10.0598
G01 X58.0709 Y10.0891
G01 X58.0589 Y10.1704
G01 X58.0555 Y10.1898
G01 X58.0512 Y10.2089
G01 X58.0312 Y10.2887
G01 X58.0260 Y10.3076
G01 X58.0198 Y10.3263
G01 X57.9921 Y10.4037
G01 X57.9850 Y10.4220
G01 X57.9771 Y10.4400
G01 X57.9419 Y10.5143
G01 X57.9331 Y10.5319
G01 X57.9234 Y10.5490
G01 X57.8811 Y10.6195
G01 X57.8706 Y10.6361
G01 X57.8593 Y10.6522
G01 X57.8103 Y10.7182
G01 X57.7982 Y10.7337
G01 X57.7854 Y10.7486
G01 X57.7302 Y10.8095
G01 X57.7166 Y10.8237
G01 X57.7024 Y10.8373
G01 X57.6415 Y10.8925
G01 X57.6189 Y10.9115
G01 X57.5451 Y10.9664
G01 X57.5290 Y10.9777
G01 X57.5124 Y10.9882
G01 X57.4419 Y11.0305
G01 X57.4248 Y11.0402
G01 X57.4072 Y11.0490
G01 X57.3329 Y11.0842
G01 X57.3149 Y11.0921
G01 X57.2966 Y11.0992
G01 X57.2192 Y11.1269
G01 X57.2005 Y11.1331
G01 X57.1816 Y11.1383
G01 X57.1018 Y11.1583
G01 X57.0827 Y11.1626
G01 X57.0633 Y11.1660
G01 X56.9820 Y11.1780
G01 X56.9625 Y11.1804
G01 X56.9429 Y11.1819
G01 X56.8607 Y11.1859
G01 X56.8411 Y11.1864
G01 X56.8215 Y11.1859
G01 X56.7393 Y11.1819
G01 X56.7197 Y11.1804
G01 X56.7002 Y11.1780
G01 X56.6189 Y11.1660
G01 X56.5995 Y11.1626
G01 X56.5804 Y11.1583
G01 X56.5006 Y11.1383
G01 X56.4817 Y11.1331
G01 X56.4630 Y11.1269
G01 X56.3856 Y11.0992
G01 X56.3673 Y11.0921
G01 X56.3493 Y11.0842
G01 X56.2750 Y11.0490
G01 X56.2574 Y11.0402
G01 X56.2403 Y11.0305
G01 X56.1698 Y10.9882
G01 X56.1532 Y10.9777
G01 X56.1371 Y10.9664
G01 X56.0711 Y10.9174
G01 X56.0556 Y10.9053
G01 X56.0407 Y10.8925
G01 X55.9798 Y10.8373
G01 X55.9656 Y10.8237
G01 X55.9520 Y10.8095
G01 X55.8968 Y10.7486
G01 X55.8840 Y10.7337
G01 X55.8719 Y10.7182
G01 X55.8229 Y10.6522
G01 X55.8116 Y10.6361
G01 X55.8011 Y10.6195
G01 X55.7588 Y10.5490
G01 X55.7491 Y10.5319
G01 X55.7403 Y10.5143
G01 X55.7051 Y10.4400
G01 X55.6972 Y10.4220
G01 X55.6901 Y10.4037
G01 X55.6624 Y10.3263
G01 X55.6562 Y10.3076
G01 X55.6510 Y10.2887
G01 X55.6310 Y10.2089
G01 X55.6267 Y10.1898
G01 X55.6233 Y10.1704
G01 X55.6113 Y10.0891
G00 Z2.0000
G00 X58.1513 Y10.0891
G01 F60.00
G01 Z-0.1100
G01 F100.00
G01 X58.1489 Y10.0696
G01 X58.1474 Y10.0500
G01 X58.1434 Y9.9678
G01 X58.1429 Y9.9482
G01 X58.1430 Y9.1148
G01 X58.1474 Y9.0228
G01 X58.1489 Y9.0032
G01 X58.1513 Y8.9837
G01 X58.1633 Y8.9024
G01 X58.1687 Y8.8734
G01 X58.1910 Y8.7841
G01 X58.1962 Y8.7652
G01 X58.2024 Y8.7465
G01 X58.2301 Y8.6691
G01 X58.2372 Y8.6508
G01 X58.2451 Y8.6328
G01 X58.2803 Y8.5585
G01 X58.2891 Y8.5409
G01 X58.2988 Y8.5238
G01 X58.3411 Y8.4533
G01 X58.3571 Y8.4286
G01 X58.4119 Y8.3546
G01 X58.4240 Y8.3391
G01 X58.4368 Y8.3242
G01 X58.4920 Y8.2633
G01 X58.5056 Y8.2491
G01 X58.5198 Y8.2355
G01 X58.5807 Y8.1803
G01 X58.6033 Y8.1613
G01 X58.6771 Y8.1064
G01 X58.6932 Y8.0951
G01 X58.7098 Y8.0846
G01 X58.7803 Y8.0423
G01 X58.7974 Y8.0326
G01 X58.8150 Y8.0238
G01 X58.8893 Y7.9886
G01 X58.9073 Y7.9807
G01 X58.9256 Y7.9736
G01 X59.0030 Y7.9459
G01 X59.0217 Y7.9397
G01 X59.0406 Y7.9345
G01 X59.1204 Y7.9145
G01 X59.1395 Y7.9102
G01 X59.1589 Y7.9068
G01 X59.2402 Y7.8948
G01 X59.2597 Y7.8924
G01 X59.2793 Y7.8909
G01 X59.3615 Y7.8869
G01 X59.3811 Y7.8864
G01 X59.4007 Y7.8869
G01 X59.4829 Y7.8909
G01 X59.5025 Y7.8924
G01 X59.5220 Y7.8948
G01 X59.6033 Y7.9068
G01 X59.6227 Y7.9102
G01 X59.6418 Y7.9145
G01 X59.7216 Y7.9345
G01 X59.7405 Y7.9397
G01 X59.7592 Y7.9459
G01 X59.8366 Y7.9736
G01 X59.8549 Y7.9807
G01 X59.8729 Y7.9886
G01 X59.9472 Y8.0238
G01 X59.9648 Y8.0326
G01 X59.9819 Y8.0423
G01 X60.0524 Y8.0846
G01 X60.0690 Y8.0951
G01 X60.0851 Y8.1064
G01 X60.1511 Y8.1554
G01 X60.1666 Y8.1675
G01 X60.1815 Y8.1803
G01 X60.2424 Y8.2355
G01 X60.2566 Y8.2491
G01 X60.2702 Y8.2633
G01 X60.3254 Y8.3242
G01 X60.3444 Y8.3468
G01 X60.3993 Y8.4206
G01 X60.4106 Y8.4367
G01 X60.4211 Y8.4533
G01 X60.4634 Y8.5238
G01 X60.4776 Y8.5496
G01 X60.5212 Y8.6417
G01 X60.5321 Y8.6691
G01 X60.5598 Y8.7465
G01 X60.5660 Y8.7652
G01 X60.5712 Y8.7841
G01 X60.5912 Y8.8639
G01 X60.5955 Y8.8830
G01 X60.5989 Y8.9024
G01 X60.6109 Y8.9837
G01 X60.6133 Y9.0032
G01 X60.6148 Y9.0228
G01 X60.6192 Y9.1148
G01 X60.6193 Y9.9482
G01 X60.6188 Y9.9678
G01 X60.6142 Y10.0598
G01 X60.6109 Y10.0891
G01 X60.5989 Y10.1704
G01 X60.5955 Y10.1898
G01 X60.5912 Y10.2089
G01 X60.5712 Y10.2887
G01 X60.5660 Y10.3076
G01 X60.5598 Y10.3263
G01 X60.5321 Y10.4037
G01 X60.5250 Y10.4220
G01 X60.5171 Y10.4400
G01 X60.4819 Y10.5143
G01 X60.4731 Y10.5319
G01 X60.4634 Y10.5490
G01 X60.4211 Y10.6195
G01 X60.4106 Y10.6361
G01 X60.3993 Y10.6522
G01 X60.3503 Y10.7182
G01 X60.3382 Y10.7337
G01 X60.3254 Y10.7486
G01 X60.2702 Y10.8095
G01 X60.2566 Y10.8237
G01 X60.2424 Y10.8373
G01 X60.1815 Y10.8925
G01 X60.1589 Y10.9115
G01 X60.0851 Y10.9664
G01 X60.0690 Y10.9777
G01 X60.0524 Y10.9882
G01 X59.9819 Y11.0305
G01 X59.9648 Y11.0402
G01 X59.9472 Y11.0490
G01 X59.8729 Y11.0842
G01 X59.8549 Y11.0921
G01 X59.8366 Y11.0992
G01 X59.7592 Y11.1269
G01 X59.7405 Y11.1331
G01 X59.7216 Y11.1383
G01 X59.6418 Y11.1583
G01 X59.6227 Y11.1626
G01 X59.6033 Y11.1660
G01 X59.5220 Y11.1780
G01 X59.5025 Y11.1804
G01 X59.4829 Y11.1819
G01 X59.4007 Y11.1859
G01 X59.3811 Y11.1864
G01 X59.3615 Y11.1859
G01 X59.2793 Y11.1819
G01 X59.2597 Y11.1804
G01 X59.2402 Y11.1780
G01 X59.1589 Y11.1660
G01 X59.1395 Y11.1626
G01 X59.1204 Y11.1583
G01 X59.0406 Y11.1383
G01 X59.0217 Y11.1331
G01 X59.0030 Y11.1269
G01 X58.9256 Y11.0992
G01 X58.9073 Y11.0921
G01 X58.8893 Y11.0842
G01 X58.8150 Y11.0490
G01 X58.7974 Y11.0402
G01 X58.7803 Y11.0305
G01 X58.7098 Y10.9882
G01 X58.6932 Y10.9777
G01 X58.6771 Y10.9664
G01 X58.6111 Y10.9174
G01 X58.5956 Y10.9053
G01 X58.5807 Y10.8925
G01 X58.5198 Y10.8373
G01 X58.5056 Y10.8237
G01 X58.4920 Y10.8095
G01 X58.4368 Y10.7486
G01 X58.4240 Y10.7337
G01 X58.4119 Y10.7182
G01 X58.3629 Y10.6522
G01 X58.3516 Y10.6361
G01 X58.3411 Y10.6195
G01 X58.2988 Y10.5490
G01 X58.2891 Y10.5319
G01 X58.2803 Y10.5143
G01 X58.2451 Y10.4400
G01 X58.2372 Y10.4220
G01 X58.2301 Y10.4037
G01 X58.2024 Y10.3263
G01 X58.1962 Y10.3076
G01 X58.1910 Y10.2887
G01 X58.1710 Y10.2089
G01 X58.1667 Y10.1898
G01 X58.1633 Y10.1704
G01 X58.1513 Y10.0891
G00 Z2.0000
G00 X60.6913 Y10.0891
G01 F60.00
G01 Z-0.1100
G01 F100.00
G01 X60.6889 Y10.0696
G01 X60.6874 Y10.0500
G01 X60.6834 Y9.9678
G01 X60.6829 Y9.9482
G01 X60.6830 Y9.1148
G01 X60.6874 Y9.0228
G01 X60.6889 Y9.0032
G01 X60.6913 Y8.9837
G01 X60.7033 Y8.9024
G01 X60.7087 Y8.8734
G01 X60.7310 Y8.7841
G01 X60.7362 Y8.7652
G01 X60.7424 Y8.7465
G01 X60.7701 Y8.6691
G01 X60.7772 Y8.6508
G01 X60.7851 Y8.6328
G01 X60.8203 Y8.5585
G01 X60.8291 Y8.5409
G01 X60.8388 Y8.5238
G01 X60.8811 Y8.4533
G01 X60.8971 Y8.4286
G01 X60.9519 Y8.3546
G01 X60.9640 Y8.3391
G01 X60.9768 Y8.3242
G01 X61.0320 Y8.2633
G01 X61.0456 Y8.2491
G01 X61.0598 Y8.2355
G01 X61.1207 Y8.1803
G01 X61.1433 Y8.1613
G01 X61.2171 Y8.1064
G01 X61.2332 Y8.0951
G01 X61.2498 Y8.0846
G01 X61.3203 Y8.0423
G01 X61.3374 Y8.0326
G01 X61.3550 Y8.0238
G01 X61.4293 Y7.9886
G01 X61.4473 Y7.9807
G01 X61.4656 Y7.9736
G01 X61.5430 Y7.9459
G01 X61.5617 Y7.9397
G01 X61.5806 Y7.9345
G01 X61.6604 Y7.9145
G01 X61.6795 Y7.9102
G01 X61.6989 Y7.9068
G01 X61.7802 Y7.8948
G01 X61.7997 Y7.8924
G01 X61.8193 Y7.8909
G01 X61.9015 Y7.8869
G01 X61.9211 Y7.8864
G01 X61.9407 Y7.8869
G01 X62.0229 Y7.8909
G01 X62.0425 Y7.8924
G01 X62.0620 Y7.8948
G01 X62.1433 Y7.9068
G01 X62.1627 Y7.9102
G01 X62.1818 Y7.9145
G01 X62.2616 Y7.9345
G01 X62.2805 Y7.9397
G01 X62.2992 Y7.9459
G01 X62.3766 Y7.9736
G01 X62.3949 Y7.9807
G01 X62.4129 Y7.9886
G01 X62.4872 Y8.0238
G01 X62.5048 Y8.0326
G01 X62.5219 Y8.0423
G01 X62.5924 Y8.0846
G01 X62.6090 Y8.0951
G01 X62.6251 Y8.1064
G01 X62.6911 Y8.1554
G01 X62.7066 Y8.1675
G01 X62.7215 Y8.1803
G01 X62.7824 Y8.2355
G01 X62.7966 Y8.2491
G01 X62.8102 Y8.2633
G01 X62.8654 Y8.3242
G01 X62.8844 Y8.3468
G01 X62.9393 Y8.4206
G01 X62.9506 Y8.4367
G01 X62.9611 Y8.4533
G01 X63.0034 Y8.5238
G01 X63.0176 Y8.5496
G01 X63.0612 Y8.6417
G01 X63.0721 Y8.6691
G01 X63.0998 Y8.7465
G01 X63.1060 Y8.7652
G01 X63.1112 Y8.7841
G01 X63.1312 Y8.8639
G01 X63.1355 Y8.8830
G01 X63.1389 Y8.9024
G01 X63.1509 Y8.9837
G01 X63.1533 Y9.0032
G01 X63.1548 Y9.0228
G01 X63.1592 Y9.1148
G01 X63.1593 Y9.9482
G01 X63.1588 Y9.9678
G01 X63.1542 Y10.0598
G01 X63.1509 Y10.0891
G01 X63.1389 Y10.1704
G01 X63.1355 Y10.1898
G01 X63.1312 Y10.2089
G01 X63.1112 Y10.2887
G01 X63.1060 Y10.3076
G01 X63.0998 Y10.3263
G01 X63.0721 Y10.4037
G01 X63.0650 Y10.4220
G01 X63.0571 Y10.4400
G01 X63.0219 Y10.5143
G01 X63.0131 Y10.5319
G01 X63.0034 Y10.5490
G01 X62.9611 Y10.6195
G01 X62.9506 Y10.6361
G01 X62.9393 Y10.6522
G01 X62.8903 Y10.7182
G01 X62.8782 Y10.7337
G01 X62.8654 Y10.7486
G01 X62.8102 Y10.8095
G01 X62.7966 Y10.8237
G01 X62.7824 Y10.8373
G01 X62.7215 Y10.8925
G01 X62.6989 Y10.9115
G01 X62.6251 Y10.9664
G01 X62.6090 Y10.9777
G01 X62.5924 Y10.9882
G01 X62.5219 Y11.0305
G01 X62.5048 Y11.0402
G01 X62.4872 Y11.0490
G01 X62.4129 Y11.0842
G01 X62.3949 Y11.0921
G01 X62.3766 Y11.0992
G01 X62.2992 Y11.1269
G01 X62.2805 Y11.1331
G01 X62.2616 Y11.1383
G01 X62.1818 Y11.1583
G01 X62.1627 Y11.1626
G01 X62.1433 Y11.1660
G01 X62.0620 Y11.1780
G01 X62.0425 Y11.1804
G01 X62.0229 Y11.1819
G01 X61.9407 Y11.1859
G01 X61.9211 Y11.1864
G01 X61.9015 Y11.1859
G01 X61.8193 Y11.1819
G01 X61.7997 Y11.1804
G01 X61.7802 Y11.1780
G01 X61.6989 Y11.1660
G01 X61.6795 Y11.1626
G01 X61.6604 Y11.1583
G01 X61.5806 Y11.1383
G01 X61.5617 Y11.1331
G01 X61.5430 Y11.1269
G01 X61.4656 Y11.0992
G01 X61.4473 Y11.0921
G01 X61.4293 Y11.0842
G01 X61.3550 Y11.0490
G01 X61.3374 Y11.0402
G01 X61.3203 Y11.0305
G01 X61.2498 Y10.9882
G01 X61.2332 Y10.9777
G01 X61.2171 Y10.9664
G01 X61.1511 Y10.9174
G01 X61.1356 Y10.9053
G01 X61.1207 Y10.8925
G01 X61.0598 Y10.8373
G01 X61.0456 Y10.8237
G01 X61.0320 Y10.8095
G01 X60.9768 Y10.7486
G01 X60.9640 Y10.7337
G01 X60.9519 Y10.7182
G01 X60.9029 Y10.6522
G01 X60.8916 Y10.6361
G01 X60.8811 Y10.6195
G01 X60.8388 Y10.5490
G01 X60.8291 Y10.5319
G01 X60.8203 Y10.5143
G01 X60.7851 Y10.4400
G01 X60.7772 Y10.4220
G01 X60.7701 Y10.4037
G01 X60.7424 Y10.3263
G01 X60.7362 Y10.3076
G01 X60.7310 Y10.2887
G01 X60.7110 Y10.2089
G01 X60.7067 Y10.1898
G01 X60.7033 Y10.1704
G01 X60.6913 Y10.0891
G00 Z2.0000
G00 X63.2313 Y10.0891
G01 F60.00
G01 Z-0.1100
G01 F100.00
G01 X63.2289 Y10.0696
G01 X63.2274 Y10.0500
G01 X63.2234 Y9.9678
G01 X63.2229 Y9.9482
G01 X63.2230 Y9.1148
G01 X63.2274 Y9.0228
G01 X63.2289 Y9.0032
G01 X63.2313 Y8.9837
G01 X63.2433 Y8.9024
G01 X63.2487 Y8.8734
G01 X63.2710 Y8.7841
G01 X63.2762 Y8.7652
G01 X63.2824 Y8.7465
G01 X63.3101 Y8.6691
G01 X63.3172 Y8.6508
G01 X63.3251 Y8.6328
G01 X63.3603 Y8.5585
G01 X63.3691 Y8.5409
G01 X63.3788 Y8.5238
G01 X63.4211 Y8.4533
G01 X63.4371 Y8.4286
G01 X63.4919 Y8.3546
G01 X63.5040 Y8.3391
G01 X63.5168 Y8.3242
G01 X63.5720 Y8.2633
G01 X63.5856 Y8.2491
G01 X63.5998 Y8.2355
G01 X63.6607 Y8.1803
G01 X63.6833 Y8.1613
G01 X63.7571 Y8.1064
G01 X63.7732 Y8.0951
G01 X63.7898 Y8.0846
G01 X63.8603 Y8.0423
G01 X63.8774 Y8.0326
G01 X63.8950 Y8.0238
G01 X63.9693 Y7.9886
G01 X63.9873 Y7.9807
G01 X64.0056 Y7.9736
G01 X64.0830 Y7.9459
G01 X64.1017 Y7.9397
G01 X64.1206 Y7.9345
G01 X64.2004 Y7.9145
G01 X64.2195 Y7.9102
G01 X64.2389 Y7.9068
G01 X64.3202 Y7.8948
G01 X64.3397 Y7.8924
G01 X64.3593 Y7.8909
G01 X64.4415 Y7.8869
G01 X64.4611 Y7.8864
G01 X64.4807 Y7.8869
G01 X64.5629 Y7.8909
G01 X64.5825 Y7.8924
G01 X64.6020 Y7.8948
G01 X64.6833 Y7.9068
G01 X64.7027 Y7.9102
G01 X64.7218 Y7.9145
G01 X64.8016 Y7.9345
G01 X64.8205 Y7.9397
G01 X64.8392 Y7.9459
G01 X64.9166 Y7.9736
G01 X64.9349 Y7.9807
G01 X64.9529 Y7.9886
G01 X65.0272 Y8.0238
G01 X65.0448 Y8.0326
G01 X65.0619 Y8.0423
G01 X65.1324 Y8.0846
G01 X65.1490 Y8.0951
G01 X65.1651 Y8.1064
G01 X65.2311 Y8.1554
G01 X65.2466 Y8.1675
G01 X65.2615 Y8.1803
G01 X65.3224 Y8.2355
G01 X65.3366 Y8.2491
G01 X65.3502 Y8.2633
G01 X65.4054 Y8.3242
G01 X65.4244 Y8.3468
G01 X65.4793 Y8.4206
G01 X65.4906 Y8.4367
G01 X65.5011 Y8.4533
G01 X65.5434 Y8.5238
G01 X65.5576 Y8.5496
G01 X65.6012 Y8.6417
G01 X65.6121 Y8.6691
G01 X65.6398 Y8.7465
G01 X65.6460 Y8.7652
G01 X65.6512 Y8.7841
G01 X65.6712 Y8.8639
G01 X65.6755 Y8.8830
G01 X65.6789 Y8.9024
G01 X65.6909 Y8.9837
G01 X65.6933 Y9.0032
G01 X65.6948 Y9.0228
G01 X65.6992 Y9.1148
G01 X65.6993 Y9.9482
G01 X65.6988 Y9.9678
G01 X65.6942 Y10.0598
G01 X65.6909 Y10.0891
G01 X65.6789 Y10.1704
G01 X65.6755 Y10.1898
G01 X65.6712 Y10.2089
G01 X65.6512 Y10.2887
G01 X65.6460 Y10.3076
G01 X65.6398 Y10.3263
G01 X65.6121 Y10.4037
G01 X65.6050 Y10.4220
G01 X65.5971 Y10.4400
G01 X65.5619 Y10.5143
G01 X65.5531 Y10.5319
G01 X65.5434 Y10.5490
G01 X65.5011 Y10.6195
G01 X65.4906 Y10.6361
G01 X65.4793 Y10.6522
G01 X65.4303 Y10.7182
G01 X65.4182 Y10.7337
G01 X65.4054 Y10.7486
G01 X65.3502 Y10.8095
G01 X65.3366 Y10.8237
G01 X65.3224 Y10.8373
G01 X65.2615 Y10.8925
G01 X65.2389 Y10.9115
G01 X65.1651 Y10.9664
G01 X65.1490 Y10.9777
G01 X65.1324 Y10.9882
G01 X65.0619 Y11.0305
G01 X65.0448 Y11.0402
G01 X65.0272 Y11.0490
G01 X64.9529 Y11.0842
G01 X64.9349 Y11.0921
G01 X64.9166 Y11.0992
G01 X64.8392 Y11.1269
G01 X64.8205 Y11.1331
G01 X64.8016 Y11.1383
G01 X64.7218 Y11.1583
G01 X64.7027 Y11.1626
G01 X64.6833 Y11.1660
G01 X64.6020 Y11.1780
G01 X64.5825 Y11.1804
G01 X64.5629 Y11.1819
G01 X64.4807 Y11.1859
G01 X64.4611 Y11.1864
G01 X64.4415 Y11.1859
G01 X64.3593 Y11.1819
G01 X64.3397 Y11.1804
G01 X64.3202 Y11.1780
G01 X64.2389 Y11.1660
G01 X64.2195 Y11.1626
G01 X64.2004 Y11.1583
G01 X64.1206 Y11.1383
G01 X64.1017 Y11.1331
G01 X64.0830 Y11.1269
G01 X64.0056 Y11.0992
G01 X63.9873 Y11.0921
G01 X63.9693 Y11.0842
G01 X63.8950 Y11.0490
G01 X63.8774 Y11.0402
G01 X63.8603 Y11.0305
G01 X63.7898 Y10.9882
G01 X63.7732 Y10.9777
G01 X63.7571 Y10.9664
G01 X63.6911 Y10.9174
G01 X63.6756 Y10.9053
G01 X63.6607 Y10.8925
G01 X63.5998 Y10.8373
G01 X63.5856 Y10.8237
G01 X63.5720 Y10.8095
G01 X63.5168 Y10.7486
G01 X63.5040 Y10.7337
G01 X63.4919 Y10.7182
G01 X63.4429 Y10.6522
G01 X63.4316 Y10.6361
G01 X63.4211 Y10.6195
G01 X63.3788 Y10.5490
G01 X63.3691 Y10.5319
G01 X63.3603 Y10.5143
G01 X63.3251 Y10.4400
G01 X63.3172 Y10.4220
G01 X63.3101 Y10.4037
G01 X63.2824 Y10.3263
G01 X63.2762 Y10.3076
G01 X63.2710 Y10.2887
G01 X63.2510 Y10.2089
G01 X63.2467 Y10.1898
G01 X63.2433 Y10.1704
G01 X63.2313 Y10.0891
G00 Z2.0000
G00 X65.7713 Y10.0891
G01 F60.00
G01 Z-0.1100
G01 F100.00
G01 X65.7689 Y10.0696
G01 X65.7674 Y10.0500
G01 X65.7634 Y9.9678
G01 X65.7629 Y9.9482
G01 X65.7630 Y9.1148
G01 X65.7674 Y9.0228
G01 X65.7689 Y9.0032
G01 X65.7713 Y8.9837
G01 X65.7833 Y8.9024
G01 X65.7887 Y8.8734
G01 X65.8110 Y8.7841
G01 X65.8162 Y8.7652
G01 X65.8224 Y8.7465
G01 X65.8501 Y8.6691
G01 X65.8572 Y8.6508
G01 X65.8651 Y8.6328
G01 X65.9003 Y8.5585
G01 X65.9091 Y8.5409
G01 X65.9188 Y8.5238
G01 X65.9611 Y8.4533
G01 X65.9771 Y8.4286
G01 X66.0319 Y8.3546
G01 X66.0440 Y8.3391
G01 X66.0568 Y8.3242
G01 X66.1120 Y8.2633
G01 X66.1256 Y8.2491
G01 X66.1398 Y8.2355
G01 X66.2007 Y8.1803
G01 X66.2233 Y8.1613
G01 X66.2971 Y8.1064
G01 X66.3132 Y8.0951
G01 X66.3298 Y8.0846
G01 X66.4003 Y8.0423
G01 X66.4174 Y8.0326
G01 X66.4350 Y8.0238
G01 X66.5093 Y7.9886
G01 X66.5273 Y7.9807
G01 X66.5456 Y7.9736
G01 X66.6230 Y7.9459
G01 X66.6417 Y7.9397
G01 X66.6606 Y7.9345
G01 X66.7404 Y7.9145
G01 X66.7595 Y7.9102
G01 X66.7789 Y7.9068
G01 X66.8602 Y7.8948
G01 X66.8797 Y7.8924
G01 X66.8993 Y7.8909
G01 X66.9815 Y7.8869
G01 X67.0011 Y7.8864
G01 X67.0207 Y7.8869
G01 X67.1029 Y7.8909
G01 X67.1225 Y7.8924
G01 X67.1420 Y7.8948
G01 X67.2233 Y7.9068
G01 X67.2427 Y7.9102
G01 X67.2618 Y7.9145
G01 X67.3416 Y7.9345
G01 X67.3605 Y7.9397
G01 X67.3792 Y7.9459
G01 X67.4566 Y7.9736
G01 X67.4749 Y7.9807
G01 X67.4929 Y7.9886
G01 X67.5672 Y8.0238
G01 X67.5848 Y8.0326
G01 X67.6019 Y8.0423
G01 X67.6724 Y8.0846
G01 X67.6890 Y8.0951
G01 X67.7051 Y8.1064
G01 X67.7711 Y8.1554
G01 X67.7866 Y8.1675
G01 X67.8015 Y8.1803
G01 X67.8624 Y8.2355
G01 X67.8766 Y8.2491
G01 X67.8902 Y8.2633
G01 X67.9454 Y8.3242
G01 X67.9644 Y8.3468
G01 X68.0193 Y8.4206
G01 X68.0306 Y8.4367
G01 X68.0411 Y8.4533
G01 X68.0834 Y8.5238
G01 X68.0976 Y8.5496
G01 X68.1412 Y8.6417
G01 X68.1521 Y8.6691
G01 X68.1798 Y8.7465
G01 X68.1860 Y8.7652
G01 X68.1912 Y8.7841
G01 X68.2112 Y8.8639
G01 X68.2155 Y8.8830
G01 X68.2189 Y8.9024
G01 X68.2309 Y8.9837
G01 X68.2333 Y9.0032
G01 X68.2348 Y9.0228
G01 X68.2392 Y9.1148
G01 X68.2393 Y9.9482
G01 X68.2388 Y9.9678
G01 X68.2342 Y10.0598
G01 X68.2309 Y10.0891
G01 X68.2189 Y10.1704
G01 X68.2155 Y10.1898
G01 X68.2112 Y10.2089
G01 X68.1912 Y10.2887
G01 X68.1860 Y10.3076
G01 X68.1798 Y10.3263
G01 X68.1521 Y10.4037
G01 X68.1450 Y10.4220
G01 X68.1371 Y10.4400
G01 X68.1019 Y10.5143
G01 X68.0931 Y10.5319
G01 X68.0834 Y10.5490
G01 X68.0411 Y10.6195
G01 X68.0306 Y10.6361
G01 X68.0193 Y10.6522
G01 X67.9703 Y10.7182
G01 X67.9582 Y10.7337
G01 X67.9454 Y10.7486
G01 X67.8902 Y10.8095
G01 X67.8766 Y10.8237
G01 X67.8624 Y10.8373
G01 X67.8015 Y10.8925
G01 X67.7789 Y10.9115
G01 X67.7051 Y10.9664
G01 X67.6890 Y10.9777
G01 X67.6724 Y10.9882
G01 X67.6019 Y11.0305
G01 X67.5848 Y11.0402
G01 X67.5672 Y11.0490
G01 X67.4929 Y11.0842
G01 X67.4749 Y11.0921
G01 X67.4566 Y11.0992
G01 X67.3792 Y11.1269
G01 X67.3605 Y11.1331
G01 X67.3416 Y11.1383
G01 X67.2618 Y11.1583
G01 X67.2427 Y11.1626
G01 X67.2233 Y11.1660
G01 X67.1420 Y11.1780
G01 X67.1225 Y11.1804
G01 X67.1029 Y11.1819
G01 X67.0207 Y11.1859
G01 X67.0011 Y11.1864
G01 X66.9815 Y11.1859
G01 X66.8993 Y11.1819
G01 X66.8797 Y11.1804
G01 X66.8602 Y11.1780
G01 X66.7789 Y11.1660
G01 X66.7595 Y11.1626
G01 X66.7404 Y11.1583
G01 X66.6606 Y11.1383
G01 X66.6417 Y11.1331
G01 X66.6230 Y11.1269
G01 X66.5456 Y11.0992
G01 X66.5273 Y11.0921
G01 X66.5093 Y11.0842
G01 X66.4350 Y11.0490
G01 X66.4174 Y11.0402
G01 X66.4003 Y11.0305
G01 X66.3298 Y10.9882
G01 X66.3132 Y10.9777
G01 X66.2971 Y10.9664
G01 X66.2311 Y10.9174
G01 X66.2156 Y10.9053
G01 X66.2007 Y10.8925
G01 X66.1398 Y10.8373
G01 X66.1256 Y10.8237
G01 X66.1120 Y10.8095
G01 X66.0568 Y10.7486
G01 X66.0440 Y10.7337
G01 X66.0319 Y10.7182
G01 X65.9829 Y10.6522
G01 X65.9716 Y10.6361
G01 X65.9611 Y10.6195
G01 X65.9188 Y10.5490
G01 X65.9091 Y10.5319
G01 X65.9003 Y10.5143
G01 X65.8651 Y10.4400
G01 X65.8572 Y10.4220
G01 X65.8501 Y10.4037
G01 X65.8224 Y10.3263
G01 X65.8162 Y10.3076
G01 X65.8110 Y10.2887
G01 X65.7910 Y10.2089
G01 X65.7867 Y10.1898
G01 X65.7833 Y10.1704
G01 X65.7713 Y10.0891
G00 Z2.0000
G00 X54.4091 Y13.3895
G01 F60.00
G01 Z-0.1100
G01 F100.00
G01 X54.4067 Y13.3700
G01 X54.4053 Y13.3504
G01 X54.4005 Y13.2524
G01 X54.4000 Y13.2328
G01 X54.4005 Y13.2132
G01 X54.4053 Y13.1152
G01 X54.4067 Y13.0956
G01 X54.4091 Y13.0761
G01 X54.4235 Y12.9790
G01 X54.4269 Y12.9597
G01 X54.4312 Y12.9405
G01 X54.4550 Y12.8453
G01 X54.4603 Y12.8264
G01 X54.4664 Y12.8078
G01 X54.4995 Y12.7154
G01 X54.5066 Y12.6970
G01 X54.5145 Y12.6791
G01 X54.5565 Y12.5904
G01 X54.5653 Y12.5728
G01 X54.5750 Y12.5558
G01 X54.6254 Y12.4716
G01 X54.6359 Y12.4550
G01 X54.6472 Y12.4390
G01 X54.7057 Y12.3601
G01 X54.7178 Y12.3446
G01 X54.7306 Y12.3298
G01 X54.7965 Y12.2571
G01 X54.8101 Y12.2429
G01 X54.8243 Y12.2293
G01 X54.8970 Y12.1634
G01 X54.9118 Y12.1506
G01 X54.9273 Y12.1385
G01 X55.0062 Y12.0800
G01 X55.0222 Y12.0687
G01 X55.0388 Y12.0582
G01 X55.1230 Y12.0078
G01 X55.1400 Y11.9981
G01 X55.1576 Y11.9893
G01 X55.2463 Y11.9473
G01 X55.2642 Y11.9394
G01 X55.2826 Y11.9323
G01 X55.3750 Y11.8992
G01 X55.3936 Y11.8931
G01 X55.4125 Y11.8878
G01 X55.5077 Y11.8640
G01 X55.5269 Y11.8597
G01 X55.5462 Y11.8563
G01 X55.6433 Y11.8419
G01 X55.6628 Y11.8395
G01 X55.6824 Y11.8381
G01 X55.7804 Y11.8333
G01 X55.8000 Y11.8328
G01 X55.8196 Y11.8333
G01 X55.9176 Y11.8381
G01 X55.9372 Y11.8395
G01 X55.9567 Y11.8419
G01 X56.0538 Y11.8563
G01 X56.0731 Y11.8597
G01 X56.0923 Y11.8640
G01 X56.1875 Y11.8878
G01 X56.2064 Y11.8931
G01 X56.2250 Y11.8992
G01 X56.3174 Y11.9323
G01 X56.3358 Y11.9394
G01 X56.3537 Y11.9473
G01 X56.4424 Y11.9893
G01 X56.4600 Y11.9981
G01 X56.4770 Y12.0078
G01 X56.5612 Y12.0582
G01 X56.5778 Y12.0687
G01 X56.5938 Y12.0800
G01 X56.6727 Y12.1385
G01 X56.6882 Y12.1506
G01 X56.7030 Y12.1634
G01 X56.7757 Y12.2293
G01 X56.7899 Y12.2429
G01 X56.8035 Y12.2571
G01 X56.8694 Y12.3298
G01 X56.8822 Y12.3446
G01 X56.8943 Y12.3601
G01 X56.9528 Y12.4390
G01 X56.9641 Y12.4550
G01 X56.9746 Y12.4716
G01 X57.0250 Y12.5558
G01 X57.0347 Y12.5728
G01 X57.0435 Y12.5904
G01 X57.0855 Y12.6791
G01 X57.0934 Y12.6970
G01 X57.1005 Y12.7154
G01 X57.1336 Y12.8078
G01 X57.1397 Y12.8264
G01 X57.1450 Y12.8453
G01 X57.1688 Y12.9405
G01 X57.1731 Y12.9597
G01 X57.1765 Y12.9790
G01 X57.1909 Y13.0761
G01 X57.1933 Y13.0956
G01 X57.1947 Y13.1152
G01 X57.1995 Y13.2132
G01 X57.2000 Y13.2328
G01 X57.1995 Y13.2524
G01 X57.1947 Y13.3504
G01 X57.1933 Y13.3700
G01 X57.1909 Y13.3895
G01 X57.1749 Y13.4963
G01 X57.1688 Y13.5251
G01 X57.1450 Y13.6203
G01 X57.1397 Y13.6392
G01 X57.1336 Y13.6578
G01 X57.1005 Y13.7502
G01 X57.0934 Y13.7686
G01 X57.0855 Y13.7865
G01 X57.0435 Y13.8752
G01 X57.0347 Y13.8928
G01 X57.0250 Y13.9098
G01 X56.9694 Y14.0024
G01 X56.9528 Y14.0266
G01 X56.8943 Y14.1055
G01 X56.8822 Y14.1210
G01 X56.8694 Y14.1358
G01 X56.8035 Y14.2085
G01 X56.7899 Y14.2227
G01 X56.7757 Y14.2363
G01 X56.7030 Y14.3022
G01 X56.6805 Y14.3211
G01 X56.5938 Y14.3856
G01 X56.5778 Y14.3969
G01 X56.5612 Y14.4074
G01 X56.4686 Y14.4628
G01 X56.4424 Y14.4763
G01 X56.3448 Y14.5224
G01 X56.3266 Y14.5299
G01 X56.2701 Y14.5502
G01 X56.2701 Y28.5767
G01 X56.2797 Y28.5829
G01 X56.2957 Y28.5942
G01 X56.3578 Y28.6402
G01 X56.3733 Y28.6523
G01 X56.3881 Y28.6652
G01 X56.4526 Y28.7237
G01 X56.4732 Y28.7448
G01 X56.5250 Y28.8021
G01 X56.5379 Y28.8169
G01 X56.5500 Y28.8324
G01 X56.5960 Y28.8945
G01 X56.6126 Y28.9187
G01 X56.6575 Y28.9934
G01 X56.6672 Y29.0105
G01 X56.6760 Y29.0280
G01 X56.7091 Y29.0979
G01 X56.7207 Y29.1249
G01 X56.7533 Y29.2162
G01 X56.7615 Y29.2444
G01 X56.7803 Y29.3194
G01 X56.7846 Y29.3385
G01 X56.7879 Y29.3579
G01 X56.7993 Y29.4343
G01 X56.8025 Y29.4636
G01 X56.8073 Y29.5604
G01 X56.8074 Y30.4954
G01 X56.8069 Y30.5150
G01 X56.8025 Y30.6020
G01 X56.7993 Y30.6313
G01 X56.7879 Y30.7077
G01 X56.7846 Y30.7271
G01 X56.7803 Y30.7462
G01 X56.7615 Y30.8212
G01 X56.7533 Y30.8494
G01 X56.7241 Y30.9315
G01 X56.7170 Y30.9498
G01 X56.7091 Y30.9677
G01 X56.6760 Y31.0376
G01 X56.6672 Y31.0551
G01 X56.6575 Y31.0722
G01 X56.6178 Y31.1385
G01 X56.6073 Y31.1551
G01 X56.5960 Y31.1711
G01 X56.5500 Y31.2332
G01 X56.5379 Y31.2487
G01 X56.5250 Y31.2635
G01 X56.4732 Y31.3208
G01 X56.4596 Y31.3350
G01 X56.4454 Y31.3486
G01 X56.3881 Y31.4004
G01 X56.3733 Y31.4133
G01 X56.3578 Y31.4254
G01 X56.2957 Y31.4714
G01 X56.2797 Y31.4827
G01 X56.2631 Y31.4932
G01 X56.1968 Y31.5329
G01 X56.1797 Y31.5426
G01 X56.1622 Y31.5514
G01 X56.0923 Y31.5845
G01 X56.0744 Y31.5924
G01 X56.0561 Y31.5995
G01 X55.9740 Y31.6287
G01 X55.9458 Y31.6369
G01 X55.8708 Y31.6557
G01 X55.8517 Y31.6600
G01 X55.8323 Y31.6633
G01 X55.7559 Y31.6747
G01 X55.7266 Y31.6779
G01 X55.6396 Y31.6823
G01 X55.6200 Y31.6828
G01 X55.6004 Y31.6823
G01 X55.5232 Y31.6785
G01 X55.5036 Y31.6771
G01 X55.4841 Y31.6747
G01 X55.4077 Y31.6633
G01 X55.3883 Y31.6600
G01 X55.3692 Y31.6557
G01 X55.2942 Y31.6369
G01 X55.2753 Y31.6317
G01 X55.2567 Y31.6255
G01 X55.1839 Y31.5995
G01 X55.1656 Y31.5924
G01 X55.1477 Y31.5845
G01 X55.0778 Y31.5514
G01 X55.0603 Y31.5426
G01 X55.0432 Y31.5329
G01 X54.9769 Y31.4932
G01 X54.9603 Y31.4827
G01 X54.9443 Y31.4714
G01 X54.8822 Y31.4254
G01 X54.8667 Y31.4133
G01 X54.8519 Y31.4004
G01 X54.7946 Y31.3486
G01 X54.7804 Y31.3350
G01 X54.7668 Y31.3208
G01 X54.7150 Y31.2635
G01 X54.7021 Y31.2487
G01 X54.6900 Y31.2332
G01 X54.6440 Y31.1711
G01 X54.6327 Y31.1551
G01 X54.6222 Y31.1385
G01 X54.5825 Y31.0722
G01 X54.5728 Y31.0551
G01 X54.5640 Y31.0376
G01 X54.5309 Y30.9677
G01 X54.5230 Y30.9498
G01 X54.5159 Y30.9315
G01 X54.4899 Y30.8587
G01 X54.4837 Y30.8401
G01 X54.4785 Y30.8212
G01 X54.4597 Y30.7462
G01 X54.4554 Y30.7271
G01 X54.4521 Y30.7077
G01 X54.4407 Y30.6313
G01 X54.4375 Y30.6020
G01 X54.4331 Y30.5150
G01 X54.4326 Y30.4954
G01 X54.4327 Y29.5604
G01 X54.4375 Y29.4636
G01 X54.4407 Y29.4343
G01 X54.4521 Y29.3579
G01 X54.4554 Y29.3385
G01 X54.4597 Y29.3194
G01 X54.4785 Y29.2444
G01 X54.4867 Y29.2162
G01 X54.5193 Y29.1249
G01 X54.5309 Y29.0979
G01 X54.5640 Y29.0280
G01 X54.5728 Y29.0105
G01 X54.5825 Y28.9934
G01 X54.6274 Y28.9187
G01 X54.6440 Y28.8945
G01 X54.6900 Y28.8324
G01 X54.7021 Y28.8169
G01 X54.7150 Y28.8021
G01 X54.7668 Y28.7448
G01 X54.7874 Y28.7237
G01 X54.8519 Y28.6652
G01 X54.8667 Y28.6523
G01 X54.8822 Y28.6402
G01 X54.9443 Y28.5942
G01 X54.9603 Y28.5829
G01 X54.9699 Y28.5767
G01 X54.9699 Y14.3586
G01 X54.9195 Y14.3211
G01 X54.9043 Y14.3087
G01 X54.8171 Y14.2296
G01 X54.7965 Y14.2085
G01 X54.7241 Y14.1285
G01 X54.7057 Y14.1055
G01 X54.6472 Y14.0266
G01 X54.6359 Y14.0106
G01 X54.6254 Y13.9940
G01 X54.5700 Y13.9014
G01 X54.5565 Y13.8752
G01 X54.5145 Y13.7865
G01 X54.5066 Y13.7686
G01 X54.4995 Y13.7502
G01 X54.4664 Y13.6578
G01 X54.4603 Y13.6392
G01 X54.4550 Y13.6203
G01 X54.4312 Y13.5251
G01 X54.4269 Y13.5059
G01 X54.4235 Y13.4866
G01 X54.4091 Y13.3895
G00 Z2.0000
G00 X52.0757 Y15.4440
G01 F60.00
G01 Z-0.1100
G01 F100.00
G01 X52.0733 Y15.4245
G01 X52.0718 Y15.4049
G01 X52.0670 Y15.3069
G01 X52.0665 Y15.2873
G01 X52.0670 Y15.2677
G01 X52.0718 Y15.1697
G01 X52.0733 Y15.1501
G01 X52.0757 Y15.1306
G01 X52.0901 Y15.0335
G01 X52.0934 Y15.0142
G01 X52.0977 Y14.9950
G01 X52.1216 Y14.8998
G01 X52.1268 Y14.8809
G01 X52.1330 Y14.8623
G01 X52.1660 Y14.7699
G01 X52.1731 Y14.7515
G01 X52.1810 Y14.7336
G01 X52.2230 Y14.6449
G01 X52.2318 Y14.6273
G01 X52.2415 Y14.6103
G01 X52.2920 Y14.5261
G01 X52.3025 Y14.5095
G01 X52.3138 Y14.4935
G01 X52.3782 Y14.4068
G01 X52.3971 Y14.3843
G01 X52.4630 Y14.3116
G01 X52.4766 Y14.2974
G01 X52.4908 Y14.2838
G01 X52.5635 Y14.2179
G01 X52.5784 Y14.2051
G01 X52.5938 Y14.1930
G01 X52.6727 Y14.1345
G01 X52.6887 Y14.1232
G01 X52.7053 Y14.1127
G01 X52.7895 Y14.0623
G01 X52.8066 Y14.0526
G01 X52.8241 Y14.0438
G01 X52.9128 Y14.0018
G01 X52.9308 Y13.9939
G01 X52.9491 Y13.9868
G01 X53.0415 Y13.9537
G01 X53.0601 Y13.9476
G01 X53.0790 Y13.9423
G01 X53.1742 Y13.9185
G01 X53.1934 Y13.9142
G01 X53.2127 Y13.9108
G01 X53.3098 Y13.8964
G01 X53.3293 Y13.8940
G01 X53.3489 Y13.8926
G01 X53.4469 Y13.8878
G01 X53.4665 Y13.8873
G01 X53.4861 Y13.8878
G01 X53.5940 Y13.8932
G01 X53.6232 Y13.8964
G01 X53.7203 Y13.9108
G01 X53.7396 Y13.9142
G01 X53.7588 Y13.9185
G01 X53.8540 Y13.9423
G01 X53.8729 Y13.9476
G01 X53.8916 Y13.9537
G01 X53.9932 Y13.9902
G01 X54.0202 Y14.0018
G01 X54.1089 Y14.0438
G01 X54.1351 Y14.0573
G01 X54.2277 Y14.1127
G01 X54.2443 Y14.1232
G01 X54.2604 Y14.1345
G01 X54.3392 Y14.1930
G01 X54.3547 Y14.2051
G01 X54.3695 Y14.2179
G01 X54.4422 Y14.2838
G01 X54.4565 Y14.2974
G01 X54.4700 Y14.3116
G01 X54.5359 Y14.3843
G01 X54.5487 Y14.3991
G01 X54.5608 Y14.4146
G01 X54.6193 Y14.4935
G01 X54.6359 Y14.5177
G01 X54.6915 Y14.6103
G01 X54.7012 Y14.6273
G01 X54.7100 Y14.6449
G01 X54.7520 Y14.7336
G01 X54.7599 Y14.7515
G01 X54.7670 Y14.7699
G01 X54.8001 Y14.8623
G01 X54.8062 Y14.8809
G01 X54.8115 Y14.8998
G01 X54.8353 Y14.9950
G01 X54.8396 Y15.0142
G01 X54.8430 Y15.0335
G01 X54.8574 Y15.1306
G01 X54.8598 Y15.1501
G01 X54.8612 Y15.1697
G01 X54.8660 Y15.2677
G01 X54.8665 Y15.2873
G01 X54.8660 Y15.3069
G01 X54.8612 Y15.4049
G01 X54.8598 Y15.4245
G01 X54.8574 Y15.4440
G01 X54.8430 Y15.5411
G01 X54.8396 Y15.5604
G01 X54.8353 Y15.5796
G01 X54.8115 Y15.6748
G01 X54.8062 Y15.6937
G01 X54.8001 Y15.7123
G01 X54.7670 Y15.8047
G01 X54.7599 Y15.8231
G01 X54.7520 Y15.8410
G01 X54.7100 Y15.9297
G01 X54.7012 Y15.9473
G01 X54.6915 Y15.9643
G01 X54.6411 Y16.0485
G01 X54.6306 Y16.0651
G01 X54.6193 Y16.0811
G01 X54.5608 Y16.1600
G01 X54.5487 Y16.1755
G01 X54.5359 Y16.1903
G01 X54.4700 Y16.2630
G01 X54.4565 Y16.2772
G01 X54.4422 Y16.2908
G01 X54.3695 Y16.3567
G01 X54.3501 Y16.3731
G01 X54.3501 Y34.1435
G01 X54.8408 Y34.6341
G01 X54.8517 Y34.6277
G01 X54.8690 Y34.6185
G01 X54.9477 Y34.5811
G01 X54.9656 Y34.5732
G01 X54.9839 Y34.5661
G01 X55.0567 Y34.5401
G01 X55.0753 Y34.5339
G01 X55.0942 Y34.5287
G01 X55.1692 Y34.5099
G01 X55.1883 Y34.5056
G01 X55.2077 Y34.5023
G01 X55.2841 Y34.4909
G01 X55.3036 Y34.4885
G01 X55.3232 Y34.4871
G01 X55.4004 Y34.4833
G01 X55.4200 Y34.4828
G01 X55.4396 Y34.4833
G01 X55.5168 Y34.4871
G01 X55.5364 Y34.4885
G01 X55.5559 Y34.4909
G01 X55.6323 Y34.5023
G01 X55.6517 Y34.5056
G01 X55.6708 Y34.5099
G01 X55.7458 Y34.5287
G01 X55.7647 Y34.5339
G01 X55.7833 Y34.5401
G01 X55.8561 Y34.5661
G01 X55.8744 Y34.5732
G01 X55.8923 Y34.5811
G01 X55.9622 Y34.6142
G01 X55.9797 Y34.6230
G01 X55.9968 Y34.6327
G01 X56.0631 Y34.6724
G01 X56.0797 Y34.6829
G01 X56.0957 Y34.6942
G01 X56.1578 Y34.7402
G01 X56.1733 Y34.7523
G01 X56.1881 Y34.7652
G01 X56.2454 Y34.8170
G01 X56.2596 Y34.8306
G01 X56.2732 Y34.8448
G01 X56.3250 Y34.9021
G01 X56.3379 Y34.9169
G01 X56.3500 Y34.9324
G01 X56.3960 Y34.9945
G01 X56.4073 Y35.0105
G01 X56.4178 Y35.0271
G01 X56.4575 Y35.0934
G01 X56.4672 Y35.1105
G01 X56.4760 Y35.1280
G01 X56.5091 Y35.1979
G01 X56.5170 Y35.2158
G01 X56.5241 Y35.2341
G01 X56.5501 Y35.3069
G01 X56.5563 Y35.3255
G01 X56.5615 Y35.3444
G01 X56.5803 Y35.4194
G01 X56.5864 Y35.4482
G01 X56.5993 Y35.5343
G01 X56.6017 Y35.5538
G01 X56.6031 Y35.5734
G01 X56.6069 Y35.6506
G01 X56.6074 Y35.6702
G01 X56.6073 Y36.6052
G01 X56.6031 Y36.6922
G01 X56.6017 Y36.7118
G01 X56.5993 Y36.7313
G01 X56.5879 Y36.8077
G01 X56.5846 Y36.8271
G01 X56.5803 Y36.8462
G01 X56.5615 Y36.9212
G01 X56.5563 Y36.9401
G01 X56.5501 Y36.9587
G01 X56.5207 Y37.0407
G01 X56.5091 Y37.0677
G01 X56.4760 Y37.1376
G01 X56.4672 Y37.1551
G01 X56.4575 Y37.1722
G01 X56.4178 Y37.2385
G01 X56.4073 Y37.2551
G01 X56.3960 Y37.2711
G01 X56.3500 Y37.3332
G01 X56.3379 Y37.3487
G01 X56.3250 Y37.3635
G01 X56.2732 Y37.4208
G01 X56.2596 Y37.4350
G01 X56.2454 Y37.4486
G01 X56.1881 Y37.5004
G01 X56.1733 Y37.5133
G01 X56.1578 Y37.5254
G01 X56.0957 Y37.5714
G01 X56.0797 Y37.5827
G01 X56.0631 Y37.5932
G01 X55.9968 Y37.6329
G01 X55.9797 Y37.6426
G01 X55.9622 Y37.6514
G01 X55.8923 Y37.6845
G01 X55.8744 Y37.6924
G01 X55.8561 Y37.6995
G01 X55.7833 Y37.7255
G01 X55.7647 Y37.7317
G01 X55.7458 Y37.7369
G01 X55.6708 Y37.7557
G01 X55.6517 Y37.7600
G01 X55.6323 Y37.7633
G01 X55.5559 Y37.7747
G01 X55.5364 Y37.7771
G01 X55.5168 Y37.7785
G01 X55.4396 Y37.7823
G01 X55.4200 Y37.7828
G01 X55.4004 Y37.7823
G01 X55.3232 Y37.7785
G01 X55.3036 Y37.7771
G01 X55.2841 Y37.7747
G01 X55.2077 Y37.7633
G01 X55.1883 Y37.7600
G01 X55.1692 Y37.7557
G01 X55.0942 Y37.7369
G01 X55.0753 Y37.7317
G01 X55.0567 Y37.7255
G01 X54.9839 Y37.6995
G01 X54.9656 Y37.6924
G01 X54.9477 Y37.6845
G01 X54.8778 Y37.6514
G01 X54.8603 Y37.6426
G01 X54.8432 Y37.6329
G01 X54.7769 Y37.5932
G01 X54.7603 Y37.5827
G01 X54.7443 Y37.5714
G01 X54.6822 Y37.5254
G01 X54.6667 Y37.5133
G01 X54.6519 Y37.5004
G01 X54.5946 Y37.4486
G01 X54.5804 Y37.4350
G01 X54.5668 Y37.4208
G01 X54.5150 Y37.3635
G01 X54.4960 Y37.3410
G01 X54.4383 Y37.2632
G01 X54.4222 Y37.2385
G01 X54.3825 Y37.1722
G01 X54.3728 Y37.1551
G01 X54.3640 Y37.1376
G01 X54.3309 Y37.0677
G01 X54.3230 Y37.0498
G01 X54.3159 Y37.0315
G01 X54.2899 Y36.9587
G01 X54.2837 Y36.9401
G01 X54.2785 Y36.9212
G01 X54.2597 Y36.8462
G01 X54.2536 Y36.8174
G01 X54.2407 Y36.7313
G01 X54.2383 Y36.7118
G01 X54.2369 Y36.6922
G01 X54.2327 Y36.6052
G01 X54.2326 Y35.8648
G01 X53.2403 Y34.8725
G01 X53.2268 Y34.8583
G01 X53.2038 Y34.8327
G01 X53.1913 Y34.8176
G01 X53.1707 Y34.7900
G01 X53.1541 Y34.7658
G01 X53.1363 Y34.7363
G01 X53.1266 Y34.7193
G01 X53.1178 Y34.7017
G01 X53.1073 Y34.6795
G01 X53.0957 Y34.6525
G01 X53.0840 Y34.6202
G01 X53.0779 Y34.6015
G01 X53.0726 Y34.5826
G01 X53.0644 Y34.5492
G01 X53.0590 Y34.5203
G01 X53.0541 Y34.4863
G01 X53.0522 Y34.4667
G01 X53.0504 Y34.4324
G01 X53.0499 Y34.4128
G01 X53.0499 Y16.6237
G01 X52.9491 Y16.5878
G01 X52.9308 Y16.5807
G01 X52.9128 Y16.5728
G01 X52.8241 Y16.5308
G01 X52.8066 Y16.5220
G01 X52.7895 Y16.5123
G01 X52.7053 Y16.4619
G01 X52.6887 Y16.4514
G01 X52.6727 Y16.4401
G01 X52.5938 Y16.3816
G01 X52.5784 Y16.3695
G01 X52.5635 Y16.3567
G01 X52.4908 Y16.2908
G01 X52.4766 Y16.2772
G01 X52.4630 Y16.2630
G01 X52.3971 Y16.1903
G01 X52.3843 Y16.1755
G01 X52.3722 Y16.1600
G01 X52.3138 Y16.0811
G01 X52.3025 Y16.0651
G01 X52.2920 Y16.0485
G01 X52.2415 Y15.9643
G01 X52.2318 Y15.9473
G01 X52.2230 Y15.9297
G01 X52.1810 Y15.8410
G01 X52.1731 Y15.8231
G01 X52.1660 Y15.8047
G01 X52.1330 Y15.7123
G01 X52.1268 Y15.6937
G01 X52.1216 Y15.6748
G01 X52.0977 Y15.5796
G01 X52.0934 Y15.5604
G01 X52.0901 Y15.5411
G01 X52.0757 Y15.4440
G00 Z2.0000
G00 X50.2546 Y18.4895
G01 F60.00
G01 Z-0.1100
G01 F100.00
G01 X50.2522 Y18.4700
G01 X50.2508 Y18.4504
G01 X50.2460 Y18.3524
G01 X50.2455 Y18.3328
G01 X50.2460 Y18.3132
G01 X50.2514 Y18.2054
G01 X50.2546 Y18.1761
G01 X50.2690 Y18.0790
G01 X50.2724 Y18.0597
G01 X50.2767 Y18.0405
G01 X50.3005 Y17.9453
G01 X50.3058 Y17.9264
G01 X50.3119 Y17.9078
G01 X50.3484 Y17.8062
G01 X50.3600 Y17.7791
G01 X50.4020 Y17.6904
G01 X50.4155 Y17.6642
G01 X50.4709 Y17.5716
G01 X50.4814 Y17.5550
G01 X50.4927 Y17.5390
G01 X50.5512 Y17.4601
G01 X50.5633 Y17.4446
G01 X50.5761 Y17.4298
G01 X50.6420 Y17.3571
G01 X50.6556 Y17.3429
G01 X50.6698 Y17.3293
G01 X50.7425 Y17.2634
G01 X50.7573 Y17.2506
G01 X50.7728 Y17.2385
G01 X50.8517 Y17.1800
G01 X50.8759 Y17.1634
G01 X50.9685 Y17.1078
G01 X50.9855 Y17.0981
G01 X51.0031 Y17.0893
G01 X51.0918 Y17.0473
G01 X51.1097 Y17.0394
G01 X51.1281 Y17.0323
G01 X51.2205 Y16.9992
G01 X51.2391 Y16.9931
G01 X51.2580 Y16.9878
G01 X51.3532 Y16.9640
G01 X51.3724 Y16.9597
G01 X51.3917 Y16.9563
G01 X51.4888 Y16.9419
G01 X51.5083 Y16.9395
G01 X51.5279 Y16.9381
G01 X51.6259 Y16.9333
G01 X51.6455 Y16.9328
G01 X51.6651 Y16.9333
G01 X51.7631 Y16.9381
G01 X51.7827 Y16.9395
G01 X51.8022 Y16.9419
G01 X51.8993 Y16.9563
G01 X51.9186 Y16.9597
G01 X51.9378 Y16.9640
G01 X52.0330 Y16.9878
G01 X52.0519 Y16.9931
G01 X52.0705 Y16.9992
G01 X52.1629 Y17.0323
G01 X52.1813 Y17.0394
G01 X52.1992 Y17.0473
G01 X52.2879 Y17.0893
G01 X52.3055 Y17.0981
G01 X52.3225 Y17.1078
G01 X52.4067 Y17.1582
G01 X52.4233 Y17.1687
G01 X52.4393 Y17.1800
G01 X52.5182 Y17.2385
G01 X52.5337 Y17.2506
G01 X52.5485 Y17.2634
G01 X52.6212 Y17.3293
G01 X52.6354 Y17.3429
G01 X52.6490 Y17.3571
G01 X52.7149 Y17.4298
G01 X52.7277 Y17.4446
G01 X52.7398 Y17.4601
G01 X52.7983 Y17.5390
G01 X52.8096 Y17.5550
G01 X52.8201 Y17.5716
G01 X52.8705 Y17.6558
G01 X52.8802 Y17.6728
G01 X52.8890 Y17.6904
G01 X52.9310 Y17.7791
G01 X52.9389 Y17.7970
G01 X52.9460 Y17.8154
G01 X52.9791 Y17.9078
G01 X52.9852 Y17.9264
G01 X52.9905 Y17.9453
G01 X53.0166 Y18.0501
G01 X53.0220 Y18.0790
G01 X53.0364 Y18.1761
G01 X53.0388 Y18.1956
G01 X53.0402 Y18.2152
G01 X53.0450 Y18.3132
G01 X53.0455 Y18.3328
G01 X53.0450 Y18.3524
G01 X53.0402 Y18.4504
G01 X53.0388 Y18.4700
G01 X53.0364 Y18.4895
G01 X53.0220 Y18.5866
G01 X53.0186 Y18.6059
G01 X53.0143 Y18.6251
G01 X52.9905 Y18.7203
G01 X52.9852 Y18.7392
G01 X52.9791 Y18.7578
G01 X52.9460 Y18.8502
G01 X52.9351 Y18.8776
G01 X52.8890 Y18.9752
G01 X52.8802 Y18.9928
G01 X52.8705 Y19.0098
G01 X52.8201 Y19.0940
G01 X52.8096 Y19.1106
G01 X52.7983 Y19.1266
G01 X52.7398 Y19.2055
G01 X52.7214 Y19.2285
G01 X52.6490 Y19.3085
G01 X52.6354 Y19.3227
G01 X52.6212 Y19.3363
G01 X52.5412 Y19.4087
G01 X52.5182 Y19.4271
G01 X52.4314 Y19.4913
G01 X52.4067 Y19.5074
G01 X52.3501 Y19.5413
G01 X52.3501 Y37.0035
G01 X54.7808 Y39.4341
G01 X54.7917 Y39.4277
G01 X54.8090 Y39.4185
G01 X54.8966 Y39.3771
G01 X54.9239 Y39.3661
G01 X55.0060 Y39.3369
G01 X55.0342 Y39.3287
G01 X55.1092 Y39.3099
G01 X55.1283 Y39.3056
G01 X55.1477 Y39.3023
G01 X55.2339 Y39.2896
G01 X55.2632 Y39.2871
G01 X55.3404 Y39.2833
G01 X55.3600 Y39.2828
G01 X55.3796 Y39.2833
G01 X55.4568 Y39.2871
G01 X55.4764 Y39.2885
G01 X55.4959 Y39.2909
G01 X55.5723 Y39.3023
G01 X55.5917 Y39.3056
G01 X55.6108 Y39.3099
G01 X55.6953 Y39.3312
G01 X55.7233 Y39.3401
G01 X55.7961 Y39.3661
G01 X55.8144 Y39.3732
G01 X55.8323 Y39.3811
G01 X55.9022 Y39.4142
G01 X55.9197 Y39.4230
G01 X55.9368 Y39.4327
G01 X56.0031 Y39.4724
G01 X56.0197 Y39.4829
G01 X56.0357 Y39.4942
G01 X56.0978 Y39.5402
G01 X56.1133 Y39.5523
G01 X56.1281 Y39.5652
G01 X56.1854 Y39.6170
G01 X56.1996 Y39.6306
G01 X56.2132 Y39.6448
G01 X56.2650 Y39.7021
G01 X56.2779 Y39.7169
G01 X56.2900 Y39.7324
G01 X56.3360 Y39.7945
G01 X56.3473 Y39.8105
G01 X56.3578 Y39.8271
G01 X56.3975 Y39.8934
G01 X56.4072 Y39.9105
G01 X56.4160 Y39.9280
G01 X56.4491 Y39.9979
G01 X56.4570 Y40.0158
G01 X56.4641 Y40.0341
G01 X56.4901 Y40.1069
G01 X56.4963 Y40.1255
G01 X56.5015 Y40.1444
G01 X56.5203 Y40.2194
G01 X56.5246 Y40.2385
G01 X56.5279 Y40.2579
G01 X56.5393 Y40.3343
G01 X56.5417 Y40.3538
G01 X56.5431 Y40.3734
G01 X56.5469 Y40.4506
G01 X56.5474 Y40.4702
G01 X56.5473 Y41.4052
G01 X56.5431 Y41.4922
G01 X56.5417 Y41.5118
G01 X56.5393 Y41.5313
G01 X56.5279 Y41.6077
G01 X56.5246 Y41.6271
G01 X56.5203 Y41.6462
G01 X56.5015 Y41.7212
G01 X56.4963 Y41.7401
G01 X56.4901 Y41.7587
G01 X56.4641 Y41.8315
G01 X56.4570 Y41.8498
G01 X56.4491 Y41.8677
G01 X56.4160 Y41.9376
G01 X56.4072 Y41.9551
G01 X56.3975 Y41.9722
G01 X56.3578 Y42.0385
G01 X56.3473 Y42.0551
G01 X56.3360 Y42.0711
G01 X56.2900 Y42.1332
G01 X56.2779 Y42.1487
G01 X56.2650 Y42.1635
G01 X56.2132 Y42.2208
G01 X56.1996 Y42.2350
G01 X56.1854 Y42.2486
G01 X56.1281 Y42.3004
G01 X56.1133 Y42.3133
G01 X56.0978 Y42.3254
G01 X56.0357 Y42.3714
G01 X56.0197 Y42.3827
G01 X56.0031 Y42.3932
G01 X55.9368 Y42.4329
G01 X55.9197 Y42.4426
G01 X55.9022 Y42.4514
G01 X55.8323 Y42.4845
G01 X55.8144 Y42.4924
G01 X55.7961 Y42.4995
G01 X55.7233 Y42.5255
G01 X55.7047 Y42.5317
G01 X55.6858 Y42.5369
G01 X55.6013 Y42.5580
G01 X55.5723 Y42.5633
G01 X55.4959 Y42.5747
G01 X55.4764 Y42.5771
G01 X55.4568 Y42.5785
G01 X55.3796 Y42.5823
G01 X55.3600 Y42.5828
G01 X55.3404 Y42.5823
G01 X55.2632 Y42.5785
G01 X55.2436 Y42.5771
G01 X55.2241 Y42.5747
G01 X55.1477 Y42.5633
G01 X55.1283 Y42.5600
G01 X55.1092 Y42.5557
G01 X55.0342 Y42.5369
G01 X55.0153 Y42.5317
G01 X54.9967 Y42.5255
G01 X54.9239 Y42.4995
G01 X54.9056 Y42.4924
G01 X54.8877 Y42.4845
G01 X54.8178 Y42.4514
G01 X54.8003 Y42.4426
G01 X54.7832 Y42.4329
G01 X54.7169 Y42.3932
G01 X54.7003 Y42.3827
G01 X54.6843 Y42.3714
G01 X54.6222 Y42.3254
G01 X54.6067 Y42.3133
G01 X54.5919 Y42.3004
G01 X54.5346 Y42.2486
G01 X54.5204 Y42.2350
G01 X54.5068 Y42.2208
G01 X54.4484 Y42.1562
G01 X54.4300 Y42.1332
G01 X54.3840 Y42.0711
G01 X54.3727 Y42.0551
G01 X54.3622 Y42.0385
G01 X54.3225 Y41.9722
G01 X54.3128 Y41.9551
G01 X54.3040 Y41.9376
G01 X54.2709 Y41.8677
G01 X54.2630 Y41.8498
G01 X54.2559 Y41.8315
G01 X54.2299 Y41.7587
G01 X54.2237 Y41.7401
G01 X54.2185 Y41.7212
G01 X54.1997 Y41.6462
G01 X54.1936 Y41.6174
G01 X54.1807 Y41.5313
G01 X54.1783 Y41.5118
G01 X54.1769 Y41.4922
G01 X54.1727 Y41.4052
G01 X54.1726 Y40.6648
G01 X51.2334 Y37.7255
G01 X51.2103 Y37.7001
G01 X51.1974 Y37.6852
G01 X51.1854 Y37.6698
G01 X51.1707 Y37.6500
G01 X51.1541 Y37.6258
G01 X51.1363 Y37.5963
G01 X51.1266 Y37.5793
G01 X51.1178 Y37.5617
G01 X51.1032 Y37.5306
G01 X51.0923 Y37.5033
G01 X51.0840 Y37.4802
G01 X51.0779 Y37.4615
G01 X51.0726 Y37.4426
G01 X51.0644 Y37.4092
G01 X51.0590 Y37.3803
G01 X51.0554 Y37.3560
G01 X51.0530 Y37.3365
G01 X51.0516 Y37.3169
G01 X51.0504 Y37.2924
G01 X51.0499 Y37.2728
G01 X51.0499 Y19.5984
G01 X50.9943 Y19.5720
G01 X50.9769 Y19.5628
G01 X50.8759 Y19.5022
G01 X50.8517 Y19.4856
G01 X50.7728 Y19.4271
G01 X50.7498 Y19.4087
G01 X50.6698 Y19.3363
G01 X50.6556 Y19.3227
G01 X50.6420 Y19.3085
G01 X50.5761 Y19.2358
G01 X50.5633 Y19.2210
G01 X50.5512 Y19.2055
G01 X50.4870 Y19.1187
G01 X50.4709 Y19.0940
G01 X50.4205 Y19.0098
G01 X50.4108 Y18.9928
G01 X50.4020 Y18.9752
G01 X50.3600 Y18.8865
G01 X50.3521 Y18.8686
G01 X50.3450 Y18.8502
G01 X50.3087 Y18.7486
G01 X50.3005 Y18.7203
G01 X50.2767 Y18.6251
G01 X50.2724 Y18.6059
G01 X50.2690 Y18.5866
G01 X50.2546 Y18.4895
G00 Z2.0000
G00 X37.6871 Y23.8966
G01 F60.00
G01 Z-0.1100
G01 F100.00
G01 X37.6847 Y23.8771
G01 X37.6833 Y23.8576
G01 X37.6801 Y23.7928
G01 X37.6796 Y23.7732
G01 X37.6796 Y22.4524
G01 X37.6801 Y22.4328
G01 X37.6833 Y22.3680
G01 X37.6847 Y22.3485
G01 X37.6871 Y22.3290
G01 X37.6966 Y22.2649
G01 X37.7000 Y22.2455
G01 X37.7043 Y22.2264
G01 X37.7200 Y22.1635
G01 X37.7253 Y22.1446
G01 X37.7314 Y22.1259
G01 X37.7533 Y22.0649
G01 X37.7603 Y22.0466
G01 X37.7683 Y22.0287
G01 X37.7960 Y21.9701
G01 X37.8048 Y21.9525
G01 X37.8145 Y21.9354
G01 X37.8478 Y21.8799
G01 X37.8639 Y21.8552
G01 X37.9082 Y21.7952
G01 X37.9203 Y21.7797
G01 X37.9331 Y21.7648
G01 X37.9766 Y21.7168
G01 X37.9902 Y21.7026
G01 X38.0044 Y21.6890
G01 X38.0524 Y21.6455
G01 X38.0673 Y21.6327
G01 X38.0828 Y21.6206
G01 X38.1348 Y21.5820
G01 X38.1509 Y21.5707
G01 X38.1675 Y21.5602
G01 X38.2230 Y21.5269
G01 X38.2401 Y21.5172
G01 X38.2577 Y21.5084
G01 X38.3163 Y21.4807
G01 X38.3342 Y21.4727
G01 X38.3525 Y21.4657
G01 X38.4135 Y21.4438
G01 X38.4322 Y21.4377
G01 X38.4511 Y21.4324
G01 X38.5140 Y21.4167
G01 X38.5331 Y21.4124
G01 X38.5525 Y21.4090
G01 X38.6166 Y21.3995
G01 X38.6361 Y21.3971
G01 X38.6556 Y21.3957
G01 X38.7204 Y21.3925
G01 X38.7400 Y21.3920
G01 X38.7596 Y21.3925
G01 X38.8244 Y21.3957
G01 X38.8439 Y21.3971
G01 X38.8634 Y21.3995
G01 X38.9275 Y21.4090
G01 X38.9469 Y21.4124
G01 X38.9660 Y21.4167
G01 X39.0289 Y21.4324
G01 X39.0478 Y21.4377
G01 X39.0665 Y21.4438
G01 X39.1275 Y21.4657
G01 X39.1458 Y21.4727
G01 X39.1637 Y21.4807
G01 X39.2223 Y21.5084
G01 X39.2399 Y21.5172
G01 X39.2570 Y21.5269
G01 X39.3125 Y21.5602
G01 X39.3372 Y21.5763
G01 X39.3972 Y21.6206
G01 X39.4202 Y21.6390
G01 X39.4828 Y21.6957
G01 X39.5034 Y21.7168
G01 X39.5469 Y21.7648
G01 X39.5597 Y21.7797
G01 X39.5718 Y21.7952
G01 X39.6104 Y21.8472
G01 X39.6270 Y21.8715
G01 X39.6655 Y21.9354
G01 X39.6752 Y21.9525
G01 X39.6840 Y21.9701
G01 X39.7117 Y22.0287
G01 X39.7197 Y22.0466
G01 X39.7267 Y22.0649
G01 X39.7486 Y22.1259
G01 X39.7547 Y22.1446
G01 X39.7600 Y22.1635
G01 X39.7757 Y22.2264
G01 X39.7800 Y22.2455
G01 X39.7834 Y22.2649
G01 X39.7929 Y22.3290
G01 X39.7953 Y22.3485
G01 X39.7967 Y22.3680
G01 X39.7999 Y22.4328
G01 X39.8004 Y22.4524
G01 X39.8004 Y23.7732
G01 X39.7999 Y23.7928
G01 X39.7967 Y23.8576
G01 X39.7953 Y23.8771
G01 X39.7929 Y23.8966
G01 X39.7834 Y23.9607
G01 X39.7800 Y23.9801
G01 X39.7757 Y23.9992
G01 X39.7600 Y24.0621
G01 X39.7547 Y24.0810
G01 X39.7486 Y24.0997
G01 X39.7267 Y24.1607
G01 X39.7197 Y24.1790
G01 X39.7117 Y24.1969
G01 X39.6840 Y24.2555
G01 X39.6752 Y24.2731
G01 X39.6655 Y24.2902
G01 X39.6322 Y24.3457
G01 X39.6161 Y24.3704
G01 X39.5718 Y24.4304
G01 X39.5597 Y24.4459
G01 X39.5469 Y24.4608
G01 X39.5034 Y24.5088
G01 X39.4898 Y24.5230
G01 X39.4756 Y24.5366
G01 X39.4276 Y24.5801
G01 X39.4127 Y24.5929
G01 X39.3972 Y24.6050
G01 X39.3452 Y24.6436
G01 X39.3291 Y24.6549
G01 X39.3125 Y24.6654
G01 X39.2570 Y24.6987
G01 X39.2399 Y24.7084
G01 X39.2223 Y24.7172
G01 X39.1637 Y24.7449
G01 X39.1367 Y24.7565
G01 X39.0665 Y24.7818
G01 X39.0478 Y24.7879
G01 X39.0289 Y24.7932
G01 X38.9660 Y24.8089
G01 X38.9469 Y24.8132
G01 X38.9275 Y24.8166
G01 X38.8634 Y24.8261
G01 X38.8342 Y24.8293
G01 X38.7596 Y24.8331
G01 X38.7400 Y24.8336
G01 X38.7204 Y24.8331
G01 X38.6458 Y24.8293
G01 X38.6166 Y24.8261
G01 X38.5525 Y24.8166
G01 X38.5331 Y24.8132
G01 X38.5140 Y24.8089
G01 X38.4511 Y24.7932
G01 X38.4322 Y24.7879
G01 X38.4135 Y24.7818
G01 X38.3525 Y24.7599
G01 X38.3342 Y24.7529
G01 X38.3163 Y24.7449
G01 X38.2577 Y24.7172
G01 X38.2401 Y24.7084
G01 X38.2230 Y24.6987
G01 X38.1675 Y24.6654
G01 X38.1509 Y24.6549
G01 X38.1348 Y24.6436
G01 X38.0828 Y24.6050
G01 X38.0598 Y24.5866
G01 X38.0044 Y24.5366
G01 X37.9902 Y24.5230
G01 X37.9766 Y24.5088
G01 X37.9331 Y24.4608
G01 X37.9203 Y24.4459
G01 X37.9082 Y24.4304
G01 X37.8696 Y24.3784
G01 X37.8530 Y24.3541
G01 X37.8145 Y24.2902
G01 X37.8048 Y24.2731
G01 X37.7960 Y24.2555
G01 X37.7642 Y24.1880
G01 X37.7533 Y24.1607
G01 X37.7314 Y24.0997
G01 X37.7225 Y24.0716
G01 X37.7043 Y23.9992
G01 X37.7000 Y23.9801
G01 X37.6966 Y23.9607
G01 X37.6871 Y23.8966
G00 Z2.0000
G00 X35.1471 Y23.8966
G01 F60.00
G01 Z-0.1100
G01 F100.00
G01 X35.1447 Y23.8771
G01 X35.1433 Y23.8576
G01 X35.1401 Y23.7928
G01 X35.1396 Y23.7732
G01 X35.1396 Y22.4524
G01 X35.1401 Y22.4328
G01 X35.1433 Y22.3680
G01 X35.1447 Y22.3485
G01 X35.1471 Y22.3290
G01 X35.1566 Y22.2649
G01 X35.1600 Y22.2455
G01 X35.1643 Y22.2264
G01 X35.1800 Y22.1635
G01 X35.1853 Y22.1446
G01 X35.1914 Y22.1259
G01 X35.2133 Y22.0649
G01 X35.2203 Y22.0466
G01 X35.2283 Y22.0287
G01 X35.2560 Y21.9701
G01 X35.2648 Y21.9525
G01 X35.2745 Y21.9354
G01 X35.3078 Y21.8799
G01 X35.3239 Y21.8552
G01 X35.3682 Y21.7952
G01 X35.3803 Y21.7797
G01 X35.3931 Y21.7648
G01 X35.4366 Y21.7168
G01 X35.4502 Y21.7026
G01 X35.4644 Y21.6890
G01 X35.5124 Y21.6455
G01 X35.5273 Y21.6327
G01 X35.5428 Y21.6206
G01 X35.5948 Y21.5820
G01 X35.6109 Y21.5707
G01 X35.6275 Y21.5602
G01 X35.6830 Y21.5269
G01 X35.7001 Y21.5172
G01 X35.7177 Y21.5084
G01 X35.7763 Y21.4807
G01 X35.7942 Y21.4727
G01 X35.8125 Y21.4657
G01 X35.8735 Y21.4438
G01 X35.8922 Y21.4377
G01 X35.9111 Y21.4324
G01 X35.9740 Y21.4167
G01 X35.9931 Y21.4124
G01 X36.0125 Y21.4090
G01 X36.0766 Y21.3995
G01 X36.0961 Y21.3971
G01 X36.1156 Y21.3957
G01 X36.1804 Y21.3925
G01 X36.2000 Y21.3920
G01 X36.2196 Y21.3925
G01 X36.2844 Y21.3957
G01 X36.3039 Y21.3971
